GoerkemBasar/daydreamer-perception-experiments-evals/drqv2/exp_local/2025.12.10/082140_+task.discount=0.99,+task=walker_walk,device=mps,replay_buffer_num_workers=0,seed=1,task_name=custom_walker_side/train.csv
actor_ent,actor_logprob,actor_loss,batch_reward,buffer_size,critic_loss,critic_q1,critic_q2,critic_target_q,episode,episode_length,episode_reward,fps,frame,step,total_time
8.489292400360107,-5.618134378433227,-0.5273038328588009,0.23707379812002183,2500.0,0.027713723968714476,0.5134260569512844,0.5140261537730694,0.5154365104138852,5.0,1000.0,25.372365979829123,18.541227329853534,5000,2500.0,53.9338641166687
8.483867996215821,-5.599853818893433,-0.9034293055534363,0.2207997081875801,3000.0,0.021091287933290005,0.9152504668235779,0.915204006433487,0.9156503484249116,6.0,1000.0,34.584599943852915,42.621215136462546,6000,3000.0,77.39635920524597
8.47843869781494,-5.592970634460449,-1.2484282755851746,0.2167336211800575,3500.0,0.02581116799637675,1.2486262199878693,1.2486341729164123,1.24920854473114,7.0,1000.0,29.5497391927954,43.80016159563556,7000,3500.0,100.22732591629028
8.473004386901856,-5.58787494468689,-1.4681328296661378,0.2112058321237564,4000.0,0.035162390917539595,1.4735283207893373,1.4734653797149657,1.4740711188316344,8.0,1000.0,57.838429464726524,35.397865322471226,8000,4000.0,128.47761821746826
8.46756530380249,-5.582420637130737,-1.7890465002059937,0.2278218919634819,4500.0,0.05941599299013615,1.774088586807251,1.774087369441986,1.7743814330101013,9.0,1000.0,60.21563480736579,43.97657302677138,9000,4500.0,151.21699810028076
8.462121242523194,-5.577422693252563,-2.07429641866684,0.24213678854703904,5000.0,0.06851034317910672,2.0584332284927367,2.0584827733039854,2.0593188920021057,10.0,1000.0,29.723384278600967,43.69989007471556,10000,5000.0,174.1003520488739
8.456672195434571,-5.572108394622803,-2.290113378047943,0.2344627937078476,5500.0,0.08419402913749217,2.2758184580802916,2.2757845010757447,2.276377460479736,11.0,1000.0,28.465781036626364,22.066166818809943,11000,5500.0,219.41860008239746
8.451218208312989,-5.566965795516968,-2.564526093482971,0.2291082621216774,6000.0,0.11625873450934887,2.557012170791626,2.5570807151794432,2.5577385597229005,12.0,1000.0,28.353033933789686,43.81554736642831,12000,6000.0,242.24154996871948
8.445759258270265,-5.561939098358154,-2.71608237361908,0.2231566654443741,6500.0,0.12244056233763695,2.7105432720184326,2.710508346557617,2.7104352741241455,13.0,1000.0,38.06452175298475,43.36064204496214,13000,6500.0,265.3039400577545
8.440295337677002,-5.556148801803589,-2.881142807006836,0.22561278516054153,7000.0,0.14667421260476113,2.8763015413284303,2.876291343688965,2.8766387882232665,14.0,1000.0,74.79598191170068,42.772042160795046,14000,7000.0,288.68369817733765
8.43482646560669,-5.551339342117309,-3.1643503723144533,0.23993245565891266,7500.0,0.18617708948254585,3.1647200841903684,3.164695252418518,3.1666805076599123,15.0,1000.0,67.10161677008587,41.486346679574176,15000,7500.0,312.788015127182
8.429352561950683,-5.54586883354187,-3.458644913673401,0.24971792244911195,8000.0,0.18751042371988297,3.4646161308288574,3.4645776376724244,3.464567449569702,16.0,1000.0,36.668032103590306,40.43320625881105,16000,8000.0,337.5201630592346
8.423873683929443,-5.540684412002563,-3.6517652578353883,0.2474388946890831,8500.0,0.21559105157852174,3.658358045578003,3.658399019241333,3.6593289985656736,17.0,1000.0,66.7584220456468,40.13998902326474,17000,8500.0,362.43297505378723
8.418389785766601,-5.5352869300842285,-3.963882201194763,0.25664488804340363,9000.0,0.2517119238972664,3.9687157220840454,3.9686642837524415,3.969213346481323,18.0,1000.0,29.336653898553358,40.22021551467419,18000,9000.0,387.2960948944092
8.41290087890625,-5.53030471611023,-4.10053378200531,0.2528979160785675,9500.0,0.2405156250298023,4.104456779479981,4.104557734489441,4.105253162384034,19.0,1000.0,33.97102445658336,40.19253030638757,19000,9500.0,412.17633986473083
8.407406940460206,-5.524887269973755,-4.18771315574646,0.2506709131002426,10000.0,0.25763486593961715,4.192044066429138,4.192076099395752,4.192742795944214,20.0,1000.0,66.93935330638168,40.32103445700828,20000,10000.0,436.97729206085205
8.401907955169678,-5.519070425033569,-4.476976407051087,0.25749225533008574,10500.0,0.2866950872540474,4.487852729797363,4.487753618240356,4.4880807456970215,21.0,1000.0,62.69393287613196,22.27491421925066,21000,10500.0,481.8708441257477
8.396403942108154,-5.513930057525635,-4.72740668296814,0.2623723494410515,11000.0,0.28112878984212875,4.7399158248901365,4.7399669399261475,4.7407175712585445,22.0,1000.0,64.6483441444109,42.114990029341094,22000,11000.0,505.6153600215912
8.390894882202149,-5.508604364395142,-4.970927541732788,0.26724111652374266,11500.0,0.2811684185266495,4.982956249237061,4.98286198425293,4.9840413780212405,23.0,1000.0,25.860216832421997,41.549474650718714,23000,11500.0,529.6830530166626
8.385380725860596,-5.503279611587525,-5.078654047012329,0.2648619694709778,12000.0,0.3066421067118645,5.089897483825683,5.0899012088775635,5.090673757553101,24.0,1000.0,65.32349570264434,38.5944013943476,24000,12000.0,555.5935480594635
8.379861515045166,-5.498266895294189,-5.368817989349365,0.2694885786771774,12500.0,0.31576104992628096,5.3838650970458986,5.383712589263916,5.384429147720337,25.0,1000.0,66.16741199505414,35.999232621338315,25000,12500.0,583.3719191551208
8.374337253570557,-5.492944734573364,-5.529746461868286,0.2728371434211731,13000.0,0.25018785524368287,5.5532740745544436,5.553168550491333,5.553649185180664,26.0,1000.0,70.36252201251583,34.87961517250753,26000,13000.0,612.0419602394104
8.36880785369873,-5.487679546356201,-5.719266124725342,0.27651920121908186,13500.0,0.24281530863046646,5.737556369781494,5.737612390518189,5.738814786911011,27.0,1000.0,63.62727795940221,36.827678737809364,27000,13500.0,639.1954510211945
8.36327338027954,-5.4821630954742435,-5.950689386367798,0.2824484084844589,14000.0,0.23931349474191665,5.972238758087158,5.972111965179443,5.972116249084473,28.0,1000.0,25.84584676763362,38.18489208533539,28000,14000.0,665.3838200569153
8.357733833312988,-5.476498601913452,-5.964001329421997,0.2782803762555122,14500.0,0.26854477351903916,5.986688972473145,5.9866864891052245,5.987654962539673,29.0,1000.0,26.376183634877005,39.39182047467535,29000,14500.0,690.7698018550873
8.352189083099365,-5.471644493103027,-5.972374464035034,0.2739006885886192,15000.0,0.2670392258167267,6.0027624664306645,6.00269003868103,6.002771369934082,30.0,1000.0,69.31678147241047,39.740824467021696,30000,15000.0,715.9328439235687
8.34663924407959,-5.466214706420899,-6.138934755325318,0.2772014477849007,15500.0,0.25503520369529725,6.16343406867981,6.163398468017578,6.163806161880493,31.0,1000.0,31.917650301699897,22.201970053883464,31000,15500.0,760.9738919734955
8.34108427810669,-5.460888984680175,-6.0649118366241455,0.2753384974598885,16000.0,0.26478078788518905,6.097385902404785,6.097368167877197,6.097803777694702,32.0,1000.0,57.6575956433618,41.84127031503814,32000,16000.0,784.8737409114838
8.335524162292481,-5.455267751693726,-6.128569570541382,0.27709970939159395,16500.0,0.2839773666858673,6.162150091171265,6.162220449447632,6.16272183227539,33.0,1000.0,37.631898104150466,41.1051565984136,33000,16500.0,809.2015900611877
8.329958877563477,-5.450056335449219,-6.098954895019531,0.2737089210152626,17000.0,0.36451690322160724,6.130662061691284,6.130600366592407,6.130937767028809,34.0,1000.0,64.82205028986633,39.63077865273604,34000,17000.0,834.4345030784607
8.324388431549073,-5.444697206497192,-6.236169935226441,0.27725201880931855,17500.0,0.32441179239749907,6.269403570175171,6.269413818359375,6.270174186706543,35.0,1000.0,32.4304970211322,39.748598198215,35000,17500.0,859.5926229953766
8.318812812805175,-5.439484716415405,-6.192224405288696,0.2757575656175613,18000.0,0.29337418246269226,6.226888011932373,6.226838077545166,6.227202033996582,36.0,1000.0,61.25760530812527,39.642207093157296,36000,18000.0,884.818263053894
8.313231998443603,-5.433945390701294,-6.268993936538696,0.2787210573554039,18500.0,0.27724712067842483,6.300729461669922,6.300950328826905,6.30082776260376,37.0,1000.0,28.154741775316932,39.60905691296561,37000,18500.0,910.065013885498
8.307646007537842,-5.428370254516602,-6.191830081939697,0.27515404760837553,19000.0,0.2818668529391289,6.221900188446045,6.221917810440064,6.222379810333252,38.0,1000.0,43.06681920880143,39.75863951436247,38000,19000.0,935.2167809009552
8.302054794311523,-5.423338140487671,-6.133139394760132,0.2729901495575905,19500.0,0.2778632718920708,6.163267887115478,6.163330118179322,6.163629808425903,39.0,1000.0,67.00914586946443,39.979335022371174,39000,19500.0,960.2297039031982
8.296458366394043,-5.417796123504639,-6.232556997299194,0.2780757859945297,20000.0,0.2690356574058533,6.263275100708007,6.26325227355957,6.263764656066894,40.0,1000.0,30.79240356177155,39.58196397434135,40000,20000.0,985.4937360286713
8.290856708526611,-5.412810485839843,-6.166877529144287,0.27802742075920106,20500.0,0.26545408022403716,6.197008018493652,6.197031616210937,6.1972694606781005,41.0,1000.0,28.821351812409002,22.21587680224096,41000,20500.0,1030.5065898895264
8.285249820709229,-5.406821016311645,-6.082138271331787,0.2730008797645569,21000.0,0.2721692058444023,6.115148796081543,6.115141931533813,6.115561353683471,42.0,1000.0,65.72245267724244,42.15880581705528,42000,21000.0,1054.2264261245728
8.27963768005371,-5.401774881362915,-6.157361577987671,0.27508115184307097,21500.0,0.27413865289092065,6.18987975692749,6.189900953292847,6.190339311599732,43.0,1000.0,30.74303532448793,41.55455477828873,43000,21500.0,1078.2911779880524
8.27402031326294,-5.396220275878906,-6.14400657081604,0.27329704904556273,22000.0,0.30625603288412095,6.173461887359619,6.173476318359375,6.173589487075805,44.0,1000.0,27.57194261828441,40.8704087911042,44000,22000.0,1102.758759021759
8.268397632598877,-5.390842687606812,-6.098884714126587,0.27187864190340044,22500.0,0.25793736323714256,6.1313826274871825,6.13137140083313,6.131681867599488,45.0,1000.0,56.623293845024826,40.113369725655915,45000,22500.0,1127.6881031990051
8.262769744873047,-5.385516639709473,-6.139147592544556,0.27307163882255553,23000.0,0.24954770922660827,6.170565603256225,6.170581468582153,6.1707652397155766,46.0,1000.0,29.75983239384091,39.891118265207176,46000,23000.0,1152.7563409805298
8.25713653564453,-5.38024496269226,-6.070577184677124,0.2705328444838524,23500.0,0.24933507239818573,6.101682334899903,6.101703880310058,6.10218950843811,47.0,1000.0,28.74284825727166,39.95494962983384,47000,23500.0,1177.7845301628113
8.251498027801514,-5.37451985168457,-6.054489917755127,0.26966835641860964,24000.0,0.26221722561120986,6.085048183441162,6.085111356735229,6.0853902492523195,48.0,1000.0,65.14127961725616,40.02439765404941,48000,24000.0,1202.7692918777466
8.245854225158691,-5.36923423576355,-6.178296955108642,0.2724849392771721,24500.0,0.25059570133686065,6.185895076751709,6.185751068115234,6.186389146804809,49.0,1000.0,57.65066700476421,39.878267338617796,49000,24500.0,1227.8456082344055
8.240205123901367,-5.36375133895874,-6.226376359939575,0.27159921669960024,25000.0,0.2832346173524857,6.23234938621521,6.232459978103638,6.232766864776611,50.0,1000.0,28.77973709728836,40.588801144037376,50000,25000.0,1252.4829459190369
8.234550682067871,-5.358326887130738,-6.213551200866699,0.26923512083292006,25500.0,0.27737943881750105,6.220460330963134,6.2204166011810305,6.221106603622436,51.0,1000.0,25.315182548600866,22.227478210555265,51000,25500.0,1297.472305059433
8.228890892028808,-5.352839485168457,-6.2120884475708005,0.26584790903329847,26000.0,0.2599343742132187,6.225670623779297,6.225598485946655,6.225865737915039,52.0,1000.0,38.84876409679156,42.56413500673558,52000,26000.0,1320.9662640094757
8.223225830078125,-5.347051347732544,-6.192335628509522,0.26722251814603803,26500.0,0.23967832249403,6.202994617462158,6.203058462142945,6.203643056869507,53.0,1000.0,71.19585479500708,42.22920579074895,53000,26500.0,1344.6465590000153
8.217555309295655,-5.342136737823487,-6.304596412658691,0.26854896169900894,27000.0,0.26347427770495413,6.311475437164306,6.311490360260009,6.311973794937134,54.0,1000.0,51.56137777633219,41.3010795609204,54000,27000.0,1368.859001159668
8.211879497528075,-5.3359913215637205,-6.3117161540985105,0.2706009851694107,27500.0,0.320316315472126,6.320804435729981,6.320830167770386,6.3214303150177,55.0,1000.0,29.736485844413046,40.48435195818627,55000,27500.0,1393.5599038600922
8.206198272705079,-5.331008714675903,-6.314049369812012,0.2691996133327484,28000.0,0.28828766161203384,6.325159873962402,6.325209701538086,6.325835691452026,56.0,1000.0,40.85696580648749,40.145372761820795,56000,28000.0,1418.4693758487701
8.200511661529541,-5.325553745269775,-6.303564958572387,0.26852277356386184,28500.0,0.26496362274885177,6.3235481853485105,6.323548273086548,6.32378818321228,57.0,1000.0,39.474377441554985,40.065611136920595,57000,28500.0,1443.4284369945526
8.194819690704346,-5.319885585784912,-6.256946697235107,0.2656862281560898,29000.0,0.26506572169065473,6.276894899368286,6.276839859008789,6.2767764129638675,58.0,1000.0,46.163651421692386,40.272493089624895,58000,29000.0,1468.2592821121216
8.18912230682373,-5.314711252212525,-6.256850635528564,0.2681569740772247,29500.0,0.24690765577554702,6.279386465072632,6.279466682434082,6.279422231674195,59.0,1000.0,40.6935955794781,40.19364534885325,59000,29500.0,1493.1388380527496
8.183419479370118,-5.308750776290894,-6.193727388381958,0.26691105782985686,30000.0,0.22862769782543182,6.216151968002319,6.21613063621521,6.216614709854126,60.0,1000.0,56.16980939357053,40.1271051127765,60000,30000.0,1518.059648990631
8.177711238861084,-5.303262954711914,-6.285908710479736,0.2690337533354759,30500.0,0.23064686587452887,6.30468353843689,6.3047131824493405,6.305228689193726,61.0,1000.0,48.86014718495391,22.153649714840498,61000,30500.0,1563.1989381313324
8.171997592926026,-5.297783145904541,-6.250879493713379,0.26928877329826356,31000.0,0.23694089818000794,6.277139154434204,6.277121307373047,6.277183414459229,62.0,1000.0,25.469094775271532,42.0525730755126,62000,31000.0,1586.9786968231201
8.166278625488282,-5.292382019042969,-6.160727005004883,0.2645583520531654,31500.0,0.21619833874702454,6.183384885787964,6.183435510635376,6.183567874908447,63.0,1000.0,25.185848004868102,41.60190603459258,63000,31500.0,1611.0160570144653
8.160553871154786,-5.287172430038452,-6.1171172313690185,0.26477083790302275,32000.0,0.21945517736673356,6.141102561950683,6.141064796447754,6.141550741195679,64.0,1000.0,28.301165808014407,40.91846056982348,64000,32000.0,1635.4549050331116
8.154823833465576,-5.281265718460083,-6.1198393230438235,0.26593965059518815,32500.0,0.2370206233859062,6.147624649047851,6.147552848815918,6.147754211425781,65.0,1000.0,37.40154381565427,40.1722669602484,65000,32500.0,1660.3476989269257
8.149088329315186,-5.275581617355346,-6.10988886642456,0.2646391685605049,33000.0,0.22141176384687425,6.134876846313476,6.134930685043335,6.135178075790405,66.0,1000.0,60.798484255602155,39.52243287211685,66000,33000.0,1685.6497859954834
8.14334730911255,-5.27063687133789,-6.115181318283081,0.2641713748574257,33500.0,0.2415401403605938,6.145566986083985,6.145595180511474,6.146360834121704,67.0,1000.0,44.27561576050765,39.699851500756694,67000,33500.0,1710.838798046112
8.13760078048706,-5.265158315658569,-6.1073961925506595,0.26392236244678496,34000.0,0.23474288153648376,6.1300059585571285,6.1300283107757565,6.130077205657959,68.0,1000.0,39.525242346291364,39.671058636366,68000,34000.0,1736.046091079712
8.131848789215088,-5.259117113113403,-6.108053199768066,0.26474619990587234,34500.0,0.20375204727053642,6.133460847854614,6.133442184448242,6.13331618309021,69.0,1000.0,31.568766873330798,39.79502210223648,69000,34500.0,1761.1748631000519
8.126091274261475,-5.253957569122314,-6.0240608558654785,0.26175850319862365,35000.0,0.23717804250121116,6.052411752700806,6.052352479934692,6.053085552215576,70.0,1000.0,31.13153172313666,39.901150494918205,70000,35000.0,1786.2367978096008
8.120328186035156,-5.248940145492553,-6.040964403152466,0.2622997432947159,35500.0,0.220414642482996,6.065541358947754,6.065619956970215,6.065793628692627,71.0,1000.0,35.69298518960739,22.270557735355695,71000,35500.0,1831.1391310691833
8.114559577941895,-5.242321260452271,-5.995762413024902,0.26132542872428893,36000.0,0.23272144132852554,6.020571363449097,6.020588680267334,6.0206357288360595,72.0,1000.0,61.26622195665456,41.7285900989073,72000,36000.0,1855.1035151481628
8.108785442352294,-5.237341835021972,-6.083217861175537,0.26452571821212767,36500.0,0.23146339529752732,6.108932292938232,6.108959405899048,6.109171159744263,73.0,1000.0,30.013528267790353,41.360863919081055,73000,36500.0,1879.2809598445892
8.103005725860596,-5.231533489227295,-5.9812734489440915,0.2628496587276459,37000.0,0.22193600630760194,6.013535717010498,6.013553960800171,6.013518356323242,74.0,1000.0,41.87763669372788,40.54145187207077,74000,37000.0,1903.947072982788
8.097220439910888,-5.226411972045899,-5.915482410430908,0.2582849079966545,37500.0,0.20580345970392228,5.942660081863403,5.94270733833313,5.943119861602783,75.0,1000.0,44.018103906770634,39.76214744627868,75000,37500.0,1929.0966210365295
8.091429500579833,-5.22022091293335,-5.938529396057129,0.2610100943446159,38000.0,0.22259780049324035,5.964524028778076,5.964605895996094,5.964867561340332,76.0,1000.0,52.15477829083464,39.5547353630125,76000,38000.0,1954.378044128418
8.085633098602296,-5.2149773082733155,-5.933137239456177,0.2601008375287056,38500.0,0.20881182059645653,5.960627841949463,5.960755905151367,5.960647785186768,77.0,1000.0,68.52485873741885,39.72417923235567,77000,38500.0,1979.5516300201416
8.079831024169922,-5.209116813659668,-5.959748517990112,0.26304216861724855,39000.0,0.22273239246010781,5.9865798625946045,5.98642280960083,5.986999391555786,78.0,1000.0,40.293887621455234,39.82440778969725,78000,39000.0,2004.661859035492
8.074023323059082,-5.203729190826416,-5.930573642730713,0.2618272943496704,39500.0,0.20362412297725677,5.955452096939087,5.955509866714477,5.955960582733154,79.0,1000.0,26.98834578246446,39.81457700044802,79000,39500.0,2029.7782881259918
8.068209991455078,-5.198112482070923,-5.938085628509522,0.2614028249979019,40000.0,0.19111863180994987,5.963951923370361,5.964007717132568,5.964257974624633,80.0,1000.0,50.18428591367332,39.60937223921957,80000,40000.0,2055.0248391628265
8.0623910446167,-5.1924393939971925,-5.939306928634643,0.26247491377592086,40500.0,0.2012380082309246,5.9678306331634525,5.967745979309082,5.968309892654419,81.0,1000.0,45.974410645965264,21.42232870026566,81000,40500.0,2101.7051050662994
8.056566452026367,-5.186940814971924,-5.8876962547302245,0.2620000758767128,41000.0,0.2058888079226017,5.916236555099487,5.916249300003051,5.916319366455078,82.0,1000.0,34.02669612744816,40.53993697086301,82000,41000.0,2126.372139930725
8.050736179351807,-5.18164391708374,-5.846764112472534,0.2609562394022942,41500.0,0.2177031369507313,5.8758235359191895,5.875856599807739,5.8759987277984616,83.0,1000.0,56.46018607441339,40.582756723087996,83000,41500.0,2151.0131480693817
8.044900241851806,-5.175776653289795,-5.883858083724975,0.26235322320461274,42000.0,0.19919804733991622,5.912689634323121,5.912837757110596,5.912836988449096,84.0,1000.0,50.739809235358,40.04655528153247,84000,42000.0,2175.9840848445892
8.039058639526367,-5.170291147232056,-5.862535093307495,0.26136048781871796,42500.0,0.20083256024122237,5.885867637634277,5.885876020431518,5.886224243164063,85.0,1000.0,49.84347404650831,39.82153876173029,85000,42500.0,2201.0961241722107
8.033211318969727,-5.164310430526734,-5.902970701217652,0.263043152153492,43000.0,0.19140773718059062,5.921390895843506,5.921370838165283,5.921457138061523,86.0,1000.0,40.41438515653176,40.04837538935485,86000,43000.0,2226.065927028656
8.02735831451416,-5.159119707107544,-5.881708564758301,0.26402772015333176,43500.0,0.18847435507178306,5.909281896591186,5.90926983833313,5.909952621459961,87.0,1000.0,49.256048892609364,39.85134643892174,87000,43500.0,2251.15918302536
8.021499557495117,-5.153335998535156,-5.8762918434143065,0.2629405883550644,44000.0,0.18931465980410575,5.901705318450928,5.901691970825195,5.901735799789429,88.0,1000.0,27.801383115375327,40.282311476983644,88000,44000.0,2275.983975172043
8.01563512802124,-5.147623727798462,-5.863719263076782,0.2640624049305916,44500.0,0.191222407579422,5.889126100540161,5.8892157325744625,5.889815433502197,89.0,1000.0,49.843029770370514,40.15779125560932,89000,44500.0,2300.8857440948486
8.009764907836914,-5.142227243423462,-5.855142490386963,0.26334939420223236,45000.0,0.19683050972223282,5.878455799102783,5.878513711929322,5.878583440780639,90.0,1000.0,31.969328662104616,40.067995638044515,90000,45000.0,2325.843320131302
8.00388899230957,-5.136218465805054,-5.796247465133667,0.26067985546588895,45500.0,0.1979969515502453,5.822927188873291,5.822847381591797,5.82291517829895,91.0,1000.0,42.221577597691294,22.20122521766713,91000,45500.0,2370.8858790397644
7.998007284164428,-5.131430967330933,-5.792288438796997,0.25981773900985716,46000.0,0.18174462258815766,5.8145545253753665,5.814604917526245,5.814733547210693,92.0,1000.0,45.283581912857585,41.85895624024197,92000,46000.0,2394.775633096695
7.992119821548462,-5.1258629703521725,-5.817143356323242,0.26369449132680894,46500.0,0.1940188000202179,5.838732305526733,5.838745525360108,5.839064277648926,93.0,1000.0,30.313935313565413,39.944012724093454,93000,46500.0,2419.810672044754
7.986226564407349,-5.119441316604615,-5.768163930892944,0.2590730157494545,47000.0,0.18657154923677444,5.787432966232299,5.7873853931427,5.787922792434692,94.0,1000.0,52.15809400390269,39.73550764722346,94000,47000.0,2444.9770810604095
7.980327499389649,-5.113565614700318,-5.777797676086426,0.2622293000817299,47500.0,0.20743802213668824,5.803263570785522,5.8032982006072995,5.803219919204712,95.0,1000.0,70.13865833713628,39.2310728282835,95000,47500.0,2470.4670798778534
7.974422658920288,-5.1085881462097165,-5.8218008975982665,0.26304574018716814,48000.0,0.2088042154610157,5.8460711612701415,5.846095115661621,5.846588262557983,96.0,1000.0,25.459260433388224,39.02245762018425,96000,48000.0,2496.093350172043
7.968512001037598,-5.102273244857788,-5.803725633621216,0.2626316773891449,48500.0,0.1939273258149624,5.824806869506836,5.824771659851074,5.824758880615234,97.0,1000.0,50.06171887025271,38.80580272904002,97000,48500.0,2521.8626930713654
7.962595499038696,-5.096887386322021,-5.776278991699218,0.26153269279003144,49000.0,0.19542550200223924,5.800803020477295,5.800936904907227,5.801414176940918,98.0,1000.0,25.12895757500936,39.087366270368385,98000,49000.0,2547.4464077949524
7.95667315864563,-5.090845275878906,-5.75095725440979,0.26093511801958086,49500.0,0.1916440076828003,5.770686027526856,5.770622114181519,5.770861410140991,99.0,1000.0,26.346401624333637,39.04832008781344,99000,49500.0,2573.0557050704956
7.950744983673096,-5.085289224624634,-5.697900766372681,0.2591360946893692,50000.0,0.18912415459752083,5.720298494338989,5.720241828918457,5.720477563858032,100.0,1000.0,43.58265727956001,38.992060066549804,100000,50000.0,2598.701951980591
7.944810911178589,-5.079386350631714,-5.684154527664185,0.25825361198186875,50500.0,0.17874687993526459,5.706045034408569,5.706133947372437,5.706382263183594,101.0,1000.0,59.18907834087341,22.10966532193522,101000,50500.0,2643.9310410022736
7.938870985031128,-5.073362997055054,-5.727630081176758,0.26213534992933274,51000.0,0.17869231900572777,5.751970796585083,5.75192301940918,5.752061647415161,102.0,1000.0,54.25781543770483,40.594358211290185,102000,51000.0,2668.565006017685
7.932925148010254,-5.06807643699646,-5.674364492416382,0.25995218360424044,51500.0,0.1906777066886425,5.698687671661377,5.6986288185119625,5.698901262283325,103.0,1000.0,73.27529521343195,39.30855619266289,103000,51500.0,2694.0047600269318
7.926973461151123,-5.062583274841309,-5.765730575561523,0.26309288358688354,52000.0,0.18681186312437056,5.785634767532349,5.785707981109619,5.786039014816284,104.0,1000.0,78.39320433101882,38.479040561914005,104000,52000.0,2719.992935180664
7.921015851974487,-5.056872724533081,-5.783946485519409,0.26361920922994614,52500.0,0.19299614715576172,5.803253799438477,5.803153997421265,5.803591007232666,105.0,1000.0,38.09912515491776,38.30397366338798,105000,52500.0,2746.099888086319
7.9150523071289065,-5.051619752883911,-5.810622407913208,0.26525632429122925,53000.0,0.19031465348601342,5.830174716949463,5.830245532989502,5.8303026161193845,106.0,1000.0,44.80285102174554,38.225217154350695,106000,53000.0,2772.2606298923492
7.909082836151123,-5.045406545639038,-5.771350131988525,0.2640432224869728,53500.0,0.18956534469127656,5.793549571990967,5.793594694137573,5.793908550262451,107.0,1000.0,40.43950788890178,38.23309401613042,107000,53500.0,2798.4159820079803
7.903107395172119,-5.0398187236785885,-5.780790029525757,0.26487994891405103,54000.0,0.18836061513423918,5.802989274978637,5.80285881614685,5.803085138320923,108.0,1000.0,26.556916836530398,38.02839648549879,108000,54000.0,2824.712121963501
7.897126003265381,-5.033700752258301,-5.7480579833984375,0.2640574840903282,54500.0,0.18391655510663987,5.769796398162842,5.769956449508667,5.770055770874023,109.0,1000.0,49.342856653696415,38.38470105861707,109000,54500.0,2850.7641677856445
7.891138662338257,-5.028163925170898,-5.773116373062134,0.26507437151670454,55000.0,0.18940973064303399,5.796753381729126,5.796650333404541,5.796370992660522,110.0,1000.0,52.17198987530086,38.24642859051262,110000,55000.0,2876.910400867462
7.8851453475952145,-5.023261701583862,-5.794766819000244,0.26418538427352906,55500.0,0.18834339782595635,5.806499710083008,5.806604335784912,5.807291450500489,111.0,1000.0,25.60133164358167,22.588283385699274,111000,55500.0,2921.181140899658
7.879146015167236,-5.017317775726318,-5.834676082611084,0.26273581802845003,56000.0,0.18962440991401672,5.83830744934082,5.838294887542725,5.838709970474243,112.0,1000.0,45.58368692186666,37.70148359956016,112000,56000.0,2947.7052960395813
7.873140678405762,-5.0108787574768066,-5.890647819519043,0.2637432240247726,56500.0,0.21848715636134147,5.895100803375244,5.895197244644165,5.895234634399414,113.0,1000.0,19.113623705829024,37.59662670296274,113000,56500.0,2974.3034279346466
7.867129348754883,-5.005359273910522,-5.890369466781616,0.2607808853983879,57000.0,0.20626264122128488,5.895036849975586,5.895041040420532,5.895797868728637,114.0,1000.0,80.44489676033075,37.784447101135356,114000,57000.0,3000.7693450450897
7.861111967086792,-4.999566831588745,-5.964121673583985,0.2661476035714149,57500.0,0.24012057015299798,5.977281463623047,5.977229780197144,5.977270862579346,115.0,1000.0,79.107197055334,37.694760232012854,115000,57500.0,3027.298229932785
7.85508857345581,-4.993580842971801,-5.967027286529541,0.2667449598312378,58000.0,0.199180079549551,5.97366835975647,5.973637125015259,5.974115074157715,116.0,1000.0,46.382889289871095,38.222028795067345,116000,58000.0,3053.4611530303955
7.84905908203125,-4.987643930435181,-5.987909132003784,0.2654848945736885,58500.0,0.20703313136100768,5.996536682128906,5.9965250415802,5.996798654556274,117.0,1000.0,51.266033680530185,38.37313154737559,117000,58500.0,3079.521054983139
7.843023559570312,-4.9823837890625,-6.014811195373535,0.2656136577129364,59000.0,0.20184367713332177,6.02924570274353,6.029304885864258,6.02964828491211,118.0,1000.0,18.828023872521936,38.012943021813015,118000,59000.0,3105.8278839588165
7.836981914520264,-4.97668345451355,-6.044409601211548,0.2638757454752922,59500.0,0.23086431643366814,6.057235507965088,6.057275886535645,6.057981494903564,119.0,1000.0,51.79697740344002,38.212909046876405,119000,59500.0,3131.997051000595
7.830934255599976,-4.970567348480224,-6.110834424972534,0.262987924695015,60000.0,0.20573682937026025,6.089423181533814,6.089449283599854,6.089704385757447,120.0,1000.0,57.78628581992941,38.27289132223812,120000,60000.0,3158.1252059936523
7.824880458831787,-4.964429475784302,-6.207038322448731,0.2644713515043259,60500.0,0.22064861688017845,6.190379152297973,6.19037795829773,6.190840957641601,121.0,1000.0,45.587622960974244,22.483012217103774,121000,60500.0,3202.603231906891
7.81882053565979,-4.959147834777832,-6.299171472549438,0.2675361273884773,61000.0,0.21396659567952156,6.2802906970977785,6.2803876705169674,6.281203294754028,122.0,1000.0,55.448270092583726,37.879165063910406,122000,61000.0,3229.0029690265656
7.812754476547242,-4.953574935913086,-6.383804128646851,0.26716993695497515,61500.0,0.21776517200469972,6.361726875305176,6.361598991394043,6.362023067474365,123.0,1000.0,45.36466210957255,37.40152737337446,123000,61500.0,3255.7398459911346
7.806682308197021,-4.9472874088287355,-6.4061544933319094,0.2669545187950134,62000.0,0.21557230055332183,6.394983108520508,6.394971662521362,6.395719263076782,124.0,1000.0,74.46314618263978,37.823988716751415,124000,62000.0,3282.178094148636
7.800603927612305,-4.9420121440887455,-6.475504476547242,0.2680177946686745,62500.0,0.20050709134340286,6.4607891178131105,6.460718183517456,6.461160554885864,125.0,1000.0,47.62661602409758,38.18809998099929,125000,62500.0,3308.3642621040344
7.794519466400146,-4.936143928527832,-6.509734708786011,0.26767532753944395,63000.0,0.23354727628827096,6.500333951950073,6.50047155380249,6.500571960449219,126.0,1000.0,124.76878683372131,37.954720404700836,126000,63000.0,3334.711446046829
7.788428804397583,-4.931151706695557,-6.5897592926025395,0.272136279463768,63500.0,0.2164128586947918,6.568900537490845,6.56882180595398,6.569337118148804,127.0,1000.0,18.329328323000894,38.27731564306057,127000,63500.0,3360.836580991745
7.782331943511963,-4.92460032081604,-6.644789722442627,0.27014106953144074,64000.0,0.21646329095959663,6.620021747589111,6.620099702835083,6.620675539016724,128.0,1000.0,66.03727877235691,38.28820493823622,128000,64000.0,3386.95428609848
7.776228862762451,-4.918861652374267,-6.741479160308838,0.27022162401676175,64500.0,0.23785768485069275,6.713209293365479,6.713142673492432,6.713537048339844,129.0,1000.0,18.597207722124672,38.291065261386,129000,64500.0,3413.070039987564
7.770119606018066,-4.913058687210083,-6.795945457458496,0.27046169799566266,65000.0,0.22874154457449913,6.7690306015014645,6.76903171157837,6.769313230514526,130.0,1000.0,60.445443075235886,38.18935693328876,130000,65000.0,3439.255346059799
7.764004100799561,-4.9069017372131345,-6.834462896347046,0.2707616222500801,65500.0,0.25886189368367196,6.813886566162109,6.813861383438111,6.814539934158325,131.0,1000.0,26.910690153491558,20.73041890535298,131000,65500.0,3487.493639230728
7.757882341384888,-4.901079627990723,-6.864370161056518,0.26938890701532364,66000.0,0.2529765747189522,6.844968141555786,6.8449834613800045,6.845182928085327,132.0,1000.0,18.22348777862819,35.70490196943891,132000,66000.0,3515.500999212265
7.751754364013672,-4.895039844512939,-6.830950855255127,0.2681045017838478,66500.0,0.25965924468636514,6.812536560058594,6.81236332321167,6.813358682632447,133.0,1000.0,77.01599908295262,36.4822968438229,133000,66500.0,3542.9115540981293
7.7456201000213625,-4.889643014907837,-6.900830877304077,0.26967441868782044,67000.0,0.2644048924446106,6.882364414215088,6.8823277912139895,6.882512685775757,134.0,1000.0,58.39271472632072,37.99434990504592,134000,67000.0,3569.2312581539154
7.739479574203491,-4.883147722244263,-6.935572290420533,0.2712079145908356,67500.0,0.2663111127614975,6.918053358078003,6.918140438079834,6.918316251754761,135.0,1000.0,56.95905905462838,37.81572034681625,135000,67500.0,3595.67528796196
7.733332715988159,-4.87785668182373,-6.970123289108276,0.2721907805800438,68000.0,0.2608993592262268,6.946717945098877,6.946729221343994,6.9468714656829835,136.0,1000.0,18.40660890371613,38.18237815606281,136000,68000.0,3621.865380048752
7.727179618835449,-4.871521266937256,-6.940921007156372,0.2705862323641777,68500.0,0.2655328764021397,6.925664316177368,6.925693605422974,6.926003650665283,137.0,1000.0,43.63079285706029,38.165730342497405,137000,68500.0,3648.0668971538544
7.721020189285278,-4.865902423858643,-6.992222295761108,0.2716915026307106,69000.0,0.2653883862197399,6.973630645751953,6.973559324264526,6.973892246246338,138.0,1000.0,76.63202378315556,37.42303661362804,138000,69000.0,3674.788405895233
7.714854385375976,-4.859933004379273,-7.005860256195068,0.26912273252010344,69500.0,0.2598817926645279,6.994210214614868,6.994320692062378,6.994567844390869,139.0,1000.0,79.65600114853689,37.80339134934166,139000,69500.0,3701.2410600185394
7.708682245254517,-4.853896635055542,-7.0042399921417235,0.2710857470035553,70000.0,0.2579638197422028,6.998998424530029,6.998867349624634,6.999135931015014,140.0,1000.0,21.86810154883648,37.74864804565005,140000,70000.0,3727.7320759296417
7.702503776550293,-4.848735029220581,-7.014831199645996,0.27207033264636993,70500.0,0.29415516299009326,7.008743349075317,7.008703088760376,7.009354429244995,141.0,1000.0,59.2977621973575,22.25785709486574,141000,70500.0,3772.660029888153
7.696318939208984,-4.842808395385743,-6.985878162384033,0.27329406529664996,71000.0,0.2951711584329605,6.985906167984009,6.985925659179688,6.986229471206665,142.0,1000.0,54.355779908061734,36.59016392984982,142000,71000.0,3799.989778995514
7.690127695083619,-4.83681593132019,-6.980924503326416,0.2714127897620201,71500.0,0.3148882721066475,6.969899612426758,6.969928636550903,6.970351516723633,143.0,1000.0,81.0810394524835,37.11434199965916,143000,71500.0,3826.933541059494
7.683930065155029,-4.830204753875733,-7.007787250518799,0.2721836782097816,72000.0,0.2888302193880081,7.000048141479493,6.999964904785156,7.000462142944336,144.0,1000.0,18.155842368648294,37.48719436766859,144000,72000.0,3853.6093170642853
7.67772604560852,-4.825536853790283,-6.994359306335449,0.2713701001405716,72500.0,0.29160535073280336,6.980697360992432,6.980817110061645,6.980652788162232,145.0,1000.0,77.89281261757112,37.82331370273692,145000,72500.0,3880.048038005829
7.671515586853027,-4.819508026123047,-7.08304020690918,0.27379425770044324,73000.0,0.2983344574570656,7.056895835876465,7.056892850875855,7.057120738983154,146.0,1000.0,84.19582191800997,38.33709326174792,146000,73000.0,3906.132436990738
7.6652987060546875,-4.813313262939453,-7.173309688568115,0.2750182532668114,73500.0,0.3200544747710228,7.1424974403381345,7.142379556655884,7.143328845977783,147.0,1000.0,62.43309089359014,37.908764627630546,147000,73500.0,3932.5115609169006
7.659075359344483,-4.807360986709595,-7.228170478820801,0.27591729468107223,74000.0,0.3219407590031624,7.199734579086304,7.199765781402588,7.200328664779663,148.0,1000.0,77.25961787401214,38.1288131219863,148000,74000.0,3958.7384469509125
7.652845561981201,-4.801617738723755,-7.3317124462127685,0.27673915165662766,74500.0,0.35096693855524064,7.294453758239746,7.294500061035157,7.294429969787598,149.0,1000.0,63.32442254938461,37.765500067714555,149000,74500.0,3985.21764087677
7.646609285354614,-4.795434307098389,-7.384266017913818,0.27848476672172545,75000.0,0.3269867652654648,7.349936105728149,7.349976306915283,7.35046174621582,150.0,1000.0,24.542359576384886,37.918126432833354,150000,75000.0,4011.5902519226074
7.640366552352905,-4.789354360580444,-7.402063596725464,0.2758023520112038,75500.0,0.3543909336328506,7.3626811313629155,7.362556844711304,7.363891893386841,151.0,1000.0,72.80091978925739,22.282011316932604,151000,75500.0,4056.46950507164
7.634117263793946,-4.783295024871826,-7.505705881118774,0.27698754328489306,76000.0,0.3297064717411995,7.467622859954834,7.467751285552978,7.4678973255157475,152.0,1000.0,23.558666708222248,37.31447292536559,152000,76000.0,4083.2687590122223
7.627861457824707,-4.777441091537476,-7.514812168121338,0.2766079491972923,76500.0,0.36885785567760465,7.472939416885376,7.472954467773437,7.4735842742919925,153.0,1000.0,32.17513743604927,36.84372479749938,153000,76500.0,4110.410423994064
7.6215991706848145,-4.771178604125977,-7.5706010360717775,0.27439265501499177,77000.0,0.33458300775289535,7.5178597507476805,7.517806589126587,7.518327114105225,154.0,1000.0,36.67075877739848,37.43318562487077,154000,77000.0,4137.124686956406
7.615330335617066,-4.765500455856324,-7.5920199775695805,0.2757068573236465,77500.0,0.36092369371652605,7.561908575057983,7.561782821655274,7.5626645832061765,155.0,1000.0,34.19107529727145,37.662252696404785,155000,77500.0,4163.676471948624
7.6090549411773685,-4.759206604003906,-7.6141581726074214,0.275848775267601,78000.0,0.3501249045133591,7.5762911205291745,7.57630283164978,7.5770928630828855,156.0,1000.0,29.78036073320844,37.266618612146885,156000,78000.0,4190.510138034821
7.602772956848145,-4.753587776184082,-7.606452360153198,0.272815214574337,78500.0,0.35780736976861954,7.558873947143555,7.558851043701172,7.558983867645264,157.0,1000.0,82.9580269849173,38.370230869496886,157000,78500.0,4216.57200884819
7.596484363555908,-4.747497352600098,-7.671177402496338,0.2761657214164734,79000.0,0.33689589142799375,7.6294732131958005,7.629634256362915,7.629635023117065,158.0,1000.0,33.338330376253985,38.25123435647939,158000,79000.0,4242.714956045151
7.59018920135498,-4.741503067016602,-7.741984634399414,0.2771236301660538,79500.0,0.34909224182367327,7.702766254425049,7.702743923187255,7.703479959487915,159.0,1000.0,28.242531299766434,37.9822883695207,159000,79500.0,4269.043017864227
7.583887414932251,-4.735135423660278,-7.704175947189331,0.277427987575531,80000.0,0.36651955646276474,7.671108766555786,7.671085954666138,7.672046689987183,160.0,1000.0,70.21812056837629,37.5249150418411,160000,80000.0,4295.691978931427
7.5775790309906,-4.7289708118438725,-7.710503463745117,0.27382212299108505,80500.0,0.3543695570230484,7.674242446899414,7.674222913742065,7.674333683013916,161.0,1000.0,70.05185444918605,21.672613440519115,161000,80500.0,4341.833161830902
7.571263980865479,-4.723183166503906,-7.810492574691772,0.27756519186496736,81000.0,0.3591846371889114,7.775118015289307,7.775124259948731,7.77560177230835,162.0,1000.0,57.458106084134485,35.137619278817034,162000,81000.0,4370.292689085007
7.564942283630371,-4.717263101577759,-7.833338264465332,0.2812231401801109,81500.0,0.37066855025291445,7.80443941116333,7.8046142215728755,7.804979867935181,163.0,1000.0,27.397579269822977,36.73327077335946,163000,81500.0,4397.515966892242
7.558613977432251,-4.71157508277893,-7.764286321640014,0.27883410739898684,82000.0,0.3579456068277359,7.7331269912719725,7.73311762046814,7.733517816543579,164.0,1000.0,60.37845344327787,37.001025094060175,164000,82000.0,4424.542246103287
7.55227889251709,-4.705321002960205,-7.773168088912964,0.27575305217504503,82500.0,0.3723087569475174,7.738722320556641,7.738645900726318,7.739290723800659,165.0,1000.0,34.99699021775908,37.43162485670992,165000,82500.0,4451.257623910904
7.545937160491944,-4.699388786315918,-7.763715343475342,0.2762294886112213,83000.0,0.35700488597154617,7.731099687576294,7.731026460647583,7.730793811798096,166.0,1000.0,68.77731007479638,37.352753409955014,166000,83000.0,4478.029412984848
7.539588714599609,-4.692814344406128,-7.787756561279297,0.2779914824962616,83500.0,0.3438500378131866,7.7534740505218505,7.753552450180054,7.753966985702514,167.0,1000.0,53.69403480728131,37.29250866029953,167000,83500.0,4504.844450950623
7.533233535766602,-4.6874216976165775,-7.808159866333008,0.27767100101709363,84000.0,0.35149043041467665,7.76800411605835,7.767999635696411,7.76841611289978,168.0,1000.0,93.27906082242151,36.81831300394047,168000,84000.0,4532.00484919548
7.526871625900268,-4.6813279781341555,-7.866090787887574,0.2792967248558998,84500.0,0.36299691182374955,7.832751024246216,7.83267679977417,7.832977798461914,169.0,1000.0,67.56157344961028,37.01568881067266,169000,84500.0,4559.0204219818115
7.520502964019776,-4.675156173706054,-7.840591468811035,0.2785442111492157,85000.0,0.3569971370100975,7.802813188552856,7.802725324630737,7.803110836029052,170.0,1000.0,74.34385981071637,37.057208286306526,170000,85000.0,4586.00572514534
7.514127548217774,-4.669275724411011,-7.926530456542968,0.28386562287807465,85500.0,0.35354450488090516,7.888596132278442,7.888517002105713,7.88885510635376,171.0,1000.0,49.98167549431607,22.02470135404078,171000,85500.0,4631.409291982651
7.507745311737061,-4.663159231185913,-7.938829124450684,0.28170087206363675,86000.0,0.38144686764478686,7.903225248336792,7.90321342086792,7.9030305118560795,172.0,1000.0,89.61814885443522,36.76632651952085,172000,86000.0,4658.6080939769745
7.501356317520141,-4.656793935775757,-7.959777416229248,0.28247789859771727,86500.0,0.40594493782520297,7.918911611557006,7.918861572265625,7.919941171646118,173.0,1000.0,84.8243852231641,36.644621960625805,173000,86500.0,4685.897228002548
7.494960498809815,-4.651125093460083,-7.991625543594361,0.2818689013123512,87000.0,0.38640074211359027,7.955865758895874,7.955913232803344,7.956071630477905,174.0,1000.0,61.79486878166562,36.489640907668054,174000,87000.0,4713.302267074585
7.488557806015015,-4.644676425933838,-8.00478069114685,0.2830353819131851,87500.0,0.3983957622051239,7.975711566925049,7.975761037826538,7.975797655105591,175.0,1000.0,34.269791377154334,36.2168252797983,175000,87500.0,4740.913743019104
7.482148319244385,-4.6384442653656,-8.016791646957397,0.2868043524026871,88000.0,0.4012654947042465,7.978573303222657,7.978426065444946,7.979120077133179,176.0,1000.0,65.67805338838383,36.80393859592972,176000,88000.0,4768.084748029709
7.475732004165649,-4.633077770233155,-8.052764608383178,0.28391135901212694,88500.0,0.3839606130719185,8.013326856613158,8.0134725189209,8.013780170440674,177.0,1000.0,79.0673920426064,36.98167402546289,177000,88500.0,4795.125169038773
7.469308813095092,-4.62675276184082,-8.059337112426757,0.2856569313406944,89000.0,0.39502110970020293,8.03060899734497,8.030516180038452,8.030751567840577,178.0,1000.0,25.55884535895573,36.73445018578849,178000,89000.0,4822.347571849823
7.462878713607788,-4.620568031311035,-8.067841775894165,0.2844437579512596,89500.0,0.38705857455730436,8.02554581642151,8.025522006988526,8.02636092376709,179.0,1000.0,70.47891148751451,37.03774609242129,179000,89500.0,4849.347056150436
7.456441759109497,-4.613797538757324,-8.06618170928955,0.28554873710870743,90000.0,0.35097289210557936,8.022085027694702,8.022136837005615,8.022378881454468,180.0,1000.0,87.05665620461652,36.7110996323572,180000,90000.0,4876.5867738723755
7.449997842788696,-4.60854959487915,-8.115078519821166,0.28817420595884324,90500.0,0.36394385612010954,8.079025749206544,8.07903307723999,8.079317251205444,181.0,1000.0,84.90642225595946,21.947327594259765,181000,90500.0,4922.150408983231
7.443547044754029,-4.601936071395874,-8.174565748214722,0.2884776064157486,91000.0,0.38157817071676253,8.136664890289307,8.136723188400268,8.137573902130127,182.0,1000.0,76.49352344321629,36.3201579862585,182000,91000.0,4949.6833300590515
7.4370892658233645,-4.595461339950561,-8.247176103591919,0.2882489585876465,91500.0,0.3875960316061974,8.195523988723755,8.19542897415161,8.196175664901734,183.0,1000.0,135.74258071937626,36.20072779075859,183000,91500.0,4977.307085037231
7.43062451171875,-4.588673194885254,-8.29371025466919,0.2900859164595604,92000.0,0.3855817855596542,8.246668434143066,8.246721290588379,8.247236791610717,184.0,1000.0,35.663732703682534,36.38943159880042,184000,92000.0,5004.787591934204
7.424152839660644,-4.5830339908599855,-8.3640478515625,0.29234341424703597,92500.0,0.39148037832975385,8.306693479537964,8.306663024902344,8.306790422439574,185.0,1000.0,71.27508151672508,36.68937790906697,185000,92500.0,5032.043437957764
7.417674104690552,-4.576835060119629,-8.384157035827636,0.291902863740921,93000.0,0.39459595197439196,8.331841672897339,8.331866607666015,8.331976306915283,186.0,1000.0,29.6355360691168,36.862580214683916,186000,93000.0,5059.17121887207
7.411188436508179,-4.571075210571289,-8.383565074920654,0.29123544400930407,93500.0,0.3961760979890823,8.336590894699096,8.336730846405029,8.337199880599975,187.0,1000.0,75.53550897558269,37.02128097146545,187000,93500.0,5086.182709932327
7.404695711135864,-4.564313793182373,-8.475869060516358,0.29229495030641556,94000.0,0.3846866564750671,8.421449295043946,8.421443553924561,8.421573720932006,188.0,1000.0,30.181864852251948,36.10581566922212,188000,94000.0,5113.879080057144
7.398196002960205,-4.558400838851929,-8.440653318405152,0.29158949613571167,94500.0,0.37464557236433027,8.393731201171875,8.39352262878418,8.393673624038696,189.0,1000.0,174.36451111514452,36.541754326978506,189000,94500.0,5141.24503493309
7.3916891689300535,-4.552059638977051,-8.517632062911987,0.2941613647341728,95000.0,0.4053829066157341,8.466992136001586,8.467064151763916,8.468356552124023,190.0,1000.0,82.69366303491984,36.468691528193574,190000,95000.0,5168.665816068649
7.385175331115723,-4.545599760055542,-8.60072585105896,0.29679959678649903,95500.0,0.4242226630449295,8.549779123306275,8.549808284759521,8.550711963653564,191.0,1000.0,76.75146851897883,21.854748290600835,191000,95500.0,5214.422462940216
7.37865440750122,-4.539505044937134,-8.612283256530763,0.2982549713850021,96000.0,0.40789202725887297,8.555699096679687,8.555521549224853,8.555305885314942,192.0,1000.0,73.54432309533212,36.25920321810388,192000,96000.0,5242.001669168472
7.372126379013062,-4.533630575180053,-8.686764986038208,0.2971278820037842,96500.0,0.40713087528944014,8.62912361907959,8.629174501419067,8.629148008346558,193.0,1000.0,68.8773800796509,35.40015262825015,193000,96500.0,5270.250136137009
7.365591207504273,-4.526772291183471,-8.742511463165282,0.2991416974663734,97000.0,0.4313116611242294,8.691095392227172,8.691064834594727,8.692117959976196,194.0,1000.0,35.410870872923255,35.408688716447024,194000,97000.0,5298.49179315567
7.359048950195312,-4.520516025543213,-8.739487613677978,0.2968835642933845,97500.0,0.4318725272417068,8.689672937393189,8.68964758682251,8.689784305572509,195.0,1000.0,85.8308975449417,36.13650620911827,195000,97500.0,5326.164640903473
7.352499538421631,-4.514909986495971,-8.80934310913086,0.30043534755706786,98000.0,0.4736681362390518,8.749798669815064,8.749946243286132,8.750362642288207,196.0,1000.0,55.75840126670324,36.16699947552166,196000,98000.0,5353.814157009125
7.345942974090576,-4.508176153182983,-8.89064402961731,0.3020855924487114,98500.0,0.46972221422195437,8.839934608459473,8.839995672225951,8.840671703338623,197.0,1000.0,83.28568645647044,36.27369224072103,197000,98500.0,5381.382345914841
7.33937924194336,-4.501689414978028,-8.918392475128174,0.2996185883879662,99000.0,0.5097517546415329,8.860517080307007,8.860434883117676,8.86070778465271,198.0,1000.0,70.12140442808276,36.23959273728253,198000,99000.0,5408.976476192474
7.332808313369751,-4.496182441711426,-8.873704717636109,0.3004854552745819,99500.0,0.4815669320821762,8.814710628509522,8.814777767181397,8.815517223358155,199.0,1000.0,93.0098375468293,35.672103574959166,199000,99500.0,5437.009586811066
7.326230171203613,-4.489592695236206,-8.911234062194824,0.2984955778121948,100000.0,0.5305520300269126,8.855139762878418,8.855168807983398,8.854657810211181,200.0,1000.0,63.87791567229466,35.617426691906616,200000,100000.0,5465.0857310295105
7.319644830703735,-4.483101718902588,-9.029127979278565,0.3029967557191849,100500.0,0.5202905020713806,8.968064964294433,8.968025024414063,8.968429641723633,201.0,1000.0,82.37073513240094,21.672849732974605,201000,100500.0,5511.226410865784
7.313052234649658,-4.477133829116822,-9.099443603515626,0.3065333641767502,101000.0,0.5272839467525482,9.044533145904541,9.044525295257568,9.045775413513184,202.0,1000.0,74.20567755535363,35.88066660967581,202000,101000.0,5539.096572160721
7.306452348709106,-4.470918926239014,-9.11856944656372,0.30544719165563583,101500.0,0.5458410785198212,9.066729232788086,9.066702758789063,9.066617881774903,203.0,1000.0,79.86501236966977,35.747604138075914,203000,101500.0,5567.070474863052
7.299845300674439,-4.464615892410278,-9.156234554290771,0.3074122523069382,102000.0,0.6030230500102043,9.096276100158692,9.096263460159301,9.096895139694213,204.0,1000.0,77.53183714544254,35.89845369931103,204000,102000.0,5594.926829099655
7.293230884552002,-4.458352584838867,-9.177910110473633,0.3076681069731712,102500.0,0.5874960489273071,9.127525497436524,9.127535903930664,9.128228134155274,205.0,1000.0,80.15438741405072,35.693930172244514,205000,102500.0,5622.942796945572
7.2866092185974125,-4.451997375488281,-9.214581199645997,0.3073769099712372,103000.0,0.6064450939893723,9.15590784072876,9.155873218536376,9.156355884552003,206.0,1000.0,61.66381301536133,35.83106169846998,206000,103000.0,5650.851543903351
7.279980186462402,-4.445941535949707,-9.288307418823242,0.3067635214328766,103500.0,0.627996054649353,9.221213077545166,9.221238788604737,9.220979141235352,207.0,1000.0,58.26710819724476,35.61387860733675,207000,103500.0,5678.930485010147
7.273343883514404,-4.439701066970825,-9.329118293762207,0.3070284758210182,104000.0,0.6551687152385711,9.26953586959839,9.269566864013672,9.269952388763429,208.0,1000.0,80.527393960998,35.730283952196515,208000,104000.0,5706.9179491996765
7.266700159072876,-4.432617511749267,-9.33307883453369,0.3057188603878021,104500.0,0.6622209300994873,9.268655918121338,9.268770542144775,9.269828567504883,209.0,1000.0,60.63053562190824,35.43071123146393,209000,104500.0,5735.142051935196
7.260049102783203,-4.426728042602539,-9.332852657318115,0.30806175220012666,105000.0,0.6304685229063034,9.280590057373047,9.280444862365723,9.2809849319458,210.0,1000.0,78.3650914963705,35.43919139744128,210000,105000.0,5763.359400987625
7.253390674591064,-4.4206262226104736,-9.324901294708251,0.30493986213207247,105500.0,0.6656592215299606,9.26783232498169,9.268034126281739,9.268076866149903,211.0,1000.0,66.418107250262,21.44340529233556,211000,105500.0,5809.993785142899
7.246724836349487,-4.414304981231689,-9.425269348144532,0.31036074900627136,106000.0,0.6815092921257019,9.366704578399657,9.366782470703125,9.367690235137939,212.0,1000.0,89.06847099469711,35.34494886081307,212000,106000.0,5838.286371946335
7.240051622390747,-4.407584617614746,-9.481115493774414,0.31155979752540586,106500.0,0.7255060513019562,9.422930110931397,9.422852642059325,9.423578792572021,213.0,1000.0,81.76639605510505,34.8782209238774,213000,106500.0,5866.957560062408
7.233370918273926,-4.401218984603882,-9.49871266555786,0.311810519695282,107000.0,0.7251321922540664,9.446012344360351,9.446134983062745,9.445579662322999,214.0,1000.0,87.22136729639347,34.90240330232357,214000,107000.0,5895.608882904053
7.226682817459106,-4.395019250869751,-9.569398654937745,0.31601065933704375,107500.0,0.7810256783962249,9.509343589782715,9.509064098358154,9.509846488952636,215.0,1000.0,89.96201062327074,35.431863256369205,215000,107500.0,5923.832067012787
7.2199872341156,-4.389087728500366,-9.553039478302003,0.3136666189432144,108000.0,0.7957321765422821,9.499853824615478,9.499767887115478,9.50029041671753,216.0,1000.0,83.2846055452251,35.57431967263685,216000,108000.0,5951.942233085632
7.2132841567993164,-4.382252305984497,-9.644416976928712,0.3160951731204987,108500.0,0.7654177252054214,9.590682586669923,9.590908473968506,9.591316417694092,217.0,1000.0,86.48191069468758,35.220589905481056,217000,108500.0,5980.334717035294
7.2065735912323,-4.37549677658081,-9.66175993347168,0.31696193408966067,109000.0,0.7791300508975982,9.599213653564453,9.5990852394104,9.599653198242187,218.0,1000.0,77.00177212927461,35.25011332123649,218000,109000.0,6008.703421115875
7.199855474472046,-4.370296682357788,-9.69262562561035,0.31737094151973727,109500.0,0.759757631778717,9.63395781326294,9.634027626037598,9.634540775299072,219.0,1000.0,87.27047812071257,34.844911629648266,219000,109500.0,6037.402016878128
7.19312992477417,-4.363186157226562,-9.738395038604736,0.31773215758800505,110000.0,0.7693722801208496,9.6781262550354,9.67804148864746,9.67901371383667,220.0,1000.0,62.15328176892407,34.927270729475296,220000,110000.0,6066.032941102982
7.186396745681763,-4.357334728240967,-9.715852222442628,0.31696863770484923,110500.0,0.7377185047864914,9.654603984832764,9.654500762939453,9.655595668792724,221.0,1000.0,93.32722945673324,20.82771286958212,221000,110500.0,6114.04589509964
7.1796560382843015,-4.350196737289429,-9.730457721710206,0.31991212427616117,111000.0,0.7469303570985794,9.679572315216065,9.6794270362854,9.679332447052001,222.0,1000.0,79.68482791889646,34.23301917197422,222000,111000.0,6143.257458925247
7.17290775680542,-4.344039684295654,-9.735706726074218,0.31966168558597563,111500.0,0.7514445724487304,9.675364910125733,9.675451309204101,9.676854042053222,223.0,1000.0,73.49702304718998,34.19903622783629,223000,111500.0,6172.498049020767
7.166151842117309,-4.338141344070435,-9.799334148406983,0.31993636894226074,112000.0,0.769735337972641,9.740029361724854,9.740057815551758,9.740409141540527,224.0,1000.0,32.903975061026436,34.21738507620081,224000,112000.0,6201.72295999527
7.159388334274292,-4.3306832637786865,-9.781649131774902,0.320004103064537,112500.0,0.7501211717128754,9.725783889770508,9.72571159362793,9.726498950958252,225.0,1000.0,82.19966210910943,34.492328636455724,225000,112500.0,6230.714914083481
7.152617198944092,-4.325302808761597,-9.825037048339844,0.32031157982349395,113000.0,0.7392531356811524,9.766028266906739,9.766016921997071,9.76686918258667,226.0,1000.0,33.20549708063933,34.029216337824714,226000,113000.0,6260.101428031921
7.145838376998902,-4.317948858261109,-9.794441871643066,0.3158110444545746,113500.0,0.7169783517122269,9.730297927856446,9.730160610198975,9.730606456756592,227.0,1000.0,83.01575675929435,34.422896056880425,227000,113500.0,6289.151860952377
7.139051904678345,-4.312327283859253,-9.881835453033448,0.3212463855743408,114000.0,0.7398144042491913,9.81816780090332,9.81829072189331,9.818352260589599,228.0,1000.0,33.17503801363253,34.18418564778379,228000,114000.0,6318.405153989792
7.132257768630981,-4.305448608398438,-9.871058700561523,0.3192918313741684,114500.0,0.7462232412099838,9.800483894348144,9.800569049835206,9.801740455627442,229.0,1000.0,76.64761001984989,34.266938139620514,229000,114500.0,6347.5878031253815
7.125455898284912,-4.298659412384033,-9.942526161193848,0.3212719382047653,115000.0,0.7387797685861588,9.879342655181885,9.8792671585083,9.880297817230225,230.0,1000.0,63.68420700062759,35.301299879934625,230000,115000.0,6375.915371894836
7.118646366119385,-4.293302457809448,-9.929246921539306,0.3234814044237137,115500.0,0.7708806154727936,9.86611682510376,9.866156520843505,9.866176128387451,231.0,1000.0,82.40554377450059,19.789502980663947,231000,115500.0,6426.447214126587
7.111829042434692,-4.2861233386993405,-9.969349060058594,0.32042613434791567,116000.0,0.7364302935600281,9.90897717666626,9.90903868484497,9.909829578399659,232.0,1000.0,75.9014580607394,34.303003952484474,232000,116000.0,6455.599179983139
7.105003988265991,-4.279597043991089,-9.98102332687378,0.3230433301925659,116500.0,0.7757853519916534,9.918922008514404,9.918949851989746,9.91974620437622,233.0,1000.0,65.65137141488316,33.632395929652446,233000,116500.0,6485.332417964935
7.098171155929565,-4.273289892196655,-9.926160423278809,0.3207779525518417,117000.0,0.689435435295105,9.869677196502685,9.869666381835938,9.870657192230224,234.0,1000.0,81.72415297019957,33.21084613590317,234000,117000.0,6515.443063020706
7.0913305206298825,-4.267426797866821,-9.959664646148681,0.32162016940116883,117500.0,0.7076819049119949,9.904499397277831,9.904605422973633,9.904798252105714,235.0,1000.0,80.17441306367462,32.72621731339227,235000,117500.0,6545.999604940414
7.084482112884522,-4.260127151489258,-10.013184196472167,0.32391324174404146,118000.0,0.6957630326747895,9.955043998718262,9.95478326034546,9.955330249786376,236.0,1000.0,38.46265391909373,32.707579645859354,236000,118000.0,6576.573559045792
7.077625848770142,-4.253470106124878,-9.95786992263794,0.32091325950622557,118500.0,0.7296628444194794,9.902360942840577,9.902779716491699,9.903918270111085,237.0,1000.0,86.69136920530002,32.85514210409196,237000,118500.0,6607.010195970535
7.070761821746826,-4.246875255584717,-10.045040363311768,0.32199005091190336,119000.0,0.7268713277578354,9.982686893463136,9.98267833328247,9.982743751525879,238.0,1000.0,90.60885937282751,34.22894736290176,238000,119000.0,6636.225234031677
7.0638898010253905,-4.239942121505737,-10.068361518859863,0.32467790043354033,119500.0,0.6791697592735291,10.010335723876953,10.010520294189453,10.011342517852784,239.0,1000.0,79.76324302947563,36.711810079921,239000,119500.0,6663.4644248485565
7.057009956359863,-4.234124311447143,-10.033853965759278,0.32458315324783327,120000.0,0.6360411427617073,9.979389766693116,9.979356967926025,9.979767211914062,240.0,1000.0,135.6407255040215,36.57851540363655,240000,120000.0,6690.802877902985
7.050122236251831,-4.227232492446899,-10.143129322052001,0.32793456995487213,120500.0,0.7121490460634231,10.091738586425782,10.091615779876708,10.092595001220703,241.0,1000.0,85.13633054998476,20.343047189325254,241000,120500.0,6739.959722995758
7.04322659111023,-4.2211730060577395,-10.149186153411865,0.32615873754024505,121000.0,0.7141131160259246,10.090222953796387,10.090394519805908,10.091852447509766,242.0,1000.0,77.14188426999328,36.127217020188155,242000,121000.0,6767.6396861076355
7.036323001861573,-4.214555532455444,-10.172115592956542,0.3269443744421005,121500.0,0.6661519149541855,10.120826759338378,10.120665996551514,10.12088529586792,243.0,1000.0,82.6213529900715,35.593560303425924,243000,121500.0,6795.734655857086
7.029411409378052,-4.208099802017212,-10.137495735168457,0.326701068520546,122000.0,0.6470950636863708,10.08396236038208,10.0840016746521,10.084200931549072,244.0,1000.0,91.28989737337717,34.59055214106967,244000,122000.0,6824.644285202026
7.022491882324219,-4.201461978912354,-10.142821228027344,0.3295006173849106,122500.0,0.6425128759145736,10.094635829925537,10.094701259613037,10.095304615020751,245.0,1000.0,82.8244457609333,34.72352704268323,245000,122500.0,6853.443202972412
7.015564357757568,-4.195301839828491,-10.21868716430664,0.3331587445735931,123000.0,0.680005518913269,10.158486980438232,10.158442184448242,10.1593127784729,246.0,1000.0,33.031133235574686,34.69128196170026,246000,123000.0,6882.268890142441
7.008628889083862,-4.1879779262542725,-10.163285671234132,0.32952229142189027,123500.0,0.6472228827476502,10.109378826141358,10.109490646362305,10.110022163391113,247.0,1000.0,55.763283672048026,34.62353702219474,247000,123500.0,6911.150978088379
7.001685333251953,-4.181886526107788,-10.13664221572876,0.3265386115312576,124000.0,0.6383872555494309,10.07889259338379,10.078835956573487,10.079350349426269,248.0,1000.0,84.3850614593464,34.31569803379575,248000,124000.0,6940.292160987854
6.994733736038208,-4.175341588973999,-10.207315567016602,0.3301843042373657,124500.0,0.6562327547073364,10.144981872558594,10.145071575164796,10.14567769241333,249.0,1000.0,53.950148399435705,34.4052470613556,249000,124500.0,6969.357496023178
6.98777414894104,-4.168481313705445,-10.226335636138916,0.32935431468486787,125000.0,0.7144649938344956,10.169163967132569,10.169132656097412,10.169661098480224,250.0,1000.0,76.24926687315751,34.360104993069086,250000,125000.0,6998.461017131805
6.9808064022064205,-4.16197438621521,-10.23806900024414,0.3318127349615097,125500.0,0.6661839554309845,10.182618301391601,10.182659309387207,10.183657917022705,251.0,1000.0,81.66909228415334,20.803466993195592,251000,125500.0,7046.529928922653
6.973830562591552,-4.155742359161377,-10.234025867462158,0.33124956941604616,126000.0,0.6423864434957505,10.178530750274659,10.17863289642334,10.179096462249756,252.0,1000.0,76.52641223960276,32.4931037727399,252000,126000.0,7077.305691003799
6.966846626281738,-4.148797147750854,-10.279410835266113,0.33223195564746855,126500.0,0.6596886404752731,10.227608051300049,10.227550312042236,10.227606903076172,253.0,1000.0,35.759585269989806,31.830351695415963,253000,126500.0,7108.722247123718
6.959854536056518,-4.142457948684692,-10.254348880767822,0.32916324198246,127000.0,0.6529416061639786,10.197037616729736,10.197254127502442,10.198026153564452,254.0,1000.0,71.37269871027571,32.83482322614015,254000,127000.0,7139.177716970444
6.952854284286499,-4.135430519104004,-10.308075351715088,0.3328457810878754,127500.0,0.6506314165592194,10.249723361968995,10.249709674835206,10.250709239959717,255.0,1000.0,82.7301077919384,33.59939471000092,255000,127500.0,7168.940158843994
6.945845867156982,-4.128719211578369,-10.380898223876953,0.3350198481082916,128000.0,0.6493118040561676,10.322345230102538,10.322395118713379,10.321968772888184,256.0,1000.0,40.88207750963292,33.55581262035445,256000,128000.0,7198.741255998611
6.938829250335694,-4.122725973129272,-10.380487693786622,0.3338239325284958,128500.0,0.6513194289207459,10.323604015350341,10.323702037811278,10.324165710449218,257.0,1000.0,34.32711543546992,33.542820280646524,257000,128500.0,7228.553895235062
6.931804424285889,-4.115274528503418,-10.336682266235352,0.33337999057769774,129000.0,0.7015744131803513,10.281641040802002,10.281426952362061,10.282154026031494,258.0,1000.0,82.79552557819315,33.438119774157734,258000,129000.0,7258.459883928299
6.924771369934082,-4.108333766937256,-10.309681861877442,0.33103177905082704,129500.0,0.6069884202480316,10.256633632659913,10.256807483673096,10.25787825012207,259.0,1000.0,89.31715706329678,33.22756526335033,259000,129500.0,7288.555378913879
6.917730039596558,-4.102155672073364,-10.352329875946046,0.3324771169424057,130000.0,0.6344193964004516,10.29556581878662,10.29554058456421,10.295615768432617,260.0,1000.0,82.8576477780164,32.90083093599829,260000,130000.0,7318.94974899292
6.910680448532104,-4.095656114578247,-10.372068599700928,0.3320968265533447,130500.0,0.5934102897644042,10.313367755889892,10.313346817016601,10.314052978515624,261.0,1000.0,83.94976285712505,20.666434244438584,261000,130500.0,7367.337391138077
6.9036225395202635,-4.088291366577148,-10.447010070800781,0.3356721994876862,131000.0,0.6351231734752655,10.389983276367188,10.390061977386475,10.390978618621826,262.0,1000.0,56.78962398908462,32.77968980078388,262000,131000.0,7397.844085931778
6.8965563621521,-4.0819278221130375,-10.45854461669922,0.3330423502922058,131500.0,0.6464143460988998,10.39149562072754,10.391368534088135,10.39204871749878,263.0,1000.0,86.99660998346751,32.94794649682155,263000,131500.0,7428.19499206543
6.889481786727905,-4.075659646987915,-10.51829700088501,0.33500607585906983,132000.0,0.7226349847316742,10.457382846832276,10.457577751159668,10.458187671661378,264.0,1000.0,37.176399871650425,33.03689112840477,264000,132000.0,7458.464184999466
6.88239895439148,-4.0692650375366215,-10.502527935028077,0.3325304009914398,132500.0,0.6932234675884247,10.44769499206543,10.447443141937256,10.448474388122559,265.0,1000.0,36.84833877569912,32.823308300214244,265000,132500.0,7488.930341005325
6.875307678222656,-4.062566869735718,-10.444107345581054,0.33166665518283844,133000.0,0.6284414678812027,10.396072425842284,10.396040367126465,10.39594870376587,266.0,1000.0,64.57393242280148,33.00416647007765,266000,133000.0,7519.229547023773
6.868208051681519,-4.055425016403198,-10.465234001159669,0.33505995047092435,133500.0,0.6515317076444626,10.414498443603515,10.41475506591797,10.415287548065185,267.0,1000.0,85.6938087740145,32.62647019570551,267000,133500.0,7549.879508018494
6.861099998474121,-4.04917855834961,-10.477385398864746,0.3356959270238876,134000.0,0.7170866967439652,10.426192260742187,10.425957565307618,10.427391597747803,268.0,1000.0,75.10926458770895,32.425696864421944,268000,134000.0,7580.719247102737
6.8539834957122805,-4.042113513946533,-10.483267078399658,0.33406949090957644,134500.0,0.7408280739784241,10.439646045684814,10.439626686096192,10.439510238647461,269.0,1000.0,57.979529264860176,32.55437665440737,269000,134500.0,7611.437084197998
6.846858560562134,-4.034961009979248,-10.533539474487304,0.3366356899738312,135000.0,0.6673737338781357,10.479528469085693,10.479570240020752,10.480276950836181,270.0,1000.0,44.49360345468158,32.240469598137835,270000,135000.0,7642.454002857208
6.83972519493103,-4.028431415557861,-10.475711723327636,0.3338059197664261,135500.0,0.5975026137828827,10.423801868438721,10.423906135559083,10.424355876922608,271.0,1000.0,38.06216500031001,20.663993591335256,271000,135500.0,7690.847358942032
6.832583219528198,-4.022226511001587,-10.429556076049805,0.33659650027751925,136000.0,0.6119903429150582,10.376919204711914,10.376743450164795,10.377341697692872,272.0,1000.0,73.722756355687,32.930350228382984,272000,136000.0,7721.2144820690155
6.825432870864868,-4.0145283088684085,-10.461220153808593,0.33565536606311797,136500.0,0.6686525267362594,10.412493141174316,10.412817806243897,10.413138011932373,273.0,1000.0,62.82530662602231,33.29824251451372,273000,136500.0,7751.24609708786
6.818273885726929,-4.008554801940918,-10.432193534851073,0.3346029471158981,137000.0,0.6554676679372787,10.381602794647216,10.38165771484375,10.381945835113525,274.0,1000.0,90.95728010841931,33.774417208262946,274000,137000.0,7780.854306936264
6.8111064262390135,-4.001976773262024,-10.468509960174561,0.3364365015029907,137500.0,0.6524233006238938,10.415939971923828,10.415724494934082,10.41632373046875,275.0,1000.0,79.50296496248212,34.04352193457342,275000,137500.0,7810.2284719944
6.803930383682251,-3.9946171274185183,-10.504798477172852,0.3382671980857849,138000.0,0.665631622672081,10.454136730194092,10.454280078887939,10.455186382293702,276.0,1000.0,62.80090113655639,34.261372386920385,276000,138000.0,7839.415862083435
6.7967457027435305,-3.987255311965942,-10.49212999343872,0.3380473539829254,138500.0,0.620346091389656,10.439281890869141,10.439244934082032,10.439320991516114,277.0,1000.0,87.98423950269877,33.949328140579595,277000,138500.0,7868.871527194977
6.7895524635314946,-3.9818114786148073,-10.482571353912354,0.33720527243614196,139000.0,0.5915524982213974,10.433121742248535,10.433012592315674,10.434312042236328,278.0,1000.0,182.3909739804169,33.23843183537401,278000,139000.0,7898.957181930542
6.78235046005249,-3.9744395093917846,-10.546694347381592,0.3387023056745529,139500.0,0.6481022244691849,10.500284580230712,10.500289108276368,10.501013313293457,279.0,1000.0,103.36802857843804,33.54854168124577,279000,139500.0,7928.764736890793
6.775139938354492,-3.96769779586792,-10.527768363952637,0.3400353879928589,140000.0,0.6032681856155395,10.479292652130127,10.47947445678711,10.47964376449585,280.0,1000.0,54.201237752565966,33.10557783582928,280000,140000.0,7958.971127033234
6.7679206619262695,-3.960614951133728,-10.527464324951172,0.339365420460701,140500.0,0.5981262152194977,10.480641120910645,10.480576175689697,10.48139610671997,281.0,1000.0,36.92170002916183,20.054333167426115,281000,140500.0,8008.835663080215
6.760692785263061,-3.9530296964645384,-10.567270431518555,0.3415331356525421,141000.0,0.6035070529580117,10.517220577239991,10.517405895233154,10.517865142822266,282.0,1000.0,54.98676907120643,32.26944836745083,282000,141000.0,8039.824728012085
6.753456142425537,-3.9472444887161253,-10.498343200683594,0.338617174744606,141500.0,0.6063201931715012,10.449358016967773,10.449138988494873,10.450259719848633,283.0,1000.0,97.46083036259093,33.213335560804175,283000,141500.0,8069.93311715126
6.746210754394531,-3.9389333391189574,-10.58435530090332,0.34129811024665835,142000.0,0.6239541008472442,10.53626900100708,10.536182037353516,10.535711345672608,284.0,1000.0,82.78349887859453,33.281856259780895,284000,142000.0,8099.9795179367065
6.738956600189209,-3.9328860921859743,-10.540034507751464,0.3420044776201248,142500.0,0.6037919392585754,10.49705697631836,10.497115875244141,10.49806010055542,285.0,1000.0,92.40639437770973,33.40807283649083,285000,142500.0,8129.912403821945
6.731693674087524,-3.9258495397567748,-10.538857475280762,0.3415391606092453,143000.0,0.6761329015493392,10.494677753448487,10.494685222625732,10.495057285308837,286.0,1000.0,51.0987891026257,33.209826910084814,286000,143000.0,8160.023972988129
6.724421941757202,-3.9195956993103027,-10.517504631042481,0.3413673129081726,143500.0,0.6019066090583801,10.473947044372558,10.47428470993042,10.474924255371095,287.0,1000.0,56.214268963635035,33.11119128936591,287000,143500.0,8190.225242137909
6.717141380310059,-3.9127263660430907,-10.545845470428468,0.34050838541984557,144000.0,0.6425070320367813,10.503532501220704,10.503558700561523,10.503842288970947,288.0,1000.0,89.41045263101537,32.809244295946655,288000,144000.0,8220.704457998276
6.709852010726928,-3.9060823831558227,-10.525989879608154,0.34184871256351473,144500.0,0.584696792602539,10.475000061035157,10.47480400466919,10.47565571975708,289.0,1000.0,85.52752275349623,32.597166653525896,289000,144500.0,8251.38197183609
6.702553712844849,-3.898708472251892,-10.54321248626709,0.34042650437355043,145000.0,0.6135029563903809,10.494812675476075,10.494821723937989,10.494933322906494,290.0,1000.0,87.59250057716761,32.24799577740258,290000,145000.0,8282.391652107239
6.695246555328369,-3.891362023353577,-10.606734340667725,0.3452625943422318,145500.0,0.6288841561079025,10.56076284790039,10.560801364898682,10.561977256774902,291.0,1000.0,90.46910976822063,20.36675012900435,291000,145500.0,8331.491286039352
6.687930471420288,-3.8852727088928223,-10.664275676727295,0.3441536748409271,146000.0,0.6385272437334061,10.608468101501465,10.608503448486328,10.608996341705323,292.0,1000.0,87.14396199491028,33.01860112216218,292000,146000.0,8361.777245998383
6.680605537414551,-3.8774974517822267,-10.699166927337647,0.3443326785564423,146500.0,0.6173808517456054,10.64420542526245,10.6442473487854,10.644180671691895,293.0,1000.0,95.80043497962248,33.11604471428424,293000,146500.0,8391.974089860916
6.67327156829834,-3.8710288820266725,-10.725072513580322,0.3440201226472855,147000.0,0.6067098550796509,10.670505790710449,10.670497196197509,10.671167270660401,294.0,1000.0,53.14473419920903,33.35307839841029,294000,147000.0,8421.95632982254
6.6659286556243895,-3.8650492973327637,-10.743274181365967,0.34637023997306826,147500.0,0.6067374485731125,10.68709426498413,10.686934242248535,10.688122867584228,295.0,1000.0,92.05881823832615,32.96840566567756,295000,147500.0,8452.288401126862
6.65857670211792,-3.857740255355835,-10.786755073547363,0.35008517706394193,148000.0,0.6293693389892578,10.736179740905762,10.736144435882569,10.73620283126831,296.0,1000.0,107.32316398557693,33.1369307956603,296000,148000.0,8482.466211080551
6.651215774536133,-3.8504774255752565,-10.786637195587158,0.3465756684541702,148500.0,0.6650381897687911,10.737397533416749,10.73755184173584,10.73865151977539,297.0,1000.0,61.9354310129925,32.86539789045296,297000,148500.0,8512.893349170685
6.643845767974853,-3.8432319478988646,-10.78440055847168,0.34998983120918276,149000.0,0.7534845457077026,10.73227725982666,10.732159038543701,10.732807151794434,298.0,1000.0,82.07766230235669,32.213232270477654,298000,149000.0,8543.936494112015
6.636466730117798,-3.837479434967041,-10.827455333709716,0.34987799310684203,149500.0,0.7092821832895279,10.777216552734375,10.77715637588501,10.778318744659424,299.0,1000.0,90.03211273248947,31.906183571161705,299000,149500.0,8575.278381109238
6.62907859992981,-3.8292352046966553,-10.792050941467284,0.3463045589923859,150000.0,0.6637917460203171,10.74312163925171,10.743097305297852,10.742718379974365,300.0,1000.0,89.539469646005,32.043166549713256,300000,150000.0,8606.486283063889
6.6216813106536865,-3.8223861894607545,-10.796324615478516,0.3469280124902725,150500.0,0.6605544699430466,10.748284717559814,10.748366638183594,10.749409160614015,301.0,1000.0,83.86703135847495,20.421678955562435,301000,150500.0,8655.45385313034
6.614274959564209,-3.815415385246277,-10.830454254150391,0.3474823569059372,151000.0,0.6146410949230194,10.785096035003662,10.785244705200196,10.785584339141845,302.0,1000.0,40.77892430177241,33.272218902513146,302000,151000.0,8685.508957862854
6.606859453201294,-3.8085188245773316,-10.826208160400391,0.34673562479019165,151500.0,0.6460165748596192,10.778267902374267,10.778306339263915,10.778854644775391,303.0,1000.0,34.06026366390613,33.123700932697076,303000,151500.0,8715.69882106781
6.599434759140014,-3.801729259490967,-10.83729047012329,0.348781867146492,152000.0,0.6977462859153748,10.792473667144776,10.792318977355958,10.793322959899902,304.0,1000.0,100.12880361229706,33.23718466773137,304000,152000.0,8745.785606145859
6.592000883102417,-3.795595999717712,-10.857299354553223,0.35014206206798554,152500.0,0.7245320788621903,10.807588523864746,10.807746513366698,10.807878330230713,305.0,1000.0,37.505694929844104,33.27155695658268,305000,152500.0,8775.841309070587
6.584557687759399,-3.7874307870864867,-10.84911625289917,0.3497941402196884,153000.0,0.714974045753479,10.804658641815186,10.804471221923828,10.804516540527343,306.0,1000.0,39.73372162464795,33.304511482168614,306000,153000.0,8805.867271900177
6.577105333328247,-3.780593551635742,-10.797341606140137,0.3459301534891129,153500.0,0.690751185297966,10.746301788330078,10.746501258850097,10.74703462600708,307.0,1000.0,74.74508933704693,33.243230681915236,307000,153500.0,8835.948585033417
6.5696436901092525,-3.7733463315963744,-10.84483737564087,0.3488209151029587,154000.0,0.6956394755840302,10.791790016174316,10.791888645172119,10.792899383544922,308.0,1000.0,109.53518631577431,32.683396984194104,308000,154000.0,8866.545161008835
6.562172769546509,-3.7663327474594115,-10.893421226501465,0.3511090142726898,154500.0,0.7239340635538101,10.850558181762695,10.850564674377441,10.851110023498535,309.0,1000.0,84.48234127891698,32.16385525050453,309000,154500.0,8897.635961055756
6.55469250869751,-3.759135112762451,-10.846996639251708,0.3494113496541977,155000.0,0.6862637596130371,10.80063818359375,10.800593910217286,10.800859172821045,310.0,1000.0,58.08777784268522,31.94830727223917,310000,155000.0,8928.936523914337
6.547202934265137,-3.7526348438262938,-10.859372150421143,0.3527797690629959,155500.0,0.7201569193601608,10.817587398529053,10.817761428833007,10.818419826507569,311.0,1000.0,53.011881286413846,20.147125513061795,311000,155500.0,8978.571397066116
6.539703977584839,-3.7455121374130247,-10.840547576904298,0.35116021597385405,156000.0,0.6906804586648941,10.795333835601806,10.79540327835083,10.79573849105835,312.0,1000.0,78.88747904129342,32.21542814069613,312000,156000.0,9009.612426042557
6.5321957397460935,-3.73857585811615,-10.909925235748291,0.3527177585363388,156500.0,0.6494540476799011,10.86332905960083,10.86326132583618,10.86396953201294,313.0,1000.0,136.3595032846497,32.19913906786687,313000,156500.0,9040.669157981873
6.52467794418335,-3.7312003421783446,-10.879997142791748,0.3498326917886734,157000.0,0.6758934088945389,10.83963073348999,10.839539108276368,10.8405721244812,314.0,1000.0,104.41500981160326,31.841231842352354,314000,157000.0,9072.074978113174
6.517150785446167,-3.72469970703125,-10.891307075500489,0.3524703707695007,157500.0,0.6760095355510711,10.852537601470948,10.852576740264892,10.853196281433105,315.0,1000.0,86.24689611924586,32.00428914904169,315000,157500.0,9103.320791006088
6.50961414527893,-3.7168693380355835,-10.90445198059082,0.3546447647809982,158000.0,0.666293013215065,10.865792152404785,10.865851257324218,10.86617960357666,316.0,1000.0,93.43489747926274,31.834886401145766,316000,158000.0,9134.732872009277
6.502068061828613,-3.7094632682800293,-10.95148932647705,0.35546547996997835,158500.0,0.6765219091176987,10.902618320465088,10.902640995025635,10.903070293426513,317.0,1000.0,76.3780543833741,31.861721218933504,317000,158500.0,9166.118495941162
6.494512479782104,-3.7026933002471925,-10.983177169799804,0.35427971053123475,159000.0,0.6176770540475846,10.937388904571533,10.93739073562622,10.93829787826538,318.0,1000.0,81.41926582320548,31.72769210568601,318000,159000.0,9197.636704921722
6.486947317123413,-3.6970061197280883,-10.971463188171386,0.35731044721603394,159500.0,0.6690232112407685,10.929105014801026,10.92953076171875,10.929775650024414,319.0,1000.0,98.73333844499427,31.3603087508913,319000,159500.0,9229.524146795273
6.479372674942017,-3.6888775758743284,-10.938075866699219,0.35748428869247434,160000.0,0.6452276648283005,10.890177024841309,10.890060546875,10.890875846862793,320.0,1000.0,57.22783947952867,31.17631260174818,320000,160000.0,9261.599781036377
6.471788391113281,-3.682143298149109,-10.986918018341065,0.35473230624198915,160500.0,0.6548981055021286,10.939668064117432,10.939523635864258,10.9397067527771,321.0,1000.0,41.119799516660635,19.658278948589086,321000,160500.0,9312.468935012817
6.464194538116455,-3.67510492515564,-10.970367115020752,0.3583546966314316,161000.0,0.6451010354757309,10.926490859985352,10.926672180175782,10.926667087554932,322.0,1000.0,61.97846078252523,31.45717980888231,322000,161000.0,9344.258181095123
6.456591062545776,-3.668271685600281,-10.984899482727052,0.35777799582481384,161500.0,0.6466699215173721,10.939131000518799,10.939182506561279,10.940337718963622,323.0,1000.0,79.3090786103792,31.207314404787954,323000,161500.0,9376.301951885223
6.4489779396057125,-3.6608346099853515,-10.919011653900146,0.35401518511772156,162000.0,0.6095130482912063,10.87460062789917,10.874520290374756,10.875361206054688,324.0,1000.0,39.816550911576016,31.41115679969004,324000,162000.0,9408.137774944305
6.441355136871338,-3.6537208766937255,-10.986431049346924,0.3561614593267441,162500.0,0.6783096430301666,10.936693988800048,10.936608238220215,10.937047290802003,325.0,1000.0,94.09713458287254,31.311148521513957,325000,162500.0,9440.075281143188
6.433722688674926,-3.64586510848999,-10.999347694396972,0.35542082905769345,163000.0,0.6290141954421997,10.955512218475342,10.955661464691163,10.956080474853515,326.0,1000.0,58.125398263066565,31.2269058441527,326000,163000.0,9472.098947048187
6.426080497741699,-3.638298336982727,-10.99979541015625,0.35627238607406614,163500.0,0.605988902926445,10.956314342498779,10.955952640533447,10.956727634429932,327.0,1000.0,56.459463031728625,31.024843017831824,327000,163500.0,9504.331182003021
6.418428516387939,-3.631073271751404,-10.976316818237304,0.3540225396156311,164000.0,0.6172645196914673,10.926248741149902,10.92630648803711,10.926596462249757,328.0,1000.0,68.86659352751876,30.937909990720332,328000,164000.0,9536.653985977173
6.410766801834106,-3.624713466644287,-11.046602264404298,0.3546220214366913,164500.0,0.6170752094984054,10.998293403625489,10.99828801727295,10.998587623596192,329.0,1000.0,57.89160355627845,30.777315988434616,329000,164500.0,9569.145448207855
6.403095296859741,-3.6173104133605958,-11.031329399108886,0.3573163310289383,165000.0,0.6232744671106338,10.993474086761475,10.993554599761962,10.99466349029541,330.0,1000.0,191.77772341649893,31.019099776337736,330000,165000.0,9601.383651018143
6.395413902282715,-3.61012464427948,-11.113790393829346,0.35840610098838804,165500.0,0.6561866192817688,11.064857357025147,11.064836582183839,11.06512950515747,331.0,1000.0,129.41907615632593,19.431096777142358,331000,165500.0,9652.847549915314
6.387722724914551,-3.603473738670349,-11.255567935943603,0.36092439663410186,166000.0,0.736774013876915,11.213264972686767,11.21337487411499,11.21367664718628,332.0,1000.0,95.58006198043898,30.579608762337465,332000,166000.0,9685.549080133438
6.380021667480468,-3.595064384460449,-11.238036991119385,0.36028644847869873,166500.0,0.6935687350034714,11.194527561187744,11.194592418670654,11.196005615234375,333.0,1000.0,80.26644201004878,30.680861527542774,333000,166500.0,9718.142689943314
6.372310710906983,-3.5887862606048584,-11.307989200592042,0.3627534565925598,167000.0,0.6393396934270859,11.260758571624756,11.260531929016114,11.261030414581299,334.0,1000.0,63.35095882108659,31.018708190917568,334000,167000.0,9750.381299972534
6.364589817047119,-3.581476343154907,-11.251143966674805,0.35846270227432253,167500.0,0.6124540579319,11.207219482421875,11.207435512542725,11.207413600921631,335.0,1000.0,86.91737565257598,30.920620018327803,335000,167500.0,9782.722178936005
6.356858985900879,-3.573408666610718,-11.244498207092285,0.36383970141410826,168000.0,0.6132517495155334,11.199723129272462,11.19983567428589,11.200766342163085,336.0,1000.0,55.12885578390435,31.042511688575438,336000,168000.0,9814.93606710434
6.349118171691894,-3.5665837602615356,-11.256564125061034,0.36139610290527346,168500.0,0.6075346256494523,11.207963474273681,11.207863033294677,11.20886157989502,337.0,1000.0,82.17899241492226,30.788961561101264,337000,168500.0,9847.415241003036
6.341367385864258,-3.5592532329559328,-11.243592555999756,0.3605179864168167,169000.0,0.6283600805997849,11.19898020553589,11.198999954223632,11.199011730194092,338.0,1000.0,77.93099128108626,30.721344283822262,338000,169000.0,9879.96590089798
6.3336065559387205,-3.552434260368347,-11.323011096954346,0.3632053837776184,169500.0,0.6693425043821335,11.276156658172608,11.276216884613037,11.276731529235839,339.0,1000.0,89.90432716272937,30.705198609985484,339000,169500.0,9912.533675909042
6.325835655212402,-3.545297706604004,-11.233268711090087,0.36121941804885865,170000.0,0.6329924511909485,11.19045565032959,11.190262435913086,11.191311840057374,340.0,1000.0,97.19801663802313,30.704056753616317,340000,170000.0,9945.102663040161
6.318054714202881,-3.537902981758118,-11.3433542137146,0.3631434879302978,170500.0,0.6414938353300095,11.295583427429198,11.295710231781007,11.295447734832763,341.0,1000.0,77.92041439216112,19.64250763853885,341000,170500.0,9996.012658834457
6.310263656616211,-3.5305568237304685,-11.30957954788208,0.36300045490264893,171000.0,0.6093027912378312,11.26548893737793,11.265555614471436,11.266372505187988,342.0,1000.0,91.02615370857367,30.40615113755818,342000,171000.0,10028.900742053986
6.302462450027466,-3.522646593093872,-11.318383399963379,0.36342164075374606,171500.0,0.593794266462326,11.269965591430664,11.269967273712158,11.270279243469238,343.0,1000.0,101.6602515485089,30.408319623635798,343000,171500.0,10061.78648018837
6.294651062011718,-3.5158391609191892,-11.408124298095704,0.3661597450971603,172000.0,0.588004842042923,11.36206861114502,11.36210916519165,11.362740264892578,344.0,1000.0,72.87514294631055,30.717845176158576,344000,172000.0,10094.34084701538
6.286829549789429,-3.507321178436279,-11.345663745880127,0.3652170046567917,172500.0,0.6026493240594863,11.30110556793213,11.300848934173583,11.301827663421632,345.0,1000.0,89.07405012013861,30.59666823660794,345000,172500.0,10127.024145126343
6.2789977893829345,-3.501080382347107,-11.358868362426758,0.36253619825839994,173000.0,0.5848336869478226,11.312680809020996,11.313018913269042,11.313184371948243,346.0,1000.0,95.66929905312831,30.68995441474533,346000,173000.0,10159.60809803009
6.271155799865722,-3.4935816679000853,-11.385954875946044,0.3650479826927185,173500.0,0.5839068266153336,11.344235176086427,11.344213474273682,11.345179962158204,347.0,1000.0,83.23645419551133,30.806631994701995,347000,173500.0,10192.068641901016
6.263303604125976,-3.4863353309631346,-11.383017051696777,0.36701733887195587,174000.0,0.5701547038555145,11.34691886138916,11.346957061767577,11.34698876953125,348.0,1000.0,87.60604436986536,30.684283299466138,348000,174000.0,10224.658617019653
6.255440975189209,-3.479710355758667,-11.417392280578614,0.366855171084404,174500.0,0.5786655666828155,11.370993434906007,11.370926010131836,11.371702037811279,349.0,1000.0,109.75721697259844,30.820603310070705,349000,174500.0,10257.104445934296
6.24756823348999,-3.471190450668335,-11.3779168510437,0.36605962955951693,175000.0,0.6244014610052109,11.332800491333007,11.332719528198242,11.3332509765625,350.0,1000.0,41.93171272685668,30.652235659816533,350000,175000.0,10289.72849392891
6.239685060501099,-3.463652632713318,-11.388546329498292,0.3701992577314377,175500.0,0.6269683172702789,11.342208232879639,11.34242481994629,11.342489372253418,351.0,1000.0,83.86271846301841,19.267814911515092,351000,175500.0,10341.628515958786
6.231791473388672,-3.4570394773483275,-11.40586033630371,0.36817374229431155,176000.0,0.5918783940076828,11.365168087005616,11.364876029968261,11.364998180389405,352.0,1000.0,62.10744899992454,30.066789959288833,352000,176000.0,10374.887804031372
6.223887495040893,-3.4491939277648926,-11.404670761108399,0.36755937564373015,176500.0,0.5755045194625854,11.361774425506592,11.361879444122314,11.362790634155273,353.0,1000.0,132.07087897033,30.906775393449404,353000,176500.0,10407.24316906929
6.215973119735718,-3.441898965835571,-11.461075202941895,0.37169489085674284,177000.0,0.5726667062044144,11.41245602798462,11.412496379852294,11.413410808563233,354.0,1000.0,38.5745602675645,28.129306589680308,354000,177000.0,10442.793282985687
6.20804825592041,-3.4347748641967772,-11.43363399887085,0.36916071355342867,177500.0,0.5335427939891815,11.384336128234864,11.38450510406494,11.384441196441651,355.0,1000.0,81.79038497543317,26.074589841895808,355000,177500.0,10481.144797086716
6.200112966537476,-3.4277949142456055,-11.455325717926025,0.36775428915023806,178000.0,0.5705380952358245,11.407123081207276,11.4068590965271,11.407763179779053,356.0,1000.0,93.28909106212738,30.637229515295722,356000,178000.0,10513.784825086594
6.192167108535767,-3.4190222043991088,-11.440349807739258,0.36861381816864014,178500.0,0.5753874936103821,11.393639785766602,11.393753875732422,11.394873714447021,357.0,1000.0,87.3023215425125,29.038276168053386,357000,178500.0,10548.222130060196
6.184210748672485,-3.4122193851470946,-11.466622261047362,0.3676392468214035,179000.0,0.5516297253370285,11.416536624908447,11.416536808013916,11.416541473388673,358.0,1000.0,82.72746590403898,30.00601800976038,358000,179000.0,10581.548779010773
6.176243804931641,-3.4044874000549314,-11.517525100708008,0.37016754484176634,179500.0,0.5536379910707474,11.4735119972229,11.47337827682495,11.473329639434814,359.0,1000.0,105.48261215808873,29.556202517471796,359000,179500.0,10615.382626056671
6.168266273498535,-3.3976561794281004,-11.508094676971435,0.3694118798971176,180000.0,0.5616905978918075,11.460857707977295,11.460907638549804,11.461934188842774,360.0,1000.0,77.7031565620576,29.465248367401784,360000,180000.0,10649.320912122726
6.1602781276702885,-3.389039032936096,-11.555636074066163,0.3720768699645996,180500.0,0.5835349496603012,11.509919612884522,11.510005851745605,11.51001229095459,361.0,1000.0,55.174680697299415,18.40882918961706,361000,180500.0,10703.64267206192
6.152279331207275,-3.382615681648254,-11.524432628631592,0.37360649812221525,181000.0,0.5794195492267609,11.483440357208252,11.483300853729249,11.484206691741944,362.0,1000.0,94.72984268821712,29.010440989061497,362000,181000.0,10738.11302113533
6.14426985168457,-3.375780957221985,-11.530645149230956,0.37200772476196287,181500.0,0.5720671930909157,11.490538440704345,11.490593082427978,11.490442504882813,363.0,1000.0,70.05156367734897,29.928870424940392,363000,181500.0,10771.52557516098
6.136249685287476,-3.3675563917160036,-11.529688808441161,0.3727349910736084,182000.0,0.5733127378225327,11.483955162048339,11.483894496917724,11.484765308380126,364.0,1000.0,43.66449929827693,30.045449008151554,364000,182000.0,10804.808487176895
6.128218765258789,-3.359973232269287,-11.497454601287842,0.3717274172306061,182500.0,0.5978759239912033,11.45819495010376,11.458052940368653,11.45842681503296,365.0,1000.0,85.28207958873051,30.03412134439396,365000,182500.0,10838.103952169418
6.120177068710327,-3.3521697616577146,-11.554896884918213,0.3733700326681137,183000.0,0.6049177160263062,11.513828441619873,11.513971900939941,11.514750278472901,366.0,1000.0,94.28364095463814,30.3222887594234,366000,183000.0,10871.082994222641
6.11212459564209,-3.345478934288025,-11.594543029785155,0.3753094999790192,183500.0,0.5668870697021484,11.548240272521973,11.548182567596436,11.548380699157715,367.0,1000.0,60.014144502695466,30.046279593520925,367000,183500.0,10904.36498618126
6.104061304092407,-3.338312984466553,-11.51913130569458,0.37233419942855833,184000.0,0.5420153865814209,11.477708103179932,11.477788513183594,11.47826037979126,368.0,1000.0,98.89271960137842,29.381228334797232,368000,184000.0,10938.400322914124
6.095987163543701,-3.3297916345596312,-11.596135410308838,0.3714529445171356,184500.0,0.5589483493566513,11.547519737243652,11.547528560638428,11.548035503387451,369.0,1000.0,98.90228895206606,29.626777410701095,369000,184500.0,10972.15357208252
6.087902156829834,-3.3223349390029906,-11.6550436668396,0.37750273549556734,185000.0,0.5944442341327667,11.609459781646729,11.609487812042236,11.609886749267577,370.0,1000.0,80.54061003556981,29.5327273291717,370000,185000.0,11006.014312028885
6.079806234359741,-3.315394564628601,-11.645170188903808,0.3744127824306488,185500.0,0.5762609318494797,11.600278461456298,11.600295394897461,11.600804824829101,371.0,1000.0,38.47972709658797,18.81320573198894,371000,185500.0,11059.168464183807
6.071699346542358,-3.307584137916565,-11.583486473083497,0.37246558916568756,186000.0,0.5711935366392136,11.540713367462159,11.540704776763915,11.54097929763794,372.0,1000.0,92.72903530098041,28.763514717513107,372000,186000.0,11093.934731006622
6.063581533432007,-3.301157932281494,-11.648198432922364,0.37554907190799713,186500.0,0.5775627063512803,11.609207424163818,11.609046928405762,11.610283493041992,373.0,1000.0,82.1843095448161,29.205714234624402,373000,186500.0,11128.174606084824
6.0554526424407955,-3.292004653930664,-11.623697929382324,0.3736166501045227,187000.0,0.5995385344028473,11.58191879272461,11.581933307647706,11.581784416198731,374.0,1000.0,105.75221424315777,29.632461253295993,374000,187000.0,11161.921382188797
6.047312784194946,-3.285325671195984,-11.618298892974854,0.3737338035106659,187500.0,0.5512704619169235,11.584466049194337,11.584358352661132,11.58492195892334,375.0,1000.0,37.57011892284512,29.84949968206965,375000,187500.0,11195.422780036926
6.039161817550659,-3.2778672065734864,-11.59038442993164,0.37218233382701876,188000.0,0.562397952079773,11.554038749694824,11.553897968292237,11.554896881103515,376.0,1000.0,86.78747487834693,29.676005935903056,376000,188000.0,11229.120038032532
6.030999870300293,-3.2697475023269655,-11.579875259399413,0.37333338749408723,188500.0,0.5489287579059601,11.540573844909668,11.540704814910889,11.540762439727784,377.0,1000.0,88.9538445366932,29.331831201126466,377000,188500.0,11263.212693929672
6.022826711654663,-3.261734125137329,-11.635169147491455,0.3746014678478241,189000.0,0.561160784959793,11.589508548736573,11.589276107788086,11.589838607788085,378.0,1000.0,52.47609913142788,29.4864234527996,378000,189000.0,11297.126608133316
6.01464243888855,-3.2539124584197996,-11.590156723022462,0.37415274858474734,189500.0,0.5832166202068328,11.555241481781007,11.555365829467773,11.55578999710083,379.0,1000.0,111.22343358461842,29.46115726108136,379000,189500.0,11331.069607019424
6.006446983337402,-3.2465760250091553,-11.610467063903808,0.374739527463913,190000.0,0.5823487006425857,11.574005306243896,11.574050853729249,11.573915142059326,380.0,1000.0,70.54826264764084,29.11209493081194,380000,190000.0,11365.419591903687
5.998240343093872,-3.2393815412521363,-11.610034194946289,0.37385076892375946,190500.0,0.5654970779418945,11.569600147247314,11.569582565307616,11.570305728912354,381.0,1000.0,83.69113251835202,18.577555619978277,381000,190500.0,11419.247987985611
5.990022445678711,-3.232191824913025,-11.615108909606933,0.3755884358882904,191000.0,0.5726966025829315,11.574894634246826,11.574858837127685,11.57531756210327,382.0,1000.0,94.54468801840548,28.73841270367225,382000,191000.0,11454.044621944427
5.981793237686158,-3.223197187423706,-11.61452155303955,0.3767101734876633,191500.0,0.5233436074256897,11.575590854644775,11.575563903808593,11.576126834869385,383.0,1000.0,99.34840752033173,28.68341022697492,383000,191500.0,11488.90797996521
5.973552770614624,-3.216405598640442,-11.674358196258545,0.37560287964344025,192000.0,0.5161109060049057,11.632936107635498,11.632843711853027,11.634456558227539,384.0,1000.0,109.59170013006266,28.689223115621626,384000,192000.0,11523.764274835587
5.96530096244812,-3.208706395149231,-11.676092063903809,0.3762707343101501,192500.0,0.5427538571357727,11.633214241027831,11.633032241821288,11.63286918258667,385.0,1000.0,58.33979974560449,29.041659456689047,385000,192500.0,11558.197570085526
5.957037803649903,-3.2003872117996215,-11.63794150543213,0.37490055632591246,193000.0,0.5065566761493683,11.598920860290526,11.599216335296632,11.599268714904785,386.0,1000.0,77.37530097216076,29.026442168784374,386000,193000.0,11592.648916959763
5.948763219833374,-3.192135220527649,-11.664181690216065,0.3758773373365402,193500.0,0.5460102663040162,11.625067371368408,11.624996387481689,11.625537231445312,387.0,1000.0,80.2932394743061,29.073044737019025,387000,193500.0,11627.045040130615
5.9404772167205815,-3.184876254081726,-11.696598781585694,0.3781287443637848,194000.0,0.5341735389232636,11.657175773620606,11.657034275054931,11.657449039459229,388.0,1000.0,97.59564242740989,29.079480335906744,388000,194000.0,11661.433551073074
5.932179752349853,-3.1769145612716674,-11.68547685623169,0.37991634690761567,194500.0,0.5707062674760819,11.652813701629638,11.652742050170898,11.653045280456542,389.0,1000.0,139.21074469070322,29.121928823429858,389000,194500.0,11695.771936893463
5.9238708152771,-3.170087606430054,-11.653925174713136,0.3787756099700928,195000.0,0.5326346356272698,11.624878940582276,11.62490159225464,11.625897022247315,390.0,1000.0,88.88473648152564,29.051221050199775,390000,195000.0,11730.193898916245
5.915550321578979,-3.1617538061141968,-11.66544255065918,0.37827022206783295,195500.0,0.5490174926519394,11.626460250854493,11.626346786499024,11.626415256500245,391.0,1000.0,50.38796704499062,18.63965481967961,391000,195500.0,11783.842962026596
5.907218322753907,-3.1542817401885985,-11.670639778137208,0.37943788528442385,196000.0,0.535519926905632,11.632428871154785,11.632469612121582,11.632855480194092,392.0,1000.0,95.94307057946382,28.095247023286866,392000,196000.0,11819.436172008514
5.898874666213989,-3.147090725898743,-11.64365922164917,0.3794370661973953,196500.0,0.5433948335647583,11.60312075805664,11.603308471679687,11.60288984298706,393.0,1000.0,45.04886655356558,27.68807768803907,393000,196500.0,11855.552800893784
5.8905194606781,-3.138609136581421,-11.71478689956665,0.3811889592409134,197000.0,0.5447225735187531,11.676209182739258,11.676014316558838,11.678188732147216,394.0,1000.0,62.932982888601494,28.372151411454166,394000,197000.0,11890.798631191254
5.882152572631836,-3.131441029548645,-11.724432872772217,0.3798046276569366,197500.0,0.5214319648742676,11.684041961669921,11.684075569152832,11.68389601135254,395.0,1000.0,89.25858473879339,28.263801536778978,395000,197500.0,11926.179577112198
5.873774013519287,-3.1237188663482667,-11.680727184295653,0.37960667991638186,198000.0,0.5296265361309052,11.64556655883789,11.64564924621582,11.64599490737915,396.0,1000.0,62.44503050495098,28.383006829928995,396000,198000.0,11961.411926984787
5.865383726119995,-3.115674675941467,-11.646410121917725,0.38018040323257446,198500.0,0.5113891804218292,11.611847175598145,11.61174068069458,11.61267193222046,397.0,1000.0,42.835234922002826,28.50835992601006,397000,198500.0,11996.489356994629
5.856981716156006,-3.1084741411209107,-11.648817909240723,0.37904278707504274,199000.0,0.5077721359729767,11.612393566131592,11.612144687652588,11.612524871826173,398.0,1000.0,98.27403951774829,28.353214837653173,398000,199000.0,12031.75872707367
5.848567892074585,-3.1006421670913697,-11.698248611450195,0.38015139639377593,199500.0,0.5546121405363083,11.65746293258667,11.657554286956787,11.657854866027831,399.0,1000.0,82.4543631047803,28.473035461029788,399000,199500.0,12066.879676103592
5.840142234802246,-3.092575092315674,-11.726051139831544,0.37910234594345094,200000.0,0.5287127380371094,11.68153053665161,11.681599166870118,11.682519760131836,400.0,1000.0,98.43814955747541,28.36031994532278,400000,200000.0,12102.140210151672
5.831704736709595,-3.0864865074157715,-11.81778205871582,0.38419349837303163,200500.0,0.5443527075052261,11.774492919921874,11.774336772918701,11.775162742614746,401.0,1000.0,104.33488224437683,17.842814504489755,401000,200500.0,12158.185178995132
5.823255380630493,-3.077727156639099,-11.809770118713379,0.3824704836606979,201000.0,0.520218887925148,11.764735340118408,11.764946643829346,11.765049091339112,402.0,1000.0,89.27849672477267,26.286510305103786,402000,201000.0,12196.227505207062
5.814794101715088,-3.07027920627594,-11.87906867980957,0.38044350123405457,201500.0,0.5318213111162186,11.837452701568603,11.837363075256347,11.837931137084961,403.0,1000.0,55.908688311031085,26.497357162320792,403000,201500.0,12233.9671189785
5.806320890426636,-3.0615763607025146,-11.8533943939209,0.381273530125618,202000.0,0.5012017055749893,11.816921417236328,11.816994644165039,11.81763842010498,404.0,1000.0,53.89305940618189,27.76195587482153,404000,202000.0,12269.987635850906
5.797835687637329,-3.055129469871521,-11.875606952667237,0.3832110381126404,202500.0,0.5369770189523697,11.836900829315185,11.836848007202148,11.837279983520508,405.0,1000.0,97.98922156320849,27.85808869490774,405000,202500.0,12305.883854150772
5.789338439941406,-3.0463635454177855,-11.815109992980958,0.3810642592906952,203000.0,0.5317401276826859,11.779077014923097,11.778856769561768,11.779697914123535,406.0,1000.0,76.27169105494951,27.293781727209613,406000,203000.0,12342.522237062454
5.780829198837281,-3.0394838495254515,-11.88418542098999,0.3853267641067505,203500.0,0.5244910044074058,11.841480571746827,11.841747016906739,11.841609470367432,407.0,1000.0,74.9079962410218,27.44673058499356,407000,203500.0,12378.95644903183
5.77230781173706,-3.032373490333557,-11.900529731750488,0.3863863844871521,204000.0,0.5507829792499542,11.854134300231934,11.853908130645753,11.854837577819824,408.0,1000.0,145.61972963034188,27.157360414308148,408000,204000.0,12415.778879880905
5.763774351119995,-3.026168338775635,-11.997063732147216,0.3841753655672073,204500.0,0.6542817749977112,11.930123363494873,11.930050163269042,11.930797409057616,409.0,1000.0,94.81964471510236,27.167007554218944,409000,204500.0,12452.588234901428
5.755228713989258,-3.0175300283432005,-12.06806622314453,0.38572666895389557,205000.0,0.5641182146072388,12.00096229171753,12.001019451141357,12.001654277801514,410.0,1000.0,87.23000792732779,27.318356468851746,410000,205000.0,12489.193660020828
5.746670864105225,-3.0104291439056396,-12.123797283172607,0.3828318450450897,205500.0,0.5635334666967392,12.04959886932373,12.049582885742188,12.050328842163086,411.0,1000.0,92.39758522987484,17.375986230135425,411000,205500.0,12546.744349956512
5.7381008491516114,-3.0016343631744387,-12.191601737976073,0.3842197325229645,206000.0,0.5560724046230316,12.118250175476074,12.118264472961426,12.118812595367432,412.0,1000.0,66.80678186481816,26.148548965142066,412000,206000.0,12584.987390995026
5.729518539428711,-2.9942316417694093,-12.266019832611084,0.3829088234901428,206500.0,0.5389948976039887,12.190841346740722,12.19088081741333,12.191570335388183,413.0,1000.0,169.76603858370223,26.568224656583713,413000,206500.0,12622.62633895874
5.720923936843872,-2.986122862815857,-12.42681272125244,0.386543025970459,207000.0,0.5566567658185959,12.346496212005615,12.346480922698975,12.347410236358643,414.0,1000.0,93.43612857475465,26.492248048305825,414000,207000.0,12660.373231172562
5.712317022323608,-2.9775053195953367,-12.562392028808594,0.3880666726827621,207500.0,0.5534917047023773,12.48555888748169,12.485491672515868,12.487136783599853,415.0,1000.0,86.00413282461217,27.07011981751673,415000,207500.0,12697.314332008362
