GoerkemBasar/daydreamer-perception-experiments-evals/drqv2/exp_local/2025.12.09/221549_+task.discount=0.99,+task=walker_walk,device=mps,replay_buffer_num_workers=0,seed=1,task_name=custom_walker_top/train.csv
actor_ent,actor_logprob,actor_loss,batch_reward,buffer_size,critic_loss,critic_q1,critic_q2,critic_target_q,episode,episode_length,episode_reward,fps,frame,step,total_time
8.489292400360107,-5.621365264892578,-0.5352482683360577,0.23707379812002183,2500.0,0.023213506892323495,0.5118486118316651,0.5124798002541066,0.5138324308693409,5.0,1000.0,41.13491935940828,18.737457362027893,5000,2500.0,53.36903500556946
8.483867996215821,-5.60400701713562,-1.1383303139209748,0.23950128561258316,3000.0,0.025845905512571335,1.1084051787853242,1.1084600656032562,1.1091762042045594,6.0,1000.0,56.162796508395694,43.486426774533115,6000,3000.0,76.36471509933472
8.47843869781494,-5.596668029785156,-1.8060811433792114,0.2539392955303192,3500.0,0.038058746472001075,1.7476504697799682,1.747713951587677,1.7484186153411865,7.0,1000.0,42.58529726862182,44.018513806339165,7000,3500.0,99.08242988586426
8.473004386901856,-5.587630386352539,-2.4020247740745546,0.25434065860509875,4000.0,0.05173024091124535,2.3349156584739683,2.334906503677368,2.335600195884705,8.0,1000.0,50.08162862097292,44.227032304429905,8000,4000.0,121.69303607940674
8.46756530380249,-5.583114181518555,-2.983265820503235,0.25960854440927505,4500.0,0.08019053091108799,2.9374768981933594,2.9374529695510865,2.938123169898987,9.0,1000.0,56.8370481785391,44.162559718188746,9000,4500.0,144.33665204048157
8.462121242523194,-5.577747873306274,-3.2872894439697267,0.2675654614567757,5000.0,0.08944458715617656,3.233094458580017,3.2331311559677123,3.234827096939087,10.0,1000.0,43.8879570707866,44.111798329333624,10000,5000.0,167.00632500648499
8.456672195434571,-5.572367635726929,-3.6743153810501097,0.2667325391173363,5500.0,0.11782503385841847,3.6163534488677977,3.616311490058899,3.617011700630188,11.0,1000.0,31.90713600516546,22.36009950855861,11000,5500.0,211.72884511947632
8.451218208312989,-5.567790706634521,-4.011910500526429,0.25888177156448366,6000.0,0.14390198189020156,3.951298265457153,3.9513483467102053,3.95232381439209,12.0,1000.0,39.5772017727772,44.13799745476702,12000,6000.0,234.3850622177124
8.445759258270265,-5.562724893569946,-4.408241898536682,0.25693670570850374,6500.0,0.15179146456718445,4.357893611907959,4.35791069316864,4.358664324760437,13.0,1000.0,44.4352045988465,44.19207641029569,13000,6500.0,257.0135531425476
8.440295337677002,-5.557229080200195,-4.684768392562866,0.2581542736291885,7000.0,0.16953290367126464,4.639402214050293,4.639346113204956,4.639721496582031,14.0,1000.0,43.814331060312185,44.03458641916613,14000,7000.0,279.7229759693146
8.43482646560669,-5.551889198303223,-4.760248659133911,0.2580401892066002,7500.0,0.21025694012641907,4.718839912414551,4.718836948394776,4.719443948745727,15.0,1000.0,30.323882862060426,43.713257313769276,15000,7500.0,302.5993320941925
8.429352561950683,-5.5462252807617185,-4.844523729324341,0.2527343202233315,8000.0,0.2724221026301384,4.813408378601074,4.813289329528809,4.813626747131348,16.0,1000.0,61.86692056887058,43.17998507938004,16000,8000.0,325.75820899009705
8.423873683929443,-5.5406331539154055,-4.985360319137573,0.25953125816583633,8500.0,0.3029962525963783,4.9564938087463375,4.956429189682007,4.957550374984741,17.0,1000.0,69.71219663193938,42.191876294578826,17000,8500.0,349.45945405960083
8.418389785766601,-5.5357405471801755,-5.146554244995118,0.26974700623750686,9000.0,0.37378752607107163,5.101334478378296,5.101211006164551,5.101200885772705,18.0,1000.0,56.003661752582794,41.36768663137853,18000,9000.0,373.63291120529175
8.41290087890625,-5.530374294281006,-5.353869024276733,0.2717988813519478,9500.0,0.3677287355661392,5.3060725440979,5.306059051513672,5.30727970123291,19.0,1000.0,61.99999702502953,40.82065566223891,19000,9500.0,398.130313873291
8.407406940460206,-5.525208017349243,-5.476586435317993,0.27896529734134673,10000.0,0.4249458338022232,5.433129989624024,5.433036563873291,5.432652269363404,20.0,1000.0,53.79021997653186,40.79026549114932,20000,10000.0,422.64596819877625
8.401907955169678,-5.519378662109375,-5.617687837600708,0.2801504614949226,10500.0,0.4706574565172195,5.572328172683716,5.572153200149536,5.573179101943969,21.0,1000.0,57.119039141476726,22.201673429622822,21000,10500.0,467.687618970871
8.396403942108154,-5.514408948898315,-5.798819801330566,0.28267621850967406,11000.0,0.5033084345459938,5.7619305610656735,5.761910675048828,5.762542970657349,22.0,1000.0,61.06902182513855,42.35918810088387,22000,11000.0,491.2952470779419
8.390894882202149,-5.509585891723633,-5.935502555847168,0.28638018482923505,11500.0,0.45902414417266846,5.909448804855347,5.909396802902221,5.909026275634766,23.0,1000.0,43.051371942288675,39.28290940321513,23000,11500.0,516.7516112327576
8.385380725860596,-5.5041841049194336,-5.931584774017334,0.2856021428108215,12000.0,0.5209191576242447,5.907938484191894,5.907966218948364,5.90967866897583,24.0,1000.0,71.49787190284007,39.86898408254453,24000,12000.0,541.8337640762329
8.379861515045166,-5.498405557632446,-6.102399213790894,0.29182254236936567,12500.0,0.49309519362449644,6.0735773258209225,6.073663440704346,6.0738836154937745,25.0,1000.0,55.99858296427777,40.38108275883356,25000,12500.0,566.5978360176086
8.374337253570557,-5.493293115615844,-6.224958963394165,0.2915154262185097,13000.0,0.4289109154343605,6.195969997406006,6.195828907012939,6.196310667037964,26.0,1000.0,26.937786625787716,39.99611434538997,26000,13000.0,591.6002650260925
8.36880785369873,-5.488247434616089,-6.365123184204101,0.2842281755208969,13500.0,0.39399634701013564,6.342470621109009,6.342483318328857,6.343120714187622,27.0,1000.0,56.65964915552111,39.84296776944179,27000,13500.0,616.6987969875336
8.36327338027954,-5.483076042175293,-6.46057808303833,0.2883977770805359,14000.0,0.41818161064386367,6.440757863998413,6.440825649261475,6.441812517166138,28.0,1000.0,25.76579124318939,40.11660748397492,28000,14000.0,641.6261291503906
8.357733833312988,-5.476995077133179,-6.612464469909668,0.2847473818063736,14500.0,0.40052851229906083,6.5882403163909915,6.588098274230957,6.588335922241211,29.0,1000.0,31.480529992704742,39.655060019312714,29000,14500.0,666.843591928482
8.352189083099365,-5.47221509552002,-6.676268608093261,0.2830746009945869,15000.0,0.43675708281993864,6.655940803527832,6.6558689060211185,6.656647966384888,30.0,1000.0,56.31680889265332,39.532304340751836,30000,15000.0,692.1393599510193
8.34663924407959,-5.4666744899749755,-6.78489273071289,0.28075362688302996,15500.0,0.35202185249328616,6.768619968414306,6.768582529067993,6.768410102844238,31.0,1000.0,55.90879670971737,22.196832076947334,31000,15500.0,737.1908349990845
8.34108427810669,-5.46097229385376,-6.880473329544067,0.28694060385227205,16000.0,0.37211483788490296,6.857575433731079,6.857751661300659,6.8584144439697265,32.0,1000.0,25.565434051748884,39.27475552628047,32000,16000.0,762.6524829864502
8.335524162292481,-5.455938020706177,-6.849761743545532,0.2812564896941185,16500.0,0.34677701687812806,6.831284603118896,6.83100394821167,6.831314447402954,33.0,1000.0,47.330426938876386,38.660126444660804,33000,16500.0,788.5189270973206
8.329958877563477,-5.45109815788269,-6.882282167434693,0.27830453848838804,17000.0,0.3400501727461815,6.8674878616333,6.8675355625152585,6.867973463058472,34.0,1000.0,64.20098858040124,39.189271424179076,34000,17000.0,814.0361158847809
8.324388431549073,-5.445232982635498,-6.952824085235596,0.28127025985717774,17500.0,0.3338704606294632,6.937260540008545,6.937345798492432,6.936976333618164,35.0,1000.0,47.7986158728737,39.417012574280974,35000,17500.0,839.4058721065521
8.318812812805175,-5.440481098175049,-7.011335124969483,0.28159321993589403,18000.0,0.31737520176172257,6.992134607315063,6.991930587768555,6.991863731384277,36.0,1000.0,57.92419978081228,39.65477995688248,36000,18000.0,864.623514175415
8.313231998443603,-5.4347038726806645,-7.113835321426391,0.285869152367115,18500.0,0.3296352719068527,7.094028293609619,7.094187543869019,7.094925569534301,37.0,1000.0,42.43841427889899,39.672525806554745,37000,18500.0,889.8298738002777
8.307646007537842,-5.429799385070801,-7.1474301013946535,0.2805131959319115,19000.0,0.2934657042622566,7.131809938430786,7.1317527313232425,7.132149097442627,38.0,1000.0,36.18325521452172,39.78732833377377,38000,19000.0,914.9635050296783
8.302054794311523,-5.423896957397461,-7.180647665023804,0.2798940492272377,19500.0,0.2792705098986626,7.165447696685791,7.1653515815734865,7.165307794570923,39.0,1000.0,53.87083544701402,39.63384983628079,39000,19500.0,940.194463968277
8.296458366394043,-5.418818881988526,-7.2189665622711185,0.28206198412179945,20000.0,0.285533900141716,7.204114391326904,7.204174297332764,7.2040128364562985,40.0,1000.0,40.459135355578724,39.675108064503114,40000,20000.0,965.3991851806641
8.290856708526611,-5.413091323852539,-7.215100080490112,0.2827304549217224,20500.0,0.29040192419290545,7.207369186401367,7.2073835830688475,7.207908832550049,41.0,1000.0,31.69577977683711,21.780700465994276,41000,20500.0,1011.31139087677
8.285249820709229,-5.407556575775146,-7.182363485336304,0.27997864454984667,21000.0,0.29583152920007705,7.171368337631225,7.171226234436035,7.171534940719605,42.0,1000.0,26.15965836410137,40.83847761217572,42000,21000.0,1035.798103094101
8.27963768005371,-5.402281953811645,-7.12829285621643,0.2746469578742981,21500.0,0.3195860586166382,7.122103555679321,7.122151903152465,7.121925924301148,43.0,1000.0,62.4638966826431,39.97925880738143,43000,21500.0,1060.8110799789429
8.27402031326294,-5.398786207199096,-7.136706220626831,0.2773833507299423,22000.0,0.33096941649913786,7.121887323379517,7.121669811248779,7.121968984603882,44.0,1000.0,32.92332224843637,39.555088993159806,44000,22000.0,1086.0922780036926
8.268397632598877,-5.393020700454712,-7.167177597045899,0.27834809696674345,22500.0,0.36987996828556063,7.1488614234924315,7.149026527404785,7.149125057220459,45.0,1000.0,57.21088440382136,39.30546743937826,45000,22500.0,1111.5340321063995
8.262769744873047,-5.388942413330078,-7.240998250961304,0.27729684168100355,23000.0,0.3350231354236603,7.212868116378784,7.212734748840332,7.212951946258545,46.0,1000.0,73.45898387650415,38.72845185407427,46000,23000.0,1137.3548431396484
8.25713653564453,-5.383773916244507,-7.32692883682251,0.28136886060237887,23500.0,0.3181877919435501,7.283533388137817,7.283622718811035,7.283709453582763,47.0,1000.0,59.88275427149603,38.943512527481786,47000,23500.0,1163.0330610275269
8.251498027801514,-5.3780547046661376,-7.341836444854736,0.2833579139709473,24000.0,0.34945246052742,7.303503839492798,7.303347961425781,7.303821031570434,48.0,1000.0,42.36049467183745,39.02298623166193,48000,24000.0,1188.6589839458466
8.245854225158691,-5.372799642562867,-7.457115486145019,0.28184385734796524,24500.0,0.33527290225028994,7.416842393875122,7.416777345657349,7.417328336715698,49.0,1000.0,37.322714610247715,38.50748498108069,49000,24500.0,1214.6279611587524
8.240205123901367,-5.367816108703614,-7.514113182067871,0.2801063339710236,25000.0,0.34618981945514676,7.476508338928222,7.476454858779907,7.476730829238892,50.0,1000.0,30.39547385386475,37.114149549182926,50000,25000.0,1241.57186293602
8.234550682067871,-5.362257495880127,-7.523265520095825,0.2786033734083176,25500.0,0.3522751243710518,7.4884920463562015,7.488478462219239,7.488687547683716,51.0,1000.0,57.27527064890103,21.55396548084049,51000,25500.0,1287.9670388698578
8.228890892028808,-5.356811534881592,-7.482080900192261,0.2780605520606041,26000.0,0.36508863943815234,7.447585088729858,7.44759895324707,7.447672819137574,52.0,1000.0,35.41589376198178,37.66879126062604,52000,26000.0,1314.5142149925232
8.223225830078125,-5.351903945922851,-7.478432884216309,0.2806576846241951,26500.0,0.36468770378828047,7.4399420909881595,7.439797063827514,7.440755353927612,53.0,1000.0,87.60305488520656,37.44385458132351,53000,26500.0,1341.2208681106567
8.217555309295655,-5.346192634582519,-7.482332050323486,0.28254499024152757,27000.0,0.4004019815921783,7.439343515396118,7.439305944442749,7.440083185195923,54.0,1000.0,46.85041503383377,37.43845518100444,54000,27000.0,1367.9313731193542
8.211879497528075,-5.339913360595703,-7.542203014373779,0.2835461236834526,27500.0,0.44064951652288437,7.504420167922974,7.504328382492066,7.503816593170166,55.0,1000.0,70.11428444106281,37.955323867294425,55000,27500.0,1394.2781381607056
8.206198272705079,-5.335089073181153,-7.5655825939178465,0.2844011006355286,28000.0,0.4313055534362793,7.52648377609253,7.52640638923645,7.527576551437378,56.0,1000.0,52.29823777943747,38.065641410165355,56000,28000.0,1420.5485479831696
8.200511661529541,-5.330033555984497,-7.619869298934937,0.28356405436992643,28500.0,0.39897229957580566,7.585515928268433,7.5857085018157955,7.5852668018341065,57.0,1000.0,47.40512200549915,38.14542145243781,57000,28500.0,1446.764015197754
8.194819690704346,-5.324018686294556,-7.67465412902832,0.28455908650159834,29000.0,0.40922706240415574,7.63508437538147,7.634932569503784,7.635688180923462,58.0,1000.0,46.94914996276252,38.180923551446426,58000,29000.0,1472.9551060199738
8.18912230682373,-5.318630878448486,-7.704020929336548,0.28657461267709733,29500.0,0.41182775449752806,7.6642977924346924,7.6644023895263675,7.664728481292725,59.0,1000.0,50.852668950517554,37.84799346044182,59000,29500.0,1499.3765859603882
8.183419479370118,-5.31358597946167,-7.724542591094971,0.2860143620967865,30000.0,0.40455182218551633,7.689281747817994,7.689166194915772,7.68932488822937,60.0,1000.0,107.22748624235278,38.1343483184035,60000,30000.0,1525.5996642112732
8.177711238861084,-5.30803235244751,-7.747304594039917,0.29147893142700193,30500.0,0.4106395679712296,7.70744535446167,7.707420722961426,7.707961574554443,61.0,1000.0,46.74058549080128,21.62763953904538,61000,30500.0,1571.8367958068848
8.171997592926026,-5.303219158172608,-7.749333290100098,0.29207180452346804,31000.0,0.430355589389801,7.716404146194458,7.716206356048584,7.716094593048096,62.0,1000.0,59.89728809028008,37.27547144343724,62000,31000.0,1598.6640889644623
8.166278625488282,-5.298205987930298,-7.76337335395813,0.2910768818259239,31500.0,0.43785014939308164,7.72925385093689,7.72920263671875,7.729107177734375,63.0,1000.0,70.1024764620441,37.38315791186826,63000,31500.0,1625.4141039848328
8.160553871154786,-5.293296270370483,-7.88612677192688,0.29584826475381854,32000.0,0.432522946536541,7.840399715423584,7.840480220794678,7.84185899734497,64.0,1000.0,38.81591062969163,37.55614500879103,64000,32000.0,1652.0409059524536
8.154823833465576,-5.288308330535889,-8.029814743041992,0.29403359252214434,32500.0,0.4354329637885094,7.969918924331665,7.969951501846314,7.969788009643555,65.0,1000.0,36.66566684303973,37.450017582553535,65000,32500.0,1678.7431638240814
8.149088329315186,-5.2818074131011965,-8.175778617858887,0.29548324555158617,33000.0,0.4960191580057144,8.102010984420776,8.102014114379882,8.102265336990357,66.0,1000.0,55.95645098433552,38.076998566179,66000,33000.0,1705.0057389736176
8.14334730911255,-5.277023881912231,-8.23644122505188,0.29323442828655244,33500.0,0.48456654822826384,8.167009553909303,8.167076025009155,8.167393682479858,67.0,1000.0,104.934492027613,37.98875101831502,67000,33500.0,1731.3293209075928
8.13760078048706,-5.270836601257324,-8.387310140609742,0.29789973503351214,34000.0,0.499772944688797,8.30746544265747,8.3073759765625,8.30816169166565,68.0,1000.0,60.808242154385034,38.05967371485454,68000,34000.0,1757.6038489341736
8.131848789215088,-5.265100336074829,-8.567671636581421,0.29908289182186126,34500.0,0.5060800861120224,8.47144274711609,8.471351228713988,8.471697479248046,69.0,1000.0,46.25040906569402,37.840382682349095,69000,34500.0,1784.0306429862976
8.126091274261475,-5.2587905006408695,-8.686154962539673,0.29801360303163527,35000.0,0.5211145896911621,8.588669288635254,8.58867671585083,8.588509719848632,70.0,1000.0,57.5905608488712,37.96007427218168,70000,35000.0,1810.3741118907928
8.120328186035156,-5.254215324401856,-8.852433765411376,0.30013097161054614,35500.0,0.5482063183784485,8.759335105895996,8.759457466125488,8.760574672698974,71.0,1000.0,32.36198103026743,21.101857946812864,71000,35500.0,1857.7633049488068
8.114559577941895,-5.248983280181885,-8.93351235961914,0.29878919732570647,36000.0,0.5506939408779145,8.847021263122558,8.846950561523437,8.847457794189452,72.0,1000.0,51.56906945327299,36.267465293193766,72000,36000.0,1885.3362271785736
8.108785442352294,-5.243286769866943,-9.041408081054687,0.2986208738684654,36500.0,0.532999932050705,8.938383159637452,8.938216320037842,8.938428493499757,73.0,1000.0,99.7632269173433,36.95647900524105,73000,36500.0,1912.395082950592
8.103005725860596,-5.237271360397338,-9.2018759765625,0.30413934934139253,37000.0,0.5414943557977676,9.079416931152343,9.079298091888427,9.080402122497558,74.0,1000.0,41.011100137631836,34.16695447293297,74000,37000.0,1941.6631290912628
8.097220439910888,-5.232547327041626,-9.367320953369141,0.3014429317712784,37500.0,0.5324432781934738,9.250036952972412,9.249946853637695,9.250492488861084,75.0,1000.0,103.6247860878516,33.41873828770669,75000,37500.0,1971.5864608287811
8.091429500579833,-5.226112886428833,-9.51128335571289,0.30440598821640014,38000.0,0.6070330666303635,9.39068975830078,9.390881916046142,9.391344024658203,76.0,1000.0,117.73355368300905,34.28066682980815,76000,38000.0,2000.7574219703674
8.085633098602296,-5.2205335216522215,-9.655810905456542,0.31088457751274107,38500.0,0.6540118144750595,9.530100929260254,9.529757759094238,9.531133304595947,77.0,1000.0,69.22234495170389,35.75358404127516,77000,38500.0,2028.7266459465027
8.079831024169922,-5.214458501815796,-9.925205848693848,0.31197512555122375,39000.0,0.6870889689922333,9.787992626190185,9.788072853088378,9.788571475982666,78.0,1000.0,54.95886292255432,35.1620098348575,78000,39000.0,2057.166431903839
8.074023323059082,-5.208767057418823,-10.047980918884278,0.31104620707035063,39500.0,0.7461741489171981,9.914618236541749,9.914568046569824,9.915746223449707,79.0,1000.0,62.32825629237465,35.45332634010665,79000,39500.0,2085.372530937195
8.068209991455078,-5.202641744613647,-10.136517337799072,0.3086192263364792,40000.0,0.6453493900299072,10.003704597473144,10.00364427947998,10.00423871231079,80.0,1000.0,170.06259172928426,35.45297691963786,80000,40000.0,2113.5789070129395
8.0623910446167,-5.197812892913818,-10.349995601654053,0.321257279753685,40500.0,0.710414987206459,10.213100429534911,10.213194011688232,10.2140869140625,81.0,1000.0,69.58018956361059,19.937460993692223,81000,40500.0,2163.7357449531555
8.056566452026367,-5.192214046478272,-10.553558143615723,0.324098699092865,41000.0,0.7625727956295013,10.403180629730224,10.402936695098877,10.403116153717042,82.0,1000.0,50.72869890703048,33.0115205713019,82000,41000.0,2194.028200864792
8.050736179351807,-5.187009304046631,-10.67239075088501,0.32133885753154756,41500.0,0.7495464804172516,10.53291425704956,10.532842624664307,10.533926975250244,83.0,1000.0,56.28167219140864,32.77912748943493,83000,41500.0,2224.535420894623
8.044900241851806,-5.180985706329346,-10.856875213623047,0.31971166813373564,42000.0,0.7903083525896072,10.712251651763916,10.712219257354736,10.712670974731445,84.0,1000.0,112.04230840036826,33.40702683479415,84000,42000.0,2254.4692430496216
8.039058639526367,-5.175634943008423,-11.00980997467041,0.32533119976520536,42500.0,0.866832869887352,10.875364501953126,10.875394123077392,10.875686550140381,85.0,1000.0,92.3479279760167,35.560630787997326,85000,42500.0,2282.590229988098
8.033211318969727,-5.1709611644744875,-11.188430168151855,0.3284338545799255,43000.0,0.8769282155036926,11.05101509475708,11.050764804840087,11.05121168899536,86.0,1000.0,117.57452836971589,34.99920097625506,86000,43000.0,2311.1623120307922
8.02735831451416,-5.164819372177124,-11.375167629241943,0.33620682072639463,43500.0,1.0121838800907135,11.242962352752686,11.243011596679688,11.244355098724366,87.0,1000.0,83.24317655162102,34.044589384194005,87000,43500.0,2340.535555124283
8.021499557495117,-5.159484128952027,-11.468005126953125,0.334014764726162,44000.0,1.0932830233573914,11.327097023010253,11.327094192504882,11.326086868286133,88.0,1000.0,57.059334351623384,34.90504850534666,88000,44000.0,2369.1847059726715
8.01563512802124,-5.154271924972535,-11.65374819946289,0.3364743002653122,44500.0,1.0414227735996247,11.50934861755371,11.50941809463501,11.511267143249512,89.0,1000.0,99.80832961142205,33.84211570348758,89000,44500.0,2398.7336869239807
8.009764907836914,-5.149304285049438,-11.621118015289307,0.33790218806266786,45000.0,1.1074147248268127,11.484418251037598,11.484315010070802,11.485006614685059,90.0,1000.0,133.8948304652788,33.071414206377256,90000,45000.0,2428.97128200531
8.00388899230957,-5.143090976715088,-11.81253143310547,0.3415478693246841,45500.0,1.1668109333515166,11.65752251815796,11.657486030578614,11.658037120819092,91.0,1000.0,108.9261263515663,19.498362553777923,91000,45500.0,2480.257640838623
7.998007284164428,-5.138328559875489,-11.973466327667236,0.34274229216575625,46000.0,1.1927303478717803,11.812644180297852,11.81275177383423,11.812735534667969,92.0,1000.0,94.58628167688188,34.34180525093013,92000,46000.0,2509.3766689300537
7.992119821548462,-5.1351939468383785,-12.282606220245361,0.35092828679084775,46500.0,1.2398931760787963,12.11771669769287,12.117595443725586,12.118460746765138,93.0,1000.0,92.20265759125654,34.82629700348908,93000,46500.0,2538.0906040668488
7.986226564407349,-5.130654527664184,-12.446448547363282,0.34780184328556063,47000.0,1.2784757134914397,12.264158054351807,12.264057613372803,12.266618659973144,94.0,1000.0,61.13778872702098,34.99264481887847,94000,47000.0,2566.6680388450623
7.980327499389649,-5.12469317817688,-12.642779201507569,0.351528284907341,47500.0,1.302256280183792,12.462947990417481,12.46312180709839,12.462254783630371,95.0,1000.0,54.75906855682143,33.81832968330406,95000,47500.0,2596.2378029823303
7.974422658920288,-5.118986005783081,-12.81635726928711,0.3509095778465271,48000.0,1.340865058660507,12.637766578674317,12.6377509765625,12.638223846435547,96.0,1000.0,61.62953481410086,35.334885950599734,96000,48000.0,2624.538446187973
7.968512001037598,-5.113081367492676,-12.9796463432312,0.3496406773328781,48500.0,1.3638042333126068,12.81393524169922,12.81394479751587,12.815183513641358,97.0,1000.0,70.85725478721602,34.77507583157252,97000,48500.0,2653.2946739196777
7.962595499038696,-5.107248062133789,-13.163458831787109,0.34936421012878416,49000.0,1.3728186388015746,12.984760906219483,12.984961334228515,12.98564521408081,98.0,1000.0,91.82020288206105,34.612356745638465,98000,49000.0,2682.1860909461975
7.95667315864563,-5.101520141601562,-13.208484497070312,0.3516559513807297,49500.0,1.31616624045372,13.0348000831604,13.034634700775147,13.035091114044189,99.0,1000.0,63.94809055906673,34.50566087109011,99000,49500.0,2711.166843175888
7.950744983673096,-5.095518659591675,-13.430986320495606,0.3543257501125336,50000.0,1.403562783718109,13.245099498748779,13.245290718078614,13.246461906433105,100.0,1000.0,108.76217755984099,34.816058735099084,100000,50000.0,2739.8892211914062
7.944810911178589,-5.090447736740113,-13.615838874816895,0.35650672256946564,50500.0,1.5294853847026826,13.433266399383545,13.433249515533447,13.434067810058593,101.0,1000.0,76.41988349542477,19.14092220485507,101000,50500.0,2792.1333088874817
7.938870985031128,-5.084807313919067,-13.765326808929442,0.3555950381755829,51000.0,1.530635903120041,13.574262619018555,13.574333305358886,13.575971145629882,102.0,1000.0,187.48004486748908,35.715786841289045,102000,51000.0,2820.1321320533752
7.932925148010254,-5.078424375534057,-13.996659500122071,0.3633328984975815,51500.0,1.6765191116333007,13.798323303222656,13.798625690460206,13.798573108673096,103.0,1000.0,62.22869122679099,36.794728892330845,103000,51500.0,2847.3099389076233
7.926973461151123,-5.074091777801514,-14.062446033477784,0.36552867603302003,52000.0,1.6181848726272583,13.874418632507325,13.874334854125976,13.87317883682251,104.0,1000.0,70.34781835898498,35.79411807526396,104000,52000.0,2875.247491121292
7.921015851974487,-5.068110191345215,-14.129255237579345,0.36324968707561495,52500.0,1.6804693338871002,13.934604206085204,13.93453247833252,13.936450912475586,105.0,1000.0,78.13555050321179,36.10175166964309,105000,52500.0,2902.9469780921936
7.9150523071289065,-5.06205294418335,-14.261048294067383,0.3647204238176346,53000.0,1.776983622789383,14.05453263092041,14.054435771942138,14.054853691101075,106.0,1000.0,135.69331497292362,34.92563622773345,106000,53000.0,2931.579241991043
7.909082836151123,-5.055927967071534,-14.430437099456787,0.3690459127426147,53500.0,1.809396300792694,14.219295154571533,14.219294960021973,14.220192203521728,107.0,1000.0,198.09816039629175,34.63712793499996,107000,53500.0,2960.449995994568
7.903107395172119,-5.051490354537964,-14.802601139068603,0.3793799058198929,54000.0,1.9820279698371888,14.568807151794434,14.568774040222168,14.570433025360108,108.0,1000.0,61.95365172613684,33.31849997004015,108000,54000.0,2990.4633519649506
7.897126003265381,-5.044906507492065,-14.898079448699951,0.3785500327348709,54500.0,1.9800378003120422,14.662483547210693,14.662762340545655,14.664186855316162,109.0,1000.0,54.9945776572012,36.41025174483961,109000,54500.0,3017.9281442165375
7.891138662338257,-5.039271583557129,-15.065317569732667,0.37935810422897337,55000.0,2.13057502746582,14.837501888275147,14.837597476959228,14.83639490890503,110.0,1000.0,130.2070606490811,36.86341608924906,110000,55000.0,3045.055311203003
7.8851453475952145,-5.033031879425049,-15.319996212005615,0.38473148000240326,55500.0,2.3432521028518676,15.068368980407715,15.068049800872803,15.068543689727782,111.0,1000.0,64.83054324445806,19.075192976457245,111000,55500.0,3097.479419231415
7.879146015167236,-5.028294521331787,-15.542965553283691,0.38151257371902464,56000.0,2.403749715805054,15.290459297180176,15.29066387939453,15.293292591094971,112.0,1000.0,59.00227128510842,36.70940861429305,112000,56000.0,3124.7203929424286
7.873140678405762,-5.021793319702148,-15.721285316467284,0.3830676519870758,56500.0,2.5015660753250124,15.457701942443848,15.457456985473632,15.457179187774658,113.0,1000.0,61.94530771589382,36.985860935147315,113000,56500.0,3151.757751941681
7.867129348754883,-5.016439039230347,-15.925844806671142,0.3769906855821609,57000.0,2.6813509731292724,15.661156650543212,15.66118877029419,15.662515911102295,114.0,1000.0,76.26234634272521,37.36124984970625,114000,57000.0,3178.5234529972076
7.861111967086792,-5.010946786880493,-16.33943267059326,0.38263635683059694,57500.0,2.782361355304718,16.06843893432617,16.068225929260255,16.069207611083986,115.0,1000.0,62.24107972714639,36.49717371457312,115000,57500.0,3205.9228348731995
7.85508857345581,-5.004960809707642,-16.444532985687257,0.381467613697052,58000.0,2.941348518848419,16.18748020172119,16.187487537384033,16.18794571685791,116.0,1000.0,69.88362253253385,30.76978650617143,116000,58000.0,3238.422248840332
7.84905908203125,-4.998702337265015,-16.48074422454834,0.3814536885023117,58500.0,2.8872928557395934,16.231204803466795,16.231123435974123,16.232060749053954,117.0,1000.0,85.95500957330803,34.279077997230246,117000,58500.0,3267.5945630073547
7.843023559570312,-4.993362703323364,-16.505058055877686,0.383907741189003,59000.0,3.018703591823578,16.24599535751343,16.245604465484618,16.244738582611085,118.0,1000.0,96.11812652489145,31.857839689009204,118000,59000.0,3298.9840121269226
7.836981914520264,-4.9879904518127445,-16.65125577545166,0.3846293365955353,59500.0,3.1173145422935487,16.38968801879883,16.38975555419922,16.38992917251587,119.0,1000.0,55.54084611901261,29.94573047457487,119000,59500.0,3332.3777551651
7.830934255599976,-4.982280679702759,-16.70351642990112,0.38181822597980497,60000.0,3.27814684343338,16.431865295410155,16.43212386703491,16.43395365524292,120.0,1000.0,69.06158184153867,34.35654716039186,120000,60000.0,3361.484290122986
7.824880458831787,-4.977151147842407,-16.961802394866943,0.38190881967544554,60500.0,3.2635493960380555,16.687478019714355,16.68686875152588,16.690342418670653,121.0,1000.0,114.07495846873623,20.271239784662736,121000,60500.0,3410.815264940262
7.81882053565979,-4.971738607406616,-17.100377246856688,0.38867555117607117,61000.0,3.43278577375412,16.83912797164917,16.838853427886963,16.837315517425537,122.0,1000.0,279.48573290594135,37.07715176602629,122000,61000.0,3437.7860531806946
7.812754476547242,-4.966824600219726,-17.317294132232664,0.3966510535478592,61500.0,3.509726891994476,17.029507389068602,17.02945957183838,17.031009712219237,123.0,1000.0,80.91404331490236,34.759961121058275,123000,61500.0,3466.554785966873
7.806682308197021,-4.959728469848633,-17.46570142364502,0.39874771642684936,62000.0,3.751824270248413,17.18858098220825,17.188361644744873,17.19059487915039,124.0,1000.0,44.27597343035874,30.97312643908169,124000,62000.0,3498.8408398628235
7.800603927612305,-4.954424526214599,-17.665691276550294,0.39697684919834136,62500.0,3.837403281211853,17.386394828796387,17.386534496307373,17.386755058288575,125.0,1000.0,24.82987416994697,36.41021855720026,125000,62500.0,3526.305657148361
7.794519466400146,-4.949253618240356,-17.882394302368166,0.3928616621494293,63000.0,4.019593887329101,17.600861206054688,17.600965698242188,17.602252967834474,126.0,1000.0,67.98144583978703,36.66459419785951,126000,63000.0,3553.579926967621
7.788428804397583,-4.942970087051392,-18.065161659240722,0.3951896550655365,63500.0,4.31932440662384,17.778848251342772,17.77856076812744,17.779306251525878,127.0,1000.0,150.0542492043397,38.862697127722996,127000,63500.0,3579.3115429878235
7.782331943511963,-4.937051374435425,-18.1392716217041,0.3970954263210297,64000.0,4.534071856498718,17.846826736450197,17.846521614074707,17.849465393066406,128.0,1000.0,44.140127052632366,39.2658757097806,128000,64000.0,3604.778949022293
7.776228862762451,-4.931711126327515,-18.433461654663088,0.3964434261322021,64500.0,4.551821640014649,18.13277671813965,18.13319263458252,18.13473834991455,129.0,1000.0,140.63445482481768,39.078865534618274,129000,64500.0,3630.368229150772
7.770119606018066,-4.926165424346924,-18.602682525634766,0.40084703588485715,65000.0,4.319778511047363,18.29263872528076,18.29263659667969,18.29305934906006,130.0,1000.0,105.60806369046463,39.24351068707946,130000,65000.0,3655.8501501083374
7.764004100799561,-4.919469121932983,-18.701469825744628,0.4021286152601242,65500.0,4.447887706756592,18.3999633102417,18.400215774536132,18.402003623962404,131.0,1000.0,160.10926592879792,19.604299856442797,131000,65500.0,3706.8593690395355
7.757882341384888,-4.913565847396851,-18.93741738128662,0.4057098370790482,66000.0,4.627962538719177,18.62146544647217,18.620950538635253,18.624108924865723,132.0,1000.0,66.78893989774033,38.66976468258716,132000,66000.0,3732.719366788864
7.751754364013672,-4.908586833953858,-19.15325513458252,0.4128113481998444,66500.0,4.585878646850586,18.845127632141114,18.844910148620606,18.844990531921386,133.0,1000.0,75.33518581900876,36.889543955767486,133000,66500.0,3759.827320098877
7.7456201000213625,-4.90236021232605,-19.1216450881958,0.4081616642475128,67000.0,4.728967675209045,18.804302223205568,18.804197731018068,18.806929420471192,134.0,1000.0,66.39001047761995,35.97734192175075,134000,67000.0,3787.6225929260254
7.739479574203491,-4.896364809036255,-19.363135047912596,0.4090341444015503,67500.0,4.642886281967163,19.0618189163208,19.061838905334472,19.061324310302734,135.0,1000.0,117.67370930725345,37.64705443068823,135000,67500.0,3814.185096025467
7.733332715988159,-4.890656616210937,-19.513356887817384,0.4112141414880753,68000.0,4.835423769950867,19.207780990600586,19.2074326171875,19.20854274749756,136.0,1000.0,61.71332695092638,36.32275162745569,136000,68000.0,3841.716050863266
7.727179618835449,-4.884095491409302,-19.51259959411621,0.40819844281673434,68500.0,4.874567409515381,19.201257804870604,19.201208320617674,19.201402221679686,137.0,1000.0,151.3997417370132,37.771877582923096,137000,68500.0,3868.1907749176025
7.721020189285278,-4.87806579208374,-19.7059066696167,0.413998401761055,69000.0,4.984848453521728,19.40029839324951,19.400023689270018,19.403475662231447,138.0,1000.0,62.02615951356669,38.23502348147629,138000,69000.0,3894.344806909561
7.714854385375976,-4.871967136383057,-19.60140968322754,0.40694516348838805,69500.0,4.993216629981995,19.30648422241211,19.30633721923828,19.306834396362305,139.0,1000.0,66.57944470636829,38.46298701476748,139000,69500.0,3920.3438279628754
7.708682245254517,-4.865844129562378,-19.73547671508789,0.41424801433086395,70000.0,5.196240545272827,19.421041061401368,19.42070925140381,19.421278717041016,140.0,1000.0,63.86617709408978,39.001860915998414,140000,70000.0,3945.983631134033
7.702503776550293,-4.860078741073608,-19.80060954284668,0.4140384998321533,70500.0,5.376276077270508,19.50102752685547,19.50151342010498,19.50162919616699,141.0,1000.0,200.76797110869228,20.907671838125655,141000,70500.0,3993.812965154648
7.696318939208984,-4.854938196182251,-20.10523220825195,0.4194310647249222,71000.0,5.659413059234619,19.78520697784424,19.785583908081055,19.788644859313965,142.0,1000.0,60.41488845931818,40.4314866348389,142000,71000.0,4018.546164035797
7.690127695083619,-4.848100048065185,-20.141413505554198,0.4170470373630524,71500.0,5.662976539611816,19.831280990600586,19.830790412902832,19.832461112976073,143.0,1000.0,122.61325498399246,38.95363990040664,143000,71500.0,4044.2177069187164
7.683930065155029,-4.842199083328247,-20.336760459899903,0.4187684851884842,72000.0,6.123898007392883,20.036695938110352,20.036208923339842,20.036415817260743,144.0,1000.0,43.10902682042377,39.089097316242416,144000,72000.0,4069.80028796196
7.67772604560852,-4.836828168869019,-20.221843719482422,0.4159533256292343,72500.0,6.042163376808166,19.919701110839842,19.92037543487549,19.920982902526855,145.0,1000.0,61.137502134262746,38.56982599951761,145000,72500.0,4095.7272918224335
7.671515586853027,-4.831079648971557,-20.36525431060791,0.42000812470912935,73000.0,6.119406487464905,20.04406322479248,20.04382797241211,20.042794525146483,146.0,1000.0,122.89439866624588,37.380502575534045,146000,73000.0,4122.479206085205
7.6652987060546875,-4.825452592849731,-20.46536414337158,0.41706643223762513,73500.0,6.302066071510315,20.155277267456054,20.15506632232666,20.15438398742676,147.0,1000.0,52.83265351841782,33.580922243349825,147000,73500.0,4152.258020162582
7.659075359344483,-4.819171117782592,-20.64629285430908,0.4187482305765152,74000.0,6.10966782283783,20.325618659973145,20.32563014984131,20.328525489807127,148.0,1000.0,42.25342036428668,30.931322478002834,148000,74000.0,4184.587708950043
7.652845561981201,-4.8136229763031,-20.637348030090333,0.41744340801239016,74500.0,6.170951592445373,20.32031887817383,20.320358757019044,20.323388671875,149.0,1000.0,95.44325395588704,31.377344802136044,149000,74500.0,4216.457839012146
7.646609285354614,-4.8071398983001705,-20.75426103210449,0.4177952470779419,75000.0,6.031120722770691,20.433471130371093,20.433432731628418,20.431078132629395,150.0,1000.0,54.10486029480682,32.46114982277992,150000,75000.0,4247.26389503479
7.640366552352905,-4.801458541870117,-20.477251708984376,0.4181072175502777,75500.0,5.894661150932312,20.183779266357423,20.183099067687987,20.18805679321289,151.0,1000.0,108.70362254116013,17.94177967133153,151000,75500.0,4302.999727010727
7.634117263793946,-4.796615068435669,-20.634563034057617,0.4219692965745926,76000.0,6.173324630737305,20.337742805480957,20.338352012634278,20.33930185699463,152.0,1000.0,73.1890459967524,32.36115879826836,152000,76000.0,4333.900969982147
7.627861457824707,-4.790124250411988,-20.681733894348145,0.4191488934755325,76500.0,6.216574284553528,20.390531356811522,20.389720359802247,20.388237907409668,153.0,1000.0,97.06241416307219,36.18998877820642,153000,76500.0,4361.532922029495
7.6215991706848145,-4.783725828170776,-20.60614220428467,0.41804267501831055,77000.0,5.987852090835571,20.298331047058106,20.298320358276367,20.30095241546631,154.0,1000.0,62.03638892483747,38.82760248045407,154000,77000.0,4387.287796020508
7.615330335617066,-4.777587251663208,-20.59683883666992,0.4192801885604858,77500.0,5.802172653198242,20.284156730651855,20.284203086853026,20.2858936920166,155.0,1000.0,117.2446271311579,39.19958968462328,155000,77500.0,4412.798267841339
7.6090549411773685,-4.772587038040161,-20.777342086791993,0.4256328185796738,78000.0,5.870789605140686,20.487313919067383,20.487394393920898,20.48902761077881,156.0,1000.0,44.899854910720165,39.0551557197959,156000,78000.0,4438.403083086014
7.602772956848145,-4.766792709350586,-20.691802154541016,0.42103814852237703,78500.0,5.6920517024993895,20.39362361907959,20.39340266418457,20.396299713134766,157.0,1000.0,77.17031968359127,39.17848064291318,157000,78500.0,4463.927299976349
7.596484363555908,-4.76051247215271,-20.70221759033203,0.4218383588790894,79000.0,5.910549019813538,20.412331382751464,20.412507354736327,20.41073832702637,158.0,1000.0,64.88062186501222,39.07114444054465,158000,79000.0,4489.521637201309
7.59018920135498,-4.754505767822265,-20.884501853942872,0.42312738466262817,79500.0,5.970101031303406,20.576213623046876,20.5764633102417,20.578419937133788,159.0,1000.0,62.63824255837378,38.98004985980699,159000,79500.0,4515.175786018372
7.583887414932251,-4.748317924499512,-21.002722282409668,0.4243608672618866,80000.0,5.890084446907044,20.68713080596924,20.686955444335936,20.688254768371582,160.0,1000.0,55.89963447163186,38.93527447286165,160000,80000.0,4540.859436988831
7.5775790309906,-4.741973390579224,-20.636658096313475,0.41756311094760895,80500.0,5.94549879360199,20.344776542663574,20.344460403442383,20.342906311035158,161.0,1000.0,194.17832619328672,20.57249889726351,161000,80500.0,4589.468019962311
7.571263980865479,-4.736277267456055,-21.059070655822755,0.42671845161914823,81000.0,6.41429529762268,20.745810272216797,20.74549628448486,20.74495372772217,162.0,1000.0,78.9719666653273,39.56002107677591,162000,81000.0,4614.746065855026
7.564942283630371,-4.730514699935913,-21.13889060974121,0.4288291002511978,81500.0,6.5532961168289185,20.831743576049806,20.832120056152345,20.836476585388183,163.0,1000.0,153.2196220635015,39.803121118581366,163000,81500.0,4639.869723081589
7.558613977432251,-4.724676860809327,-21.01050074005127,0.4307263185977936,82000.0,6.260239238739014,20.698267959594727,20.697961753845213,20.6992282333374,164.0,1000.0,140.03751867641915,38.19295265617286,164000,82000.0,4666.052565097809
7.55227889251709,-4.719281335830688,-21.11876815032959,0.4307543605566025,82500.0,6.480786087036133,20.810066596984864,20.809669761657716,20.811092834472657,165.0,1000.0,64.99367314491013,38.72625022154722,165000,82500.0,4691.874844074249
7.545937160491944,-4.713399070739746,-21.312340042114258,0.43139518702030183,83000.0,6.495425612449646,20.99602272796631,20.99539468383789,20.99716226196289,166.0,1000.0,61.51813867004036,38.82482388169355,166000,83000.0,4717.631561994553
7.539588714599609,-4.7072573642730715,-21.258819068908693,0.4304119565486908,83500.0,6.304894386291504,20.952701400756837,20.953092124938966,20.95584519958496,167.0,1000.0,106.8948472783415,38.860319986815504,167000,83500.0,4743.3647520542145
7.533233535766602,-4.70167689704895,-21.32777453613281,0.4343610242605209,84000.0,6.634244837760925,21.019126762390137,21.019340476989747,21.019883743286133,168.0,1000.0,116.58055157163342,37.87575917603348,168000,84000.0,4769.766864061356
7.526871625900268,-4.69560320854187,-21.35655344390869,0.4330638802051544,84500.0,6.457296177864075,21.06028345489502,21.0598070602417,21.058666481018065,169.0,1000.0,48.668110466124176,38.36345075832661,169000,84500.0,4795.833341836929
7.520502964019776,-4.689295351028442,-21.289500038146972,0.4344677866697311,85000.0,6.22549907207489,20.975050674438478,20.975659370422363,20.976753288269045,170.0,1000.0,114.16094622850488,37.47031994448363,170000,85000.0,4822.52113199234
7.514127548217774,-4.6841923580169675,-21.55049382019043,0.4358644800186157,85500.0,6.284551972389221,21.247559753417967,21.247004859924317,21.250520462036132,171.0,1000.0,46.00481786241594,21.093524099651418,171000,85500.0,4869.929048061371
7.507745311737061,-4.678085376739502,-21.384983612060548,0.4348340253829956,86000.0,6.278506940841675,21.092987426757812,21.092867446899415,21.09370960998535,172.0,1000.0,115.87480207891355,36.928685461113005,172000,86000.0,4897.008269071579
7.501356317520141,-4.671880149841309,-21.340627639770506,0.43541783213615415,86500.0,6.416783240318298,21.053667015075682,21.05478525543213,21.056165519714355,173.0,1000.0,82.38787142691604,37.36835747297702,173000,86500.0,4923.768877983093
7.494960498809815,-4.665434213638306,-21.20635693359375,0.43303022313117984,87000.0,6.557425803184509,20.909989379882813,20.909556846618653,20.909788459777833,174.0,1000.0,66.22784938068814,37.74710604221399,174000,87000.0,4950.260975122452
7.488557806015015,-4.658999328613281,-21.439476387023927,0.43586091935634613,87500.0,6.548331928253174,21.135072341918946,21.135729797363283,21.13705654144287,175.0,1000.0,40.51221141473654,37.577572262687504,175000,87500.0,4976.8725938797
7.482148319244385,-4.653204521179199,-21.451211166381835,0.4350557209253311,88000.0,6.312061223983765,21.158299018859864,21.157707382202148,21.158457626342773,176.0,1000.0,125.10867390912274,37.876052981127344,176000,88000.0,5003.274501085281
7.475732004165649,-4.648339570999146,-21.476897399902345,0.43081772887706754,88500.0,6.335879134178161,21.193014007568358,21.19228665924072,21.1953060836792,177.0,1000.0,190.71338119835897,38.1536111331045,177000,88500.0,5029.484340906143
7.469308813095092,-4.641367832183838,-21.49245787811279,0.43695861780643463,89000.0,6.803912985801697,21.200558464050292,21.200483375549318,21.202821563720704,178.0,1000.0,32.23921387728789,34.50432133656334,178000,89000.0,5058.46621799469
7.462878713607788,-4.635529418945312,-21.46970336151123,0.43687810909748076,89500.0,6.323942057609558,21.173161750793458,21.17317517089844,21.17310779571533,179.0,1000.0,127.59353417427177,37.956564168536254,179000,89500.0,5084.812122106552
7.456441759109497,-4.6300090904235836,-21.629393653869627,0.4370627771615982,90000.0,6.492561410903931,21.321374382019044,21.321544998168946,21.321679527282715,180.0,1000.0,88.32085571861799,37.818531991717315,180000,90000.0,5111.254185914993
7.449997842788696,-4.623304048538208,-21.550754264831543,0.43883986377716067,90500.0,6.618112063407898,21.260043518066407,21.2603168258667,21.263907524108888,181.0,1000.0,158.35528716645655,21.340427597083117,181000,90500.0,5158.113603115082
7.443547044754029,-4.6172732124328615,-21.535685432434082,0.4395153652429581,91000.0,6.333982528686524,21.256906532287598,21.256869285583495,21.258246101379395,182.0,1000.0,52.20883602454123,36.89321254288514,182000,91000.0,5185.218861103058
7.4370892658233645,-4.611242673873901,-21.73931282043457,0.44171155989170074,91500.0,6.447110001564026,21.456105323791505,21.45618930053711,21.456839332580568,183.0,1000.0,200.8786412810143,37.137481794080344,183000,91500.0,5212.1458349227905
7.43062451171875,-4.604841596603394,-21.62993391418457,0.44686900985240935,92000.0,6.245125244140625,21.331469535827637,21.332179718017578,21.33300562286377,184.0,1000.0,54.17872569653962,37.865117543710234,184000,92000.0,5238.55536699295
7.424152839660644,-4.599161134719848,-21.62849716949463,0.44337344622612,92500.0,6.233262504577636,21.331002822875977,21.331234298706054,21.330730918884278,185.0,1000.0,61.06754395820143,36.84843279661135,185000,92500.0,5265.693563222885
7.417674104690552,-4.592596719741821,-21.65424600982666,0.4400820083618164,93000.0,6.242017669677734,21.365251113891603,21.364826362609865,21.367424575805664,186.0,1000.0,55.929713918132855,37.82715979727194,186000,93000.0,5292.129595994949
7.411188436508179,-4.586072229385376,-21.820099815368653,0.445126616358757,93500.0,6.1961333284378055,21.526679161071776,21.52745606994629,21.52915502166748,187.0,1000.0,134.04906742117188,38.48340145123473,187000,93500.0,5318.114825963974
7.404695711135864,-4.5797260398864745,-21.665750289916993,0.4493915215730667,94000.0,6.230051445960998,21.363992477416993,21.363759338378905,21.365516967773438,188.0,1000.0,92.65241398248466,37.631854245470784,188000,94000.0,5344.688059091568
7.398196002960205,-4.573478773117065,-21.80681364440918,0.4464949895143509,94500.0,6.339221876144409,21.502698013305665,21.502759719848633,21.502698120117188,189.0,1000.0,72.7135663533144,37.523546689721904,189000,94500.0,5371.337991952896
7.3916891689300535,-4.5691660804748535,-21.894094062805177,0.44554136514663695,95000.0,6.177475172042847,21.59319423675537,21.59344832611084,21.59719024658203,190.0,1000.0,40.21453303602003,37.96288440314081,190000,95000.0,5397.679510116577
7.385175331115723,-4.561799144744873,-21.721077056884766,0.4443383982181549,95500.0,6.266962022781372,21.43806859588623,21.438015853881836,21.44157036590576,191.0,1000.0,75.88198807671573,21.269229769272613,191000,95500.0,5444.695785999298
7.37865440750122,-4.556427488327026,-21.66197947692871,0.4428886137008667,96000.0,6.003300757408142,21.386305068969726,21.386673301696778,21.385097602844237,192.0,1000.0,118.26060246867058,35.079423501006765,192000,96000.0,5473.202527046204
7.372126379013062,-4.5499505596160885,-21.66812910461426,0.44610399222373964,96500.0,6.115464732170105,21.3924334564209,21.39233536529541,21.393495826721193,193.0,1000.0,123.42737009831143,35.52763364628279,193000,96500.0,5501.349632024765
7.365591207504273,-4.544121845245361,-21.516734016418457,0.44885258162021635,97000.0,6.09524151802063,21.24328890991211,21.243254066467284,21.244162406921387,194.0,1000.0,120.83666397807944,36.7353838605724,194000,97000.0,5528.5713431835175
7.359048950195312,-4.538146249771118,-21.55614799499512,0.448553156375885,97500.0,6.050366233825684,21.27403411102295,21.273484191894532,21.27436875152588,195.0,1000.0,162.50320777157046,36.51250802701169,195000,97500.0,5555.9592180252075
7.352499538421631,-4.5318354244232175,-21.741035163879395,0.4506943027973175,98000.0,6.206226344108582,21.452314498901366,21.452415489196778,21.454962760925294,196.0,1000.0,73.20732530935653,37.997014687481396,196000,98000.0,5582.277076005936
7.345942974090576,-4.525479372024536,-21.887547500610353,0.4556755176782608,98500.0,6.2838986215591435,21.603966094970705,21.604382720947264,21.604221923828124,197.0,1000.0,235.93818621690392,37.51454578325164,197000,98500.0,5608.933403015137
7.33937924194336,-4.518910148620606,-21.92021268463135,0.4572226382493973,99000.0,6.457797646522522,21.62946472930908,21.62927911376953,21.62980729675293,198.0,1000.0,95.73977951704488,37.92212109505506,198000,99000.0,5635.303237199783
7.332808313369751,-4.512750532150268,-21.817419731140138,0.45302980744838717,99500.0,6.330848213195801,21.548845191955568,21.54874492645264,21.551021018981935,199.0,1000.0,106.95011289824308,37.029967264579604,199000,99500.0,5662.3083918094635
7.326230171203613,-4.506254892349244,-21.76617099761963,0.4554368315935135,100000.0,6.364181697845459,21.50435494995117,21.504002815246583,21.505057189941407,200.0,1000.0,199.7352308505475,36.401563706164616,200000,100000.0,5689.779740095139
7.319644830703735,-4.5008359661102295,-21.808373542785645,0.46419036722183227,100500.0,6.474460144042968,21.539839248657227,21.53996549987793,21.5397294921875,201.0,1000.0,75.88628466406524,21.162873218238186,201000,100500.0,5737.032304048538
7.313052234649658,-4.494018074035645,-21.781124877929688,0.46273192524909973,101000.0,6.492792875289917,21.49980002593994,21.50005744934082,21.500999298095703,202.0,1000.0,53.64782422800704,36.80444239717144,202000,101000.0,5764.202939033508
7.306452348709106,-4.487826751708984,-21.928916763305665,0.4632366578578949,101500.0,6.373525230407715,21.63920697784424,21.639253395080566,21.640832290649413,203.0,1000.0,62.93422802666192,37.256802617728695,203000,101500.0,5791.043673992157
7.299845300674439,-4.482557374954224,-21.945284217834473,0.4631593528985977,102000.0,6.47030533695221,21.670304168701172,21.670306449890138,21.675148124694825,204.0,1000.0,145.41081175091963,36.93156153111207,204000,102000.0,5818.120785951614
7.293230884552002,-4.476104652404785,-21.992530181884767,0.4660915185213089,102500.0,6.902641611099243,21.694786659240723,21.69456985473633,21.695213813781738,205.0,1000.0,61.8123176914231,37.918885395031275,205000,102500.0,5844.492870092392
7.2866092185974125,-4.469279125213623,-21.832964416503906,0.459616003036499,103000.0,6.685219288825989,21.549917686462404,21.55020676422119,21.550803977966307,206.0,1000.0,58.268534205550125,38.11043720515731,206000,103000.0,5870.732400178909
7.279980186462402,-4.461845849990845,-21.816685470581056,0.45833562695980073,103500.0,6.88056716632843,21.535543281555174,21.53544420623779,21.53831253814697,207.0,1000.0,42.86584202620749,36.25274153371414,207000,103500.0,5898.316521883011
7.273343883514404,-4.455709548950195,-21.8270758895874,0.46108270621299746,104000.0,6.564057263374329,21.541735244750978,21.541266075134278,21.54165732574463,208.0,1000.0,42.31015649965858,35.95309631913866,208000,104000.0,5926.13053894043
7.266700159072876,-4.450270374298095,-21.870395042419435,0.4544091920852661,104500.0,6.900104014396668,21.597765632629393,21.598107635498046,21.60001884460449,209.0,1000.0,70.6916398147132,36.483314851185305,209000,104500.0,5953.5403299331665
7.260049102783203,-4.444363691329956,-21.858079566955567,0.45574868726730344,105000.0,6.876850315093995,21.57124348449707,21.57126717376709,21.571393600463868,210.0,1000.0,61.286452891234816,36.496036164271736,210000,105000.0,5980.940566062927
7.253390674591064,-4.43702996635437,-21.745690002441407,0.45607310807704926,105500.0,7.0887354536056515,21.464174057006836,21.463345329284667,21.46401191711426,211.0,1000.0,60.31503097408436,20.033890931700373,211000,105500.0,6030.855983018875
7.246724836349487,-4.430931650161743,-21.825603729248048,0.456536318898201,106000.0,6.911220302581787,21.542841819763183,21.543889427185057,21.545246536254883,212.0,1000.0,88.61817354882041,36.05446876632364,212000,106000.0,6058.591795921326
7.240051622390747,-4.424177976608276,-21.67702265930176,0.45740116703510286,106500.0,6.949731136322021,21.403718994140625,21.403245849609377,21.40298134613037,213.0,1000.0,94.29948334289301,37.173652898404164,213000,106500.0,6085.492568969727
7.233370918273926,-4.417685884475708,-22.026462997436525,0.45812337517738344,107000.0,7.418845825195312,21.732785057067872,21.73318994140625,21.73212589263916,214.0,1000.0,47.45737103360521,37.62747491490608,214000,107000.0,6112.068894863129
7.226682817459106,-4.412248622894287,-22.005131034851075,0.46159391605854033,107500.0,7.1148679771423335,21.73132127380371,21.73118000793457,21.73586457824707,215.0,1000.0,134.70845945438188,38.111333400003645,215000,107500.0,6138.307809114456
7.2199872341156,-4.405754154205322,-22.041709800720216,0.46264893436431886,108000.0,7.317912308692932,21.760744049072265,21.760986198425293,21.76074528503418,216.0,1000.0,45.15510246452243,38.259790268536804,216000,108000.0,6164.444911003113
7.2132841567993164,-4.400644166946411,-21.917071144104003,0.4618726865053177,108500.0,7.108559346199035,21.63946666717529,21.63905158996582,21.64137644958496,217.0,1000.0,65.72545874967302,37.13996985168501,217000,108500.0,6191.370082139969
7.2065735912323,-4.393825382232666,-21.98552285003662,0.4559482115507126,109000.0,7.494473037719726,21.70664702606201,21.707550971984862,21.70926594543457,218.0,1000.0,84.96560473466694,38.06586009194753,218000,109000.0,6217.640341997147
7.199855474472046,-4.3873505058288575,-21.83236640930176,0.45572752022743224,109500.0,7.093373035430909,21.55642961883545,21.556350860595703,21.55757459259033,219.0,1000.0,63.87859963638721,36.224764886662314,219000,109500.0,6245.245766162872
7.19312992477417,-4.381092443466186,-22.022011474609375,0.4602763379812241,110000.0,7.245754282951355,21.745196266174318,21.744794151306152,21.742284225463866,220.0,1000.0,58.571936293603656,34.07823962461469,220000,110000.0,6274.590006113052
7.186396745681763,-4.37418330001831,-21.942367446899414,0.45878698205947877,110500.0,7.13513335609436,21.654260398864746,21.655103187561036,21.656820747375487,221.0,1000.0,117.6569011887719,20.888749999228057,221000,110500.0,6322.4626660346985
7.1796560382843015,-4.367310331344605,-21.84853854370117,0.4604861879348755,111000.0,7.371253597259521,21.5863849029541,21.586228454589843,21.588745559692384,222.0,1000.0,186.80685756139408,36.08360614241618,222000,111000.0,6350.176081895828
7.17290775680542,-4.361905279159546,-22.09054360961914,0.463296347618103,111500.0,7.697586524963379,21.78965584564209,21.790104705810545,21.791005599975588,223.0,1000.0,144.71739119207342,36.767599913072054,223000,111500.0,6377.373940944672
7.166151842117309,-4.355614015579223,-22.16112713623047,0.4657218477725983,112000.0,7.149649681091309,21.871378540039064,21.87111009979248,21.871471450805664,224.0,1000.0,61.87068867123623,37.606451314535335,224000,112000.0,6403.965124130249
7.159388334274292,-4.348712532043457,-22.068127510070802,0.4648649506568909,112500.0,6.9510625534057615,21.783459327697752,21.782508460998535,21.785298027038575,225.0,1000.0,201.34630910745636,35.85421484815285,225000,112500.0,6431.855849027634
7.152617198944092,-4.34245379447937,-22.133675437927245,0.4648954244852066,113000.0,7.141647041320801,21.84913690185547,21.849887603759765,21.851870025634767,226.0,1000.0,60.30284240680678,36.741843345711885,226000,113000.0,6459.072774887085
7.145838376998902,-4.335819849014282,-22.161309196472168,0.46516255784034727,113500.0,7.221207626342774,21.873844108581544,21.873246063232422,21.876553398132323,227.0,1000.0,222.09222503381034,37.41826510432378,227000,113500.0,6485.797691822052
7.139051904678345,-4.330309711456299,-22.339999420166016,0.4760312179327011,114000.0,7.321103815078735,22.060198486328126,22.059902618408202,22.06142031097412,228.0,1000.0,183.75831985849968,36.80220995204232,228000,114000.0,6512.969974040985
7.132257768630981,-4.322552165985107,-22.221126625061036,0.47489332938194273,114500.0,7.166133848190308,21.945872673034668,21.94563525390625,21.943730270385743,229.0,1000.0,63.746317619588694,37.45830141183805,229000,114500.0,6539.666325092316
7.125455898284912,-4.315973556518554,-22.25565866088867,0.47358075380325315,115000.0,7.133520082473755,21.949758110046385,21.950003036499023,21.95305214691162,230.0,1000.0,52.31105285390373,37.38044594135219,230000,115000.0,6566.41828083992
7.118646366119385,-4.3100029296875,-22.24986557006836,0.4758032101392746,115500.0,7.049017871856689,21.950968200683594,21.950803703308104,21.95126644897461,231.0,1000.0,44.12456048222166,21.158552505975244,231000,115500.0,6613.680494070053
7.111829042434692,-4.30461304473877,-22.323645027160644,0.47046149027347567,116000.0,7.683233425140381,22.028505325317383,22.028656661987306,22.030087562561036,232.0,1000.0,67.33754267215426,36.670034283385,232000,116000.0,6640.950716972351
7.105003988265991,-4.298078979492187,-22.248732902526857,0.4739800391197205,116500.0,7.472833879470826,21.961821464538573,21.961342063903807,21.963111137390136,233.0,1000.0,102.81592228706458,35.70823808350324,233000,116500.0,6668.9554579257965
7.098171155929565,-4.290969539642334,-22.332267097473146,0.4716747516393662,117000.0,7.573216428756714,22.042837844848634,22.043311996459963,22.043785011291504,234.0,1000.0,57.093431793424884,35.59809348597183,234000,117000.0,6697.046851158142
7.0913305206298825,-4.284966865539551,-22.44860479736328,0.4701968960762024,117500.0,7.430251560211182,22.160818351745604,22.160610572814942,22.1632631149292,235.0,1000.0,137.88239631765856,36.89475437193142,235000,117500.0,6724.150974035263
7.084482112884522,-4.27925152015686,-22.439386222839357,0.4711518098115921,118000.0,7.782000474929809,22.17180702972412,22.172331115722656,22.172904014587402,236.0,1000.0,75.04289365027175,35.26647460863756,236000,118000.0,6752.506516933441
7.077625848770142,-4.2722585582733155,-22.501178329467773,0.466475452542305,118500.0,7.7733136138916015,22.21954259490967,22.219229194641112,22.221742485046388,237.0,1000.0,52.047551225158394,30.125513516048734,237000,118500.0,6785.700972080231
7.070761821746826,-4.2660308418273925,-22.50908332824707,0.47034611308574675,119000.0,8.053947296142578,22.228434394836427,22.228902282714845,22.228450736999513,238.0,1000.0,184.47979755152411,32.885829670789896,238000,119000.0,6816.109205961227
7.0638898010253905,-4.25764158821106,-22.41319758605957,0.47556757056713106,119500.0,8.030143287658692,22.14406034851074,22.144113891601563,22.145868675231934,239.0,1000.0,63.37420287307781,34.861782883220876,239000,119500.0,6844.793913125992
7.057009956359863,-4.2523501682281495,-22.428526634216308,0.47318176305294035,120000.0,8.026761022567749,22.139970893859864,22.13926131439209,22.142000595092775,240.0,1000.0,139.76631757260105,33.90344244457822,240000,120000.0,6874.289443969727
7.050122236251831,-4.245688249588013,-22.617297492980956,0.47482477450370786,120500.0,8.206919353485107,22.317894050598145,22.316985679626466,22.318664390563963,241.0,1000.0,142.25012501262378,18.605925016414858,241000,120500.0,6928.035764932632
7.04322659111023,-4.239104692459106,-22.607069473266602,0.4753975806236267,121000.0,7.905158102989197,22.31797216796875,22.318930870056153,22.321572174072266,242.0,1000.0,48.83290125377081,31.85598238760721,242000,121000.0,6959.4270441532135
7.036323001861573,-4.233115884780884,-22.78821216583252,0.4703013415336609,121500.0,8.334677042007446,22.482859481811523,22.483020584106445,22.48236009979248,243.0,1000.0,130.58289730495483,30.443607938992646,243000,121500.0,6992.274662971497
7.029411409378052,-4.225362192153931,-22.91690711212158,0.4715124396085739,122000.0,8.659128643035888,22.601561569213867,22.601803588867188,22.602508674621582,244.0,1000.0,70.42134391943381,31.830318360328317,244000,122000.0,7023.691251993179
7.022491882324219,-4.220496866226196,-22.85934156036377,0.47792523324489594,122500.0,8.559126823425293,22.56729486846924,22.567060356140136,22.56920659637451,245.0,1000.0,332.4867375841953,33.57585957636788,245000,122500.0,7053.474555015564
7.015564357757568,-4.213636892318726,-22.995820861816405,0.48441285216808316,123000.0,8.70593941116333,22.686660903930665,22.686096176147462,22.687716842651366,246.0,1000.0,215.03856292721545,33.4941623363387,246000,123000.0,7083.330504894257
7.008628889083862,-4.206928897857666,-23.201077423095704,0.48690860247612,123500.0,9.257035598754882,22.889674743652343,22.890524772644042,22.893140342712403,247.0,1000.0,52.64704607671325,33.45258173441011,247000,123500.0,7113.2235651016235
7.001685333251953,-4.199583345413208,-23.230584045410158,0.4863670909404755,124000.0,9.089777332305909,22.914290451049805,22.913924118041994,22.91285220336914,248.0,1000.0,144.4868394331824,33.78076284078717,248000,124000.0,7142.82621216774
6.994733736038208,-4.193621927261352,-23.636609306335448,0.4871633950471878,124500.0,9.828021457672119,23.303493881225585,23.304230361938476,23.309282585144043,249.0,1000.0,47.26058091737257,28.194018706108256,249000,124500.0,7178.294728040695
6.98777414894104,-4.18642989730835,-23.666098510742188,0.485332146525383,125000.0,10.037819547653198,23.36091103363037,23.36024582672119,23.35963609313965,250.0,1000.0,115.41534331595332,32.31083749429113,250000,125000.0,7209.2440969944
6.9808064022064205,-4.180840007781982,-23.675033981323242,0.4878374375104904,125500.0,10.260781908035279,23.367526245117187,23.367032775878908,23.367505966186524,251.0,1000.0,88.07453500452237,19.53253863892019,251000,125500.0,7260.440720081329
6.973830562591552,-4.174074800491333,-23.72373606109619,0.4900451649427414,126000.0,10.183232236862183,23.4116149520874,23.4120537109375,23.4171283493042,252.0,1000.0,66.98428368278684,31.965581493254525,252000,126000.0,7291.724369049072
6.966846626281738,-4.167787702560425,-23.853774200439453,0.4876142910718918,126500.0,11.233723873138429,23.539141342163084,23.53859171295166,23.537818519592285,253.0,1000.0,36.15599933627971,32.69869970423153,253000,126500.0,7322.306625127792
6.959854536056518,-4.160641857147217,-23.694277931213378,0.4817785081863403,127000.0,10.533351045608521,23.355391983032227,23.355778930664062,23.35503720855713,254.0,1000.0,242.1264241717978,33.52749225764108,254000,127000.0,7352.132894992828
6.952854284286499,-4.153302183151245,-24.006148193359376,0.4852723157405853,127500.0,10.405827402114868,23.671557609558107,23.671323165893554,23.677209396362304,255.0,1000.0,100.74239358966422,33.86714605418289,255000,127500.0,7381.66003704071
6.945845867156982,-4.1470975532531735,-24.14252240753174,0.49181800067424775,128000.0,10.216822576522826,23.801407752990723,23.80110964202881,23.805797073364257,256.0,1000.0,56.54353377379634,33.45414290277292,256000,128000.0,7411.5517020225525
6.938829250335694,-4.140857538223266,-24.1931654586792,0.4903766095638275,128500.0,10.57421844291687,23.86189040374756,23.86291330718994,23.860185813903808,257.0,1000.0,209.6405983232555,34.25650285698455,257000,128500.0,7440.743239879608
6.931804424285889,-4.133550733566284,-24.145044342041015,0.4920413935184479,129000.0,10.646281805038452,23.809162643432618,23.80845093536377,23.811550270080566,258.0,1000.0,207.2649738950993,32.99747163595334,258000,129000.0,7471.048593044281
6.924771369934082,-4.127648166656494,-24.37243487548828,0.493997350692749,129500.0,10.769694864273072,24.028692092895508,24.028006317138672,24.02705772399902,259.0,1000.0,108.15517243988408,32.866872539634684,259000,129500.0,7501.474365949631
6.917730039596558,-4.12155853843689,-24.507852416992186,0.49375503289699557,130000.0,10.869257928848267,24.167842391967774,24.168829605102538,24.175752044677733,260.0,1000.0,231.29475284994794,32.82877144190929,260000,130000.0,7531.935451030731
6.910680448532104,-4.115248950958252,-24.558366050720213,0.5017248445749283,130500.0,11.172889156341553,24.235855102539062,24.235128425598145,24.2367092590332,261.0,1000.0,97.3372431749192,18.67729910116558,261000,130500.0,7585.47638297081
6.9036225395202635,-4.108845851898193,-24.628654876708985,0.49860275840759277,131000.0,10.926205701828003,24.293599334716795,24.294241607666017,24.293861221313477,262.0,1000.0,89.87484416702742,32.72606538229837,262000,131000.0,7616.033064842224
6.8965563621521,-4.1008600292205815,-24.637546127319336,0.4960594129562378,131500.0,11.235340616226196,24.313549285888673,24.314083389282228,24.31596854400635,263.0,1000.0,74.0838289042565,31.799365731273305,263000,131500.0,7647.4802339077
6.889481786727905,-4.095610822677612,-24.604936546325682,0.4962155921459198,132000.0,10.843276315689087,24.28542943572998,24.28507007598877,24.287506019592286,264.0,1000.0,142.72879758907567,33.285293771621426,264000,132000.0,7677.52353310585
6.88239895439148,-4.088120676040649,-24.567276054382326,0.5017498482465744,132500.0,10.473552722930908,24.26221137237549,24.261629516601563,24.262712547302247,265.0,1000.0,141.7622792304604,31.942885082315243,265000,132500.0,7708.829409122467
6.875307678222656,-4.081801359176636,-24.590245498657225,0.5003149696588516,133000.0,10.920843132019042,24.268701126098634,24.269379692077635,24.268998397827147,266.0,1000.0,41.0922435239985,32.60403557867001,266000,133000.0,7739.500459909439
6.868208051681519,-4.074902082443237,-24.491055534362793,0.49862247037887575,133500.0,10.518962820053101,24.184676162719725,24.18516042327881,24.190337409973143,267.0,1000.0,31.78466466518446,31.167483954999316,267000,133500.0,7771.5851809978485
6.861099998474121,-4.068872455596924,-24.647775733947753,0.5002679331302643,134000.0,10.770774436950683,24.32578229522705,24.324591079711915,24.325054306030275,268.0,1000.0,66.24777045875868,31.26112907580659,268000,134000.0,7803.573789834976
6.8539834957122805,-4.062093713760376,-24.55816104888916,0.49593497812747955,134500.0,10.582386598587036,24.225076263427734,24.22535901641846,24.224970458984377,269.0,1000.0,66.1651554448456,31.870242410791313,269000,134500.0,7834.951023101807
6.846858560562134,-4.05489017868042,-24.749807006835937,0.5036881279945373,135000.0,10.85945071220398,24.41972772216797,24.419359550476074,24.41960171508789,270.0,1000.0,104.09972995345028,31.990985206309546,270000,135000.0,7866.2098300457
6.83972519493103,-4.048509683609009,-24.72719039916992,0.497308034658432,135500.0,10.920371536254883,24.394097915649414,24.39418820953369,24.393555061340333,271.0,1000.0,217.81222827532258,18.594740460310515,271000,135500.0,7919.988478899002
6.832583219528198,-4.042538150787354,-24.78492155456543,0.5035229215621948,136000.0,10.905276863098145,24.456631004333495,24.456721130371093,24.46246967315674,272.0,1000.0,53.4882190353502,28.8908774284668,272000,136000.0,7954.60148191452
6.825432870864868,-4.0348611907958984,-24.786835289001466,0.4972231763601303,136500.0,10.874541549682617,24.449282287597658,24.44923243713379,24.450236877441405,273.0,1000.0,174.81619274732816,29.42727730955619,273000,136500.0,7988.583559989929
6.818273885726929,-4.029159358978271,-25.019635841369627,0.5067195816040039,137000.0,11.26608246421814,24.69328118133545,24.69388465118408,24.696830017089844,274.0,1000.0,47.48274381973504,29.648421782005936,274000,137000.0,8022.312167882919
6.8111064262390135,-4.021013139724731,-25.029588645935057,0.5006936073303223,137500.0,10.704110076904296,24.69814702606201,24.697523887634276,24.696832275390626,275.0,1000.0,60.65380155370611,30.086700300260578,275000,137500.0,8055.549446105957
6.803930383682251,-4.016156716346741,-25.134612899780272,0.5059634561538696,138000.0,10.858189622879028,24.805871910095213,24.806658485412598,24.80601982116699,276.0,1000.0,56.257028629499864,30.483648942572046,276000,138000.0,8088.353919029236
6.7967457027435305,-4.0092403621673585,-24.88785112762451,0.5021505334377289,138500.0,11.244554878234863,24.56049222564697,24.56002085876465,24.562056922912596,277.0,1000.0,64.39583554027419,31.43337452575598,277000,138500.0,8120.167239904404
6.7895524635314946,-4.001901748657226,-24.926961654663085,0.49976597642898557,139000.0,11.125932647705078,24.596700325012208,24.596829620361326,24.598680992126464,278.0,1000.0,92.5585858769659,30.566759194494697,278000,139000.0,8152.882518053055
6.78235046005249,-3.9955574464797974,-25.11279231262207,0.4999134322404861,139500.0,11.383177658081054,24.774869483947754,24.77536190032959,24.77200114440918,279.0,1000.0,154.23979695467975,31.634502413992386,279000,139500.0,8184.493574142456
6.775139938354492,-3.988202648162842,-25.263091117858888,0.5039039105176926,140000.0,11.220465602874755,24.91363466644287,24.913634521484376,24.91749496459961,280.0,1000.0,38.143097519882275,31.756404690521666,280000,140000.0,8215.98328590393
6.7679206619262695,-3.9818911790847777,-25.28176333618164,0.5033459026813507,140500.0,11.385574213027954,24.94131827545166,24.941076026916505,24.943959815979003,281.0,1000.0,64.52946768796534,18.287609651158956,281000,140500.0,8270.665118932724
6.760692785263061,-3.9748351249694824,-25.3183842086792,0.5048359235525132,141000.0,11.111733154296875,24.974189163208006,24.97412544250488,24.97686047363281,282.0,1000.0,312.9458663633669,28.817290220231204,282000,141000.0,8305.366508960724
6.753456142425537,-3.9681247835159303,-25.45548281097412,0.5037492245435715,141500.0,11.360440841674805,25.12187252044678,25.12214540863037,25.122860580444335,283.0,1000.0,90.3040723773845,28.76895362127821,283000,141500.0,8340.12620306015
6.746210754394531,-3.9610545301437377,-25.274297790527342,0.5037889422178269,142000.0,11.020389337539672,24.948465202331544,24.94749782562256,24.953259216308595,284.0,1000.0,68.3345630024426,29.4543642340216,284000,142000.0,8374.07702922821
6.738956600189209,-3.9533374185562136,-25.112003410339355,0.4999209246635437,142500.0,11.007027751922607,24.779507316589356,24.780482635498046,24.7795120010376,285.0,1000.0,283.73830998460176,29.87225628897178,285000,142500.0,8407.552907943726
6.731693674087524,-3.9467527780532836,-25.162110809326173,0.5043349009752274,143000.0,11.137843090057373,24.82969013977051,24.828755111694335,24.829954116821288,286.0,1000.0,264.8492828795514,30.69170249008307,286000,143000.0,8440.135005950928
6.724421941757202,-3.9414725618362425,-25.378049201965332,0.5115077261924743,143500.0,10.860976654052735,25.035134231567383,25.035291664123534,25.036397773742674,287.0,1000.0,103.07142270334371,30.580081196844166,287000,143500.0,8472.836030960083
6.717141380310059,-3.934696831703186,-25.543148445129393,0.5114776046276093,144000.0,11.436004236221313,25.202306411743162,25.203516578674318,25.19826030731201,288.0,1000.0,34.60011646395567,33.31649730366428,288000,144000.0,8502.851191997528
6.709852010726928,-3.9276511421203613,-25.491840408325196,0.5130154325962066,144500.0,11.71216277885437,25.17347435760498,25.172644538879396,25.17576151275635,289.0,1000.0,109.88912951396638,29.82944731242256,289000,144500.0,8536.375113010406
6.702553712844849,-3.919833568572998,-25.243024353027344,0.5065138354301453,145000.0,11.840384366989136,24.921320419311524,24.92225341796875,24.924928276062012,290.0,1000.0,58.26226667633576,31.377646905251513,290000,145000.0,8568.244934082031
6.695246555328369,-3.9134419660568236,-25.551312149047853,0.5131182984113694,145500.0,11.9582295627594,25.213466690063477,25.213312721252443,25.214175941467285,291.0,1000.0,71.24020482866554,16.704577215073197,291000,145500.0,8628.10876584053
6.687930471420288,-3.9059039421081545,-25.568818389892577,0.5124319189786911,146000.0,12.153426250457764,25.22269285583496,25.222840408325194,25.22500205230713,292.0,1000.0,67.98535996965464,27.382918289020168,292000,146000.0,8664.627882003784
6.680605537414551,-3.9000649490356447,-25.69673181152344,0.5111100391149521,146500.0,11.875751230239867,25.35130673980713,25.35118627166748,25.355808418273927,293.0,1000.0,110.72649368014628,28.677490087035345,293000,146500.0,8699.498437166214
6.67327156829834,-3.8933252267837526,-25.956498832702636,0.517283634185791,147000.0,12.721550697326661,25.588278205871582,25.588226081848145,25.58896053314209,294.0,1000.0,223.3091025295742,27.237920708353847,294000,147000.0,8736.211960077286
6.6659286556243895,-3.8864322204589845,-26.102008010864257,0.519086994767189,147500.0,12.241541757583619,25.747105331420897,25.746790252685546,25.746308784484864,295.0,1000.0,50.35240388503423,27.338156627849582,295000,147500.0,8772.790872097015
6.65857670211792,-3.879592893600464,-26.104250808715822,0.5180502840280533,148000.0,12.099063192367554,25.744886253356935,25.74525839996338,25.75051583862305,296.0,1000.0,93.10889786839748,28.107865074146947,296000,148000.0,8808.368103981018
6.651215774536133,-3.872378149032593,-26.15689535522461,0.5149982615709304,148500.0,11.832610698699952,25.827430229187012,25.827843292236327,25.823872520446777,297.0,1000.0,73.82971703865886,28.575869296661544,297000,148500.0,8843.362665891647
6.643845767974853,-3.8672692289352417,-25.835566635131837,0.5123150992393494,149000.0,11.537596179962158,25.51211092376709,25.512307891845705,25.513589027404784,298.0,1000.0,55.778811765429474,29.368732363101543,298000,149000.0,8877.41248512268
6.636466730117798,-3.859144612312317,-26.02056700897217,0.5128754507303238,149500.0,11.597336795806886,25.682907524108888,25.682702934265137,25.685226646423338,299.0,1000.0,115.7856297634735,28.70212924732411,299000,149500.0,8912.253106832504
6.62907859992981,-3.852133165359497,-26.152983779907228,0.5155647920370102,150000.0,11.66357417678833,25.803821235656738,25.804068153381348,25.80525971984863,300.0,1000.0,126.11717959557885,28.023167988225616,300000,150000.0,8947.937866926193
6.6216813106536865,-3.846527731895447,-26.090555938720705,0.5137039461135864,150500.0,12.357606315612793,25.751070976257324,25.751805389404296,25.75237261199951,301.0,1000.0,72.12627083018882,16.935752254282427,301000,150500.0,9006.984550952911
6.614274959564209,-3.837774835586548,-26.24718448638916,0.5154302855730056,151000.0,12.36471925354004,25.892496154785157,25.89123343658447,25.893637809753418,302.0,1000.0,56.385009891232684,26.23840683032941,302000,151000.0,9045.096621990204
6.606859453201294,-3.8321319370269777,-26.32197483062744,0.5095822368860244,151500.0,12.207915328979492,25.9859020614624,25.98657871246338,25.983379440307615,303.0,1000.0,42.66196053470399,25.838596030732667,303000,151500.0,9083.798416137695
6.599434759140014,-3.8257605686187746,-26.16723154449463,0.5110767686367035,152000.0,12.390003065109253,25.830158798217774,25.83052328491211,25.835655151367188,304.0,1000.0,67.97172348128271,26.805974860310506,304000,152000.0,9121.103533029556
6.592000883102417,-3.8193394870758057,-26.21209767150879,0.5140817619562149,152500.0,12.593545570373536,25.852638610839843,25.85279741668701,25.852295989990235,305.0,1000.0,133.34348485771048,27.259526497738396,305000,152500.0,9157.787956953049
6.584557687759399,-3.811889263153076,-26.303325004577637,0.5170520304441452,153000.0,12.291956007003785,25.963419982910157,25.963304733276367,25.967345642089843,306.0,1000.0,162.08455760386397,27.639626455051832,306000,153000.0,9193.967897176743
6.577105333328247,-3.80667236328125,-26.35490654754639,0.5116229577064514,153500.0,12.87111878967285,26.01674308013916,26.017077110290526,26.01612070465088,307.0,1000.0,171.24853620879725,28.29675444571084,307000,153500.0,9229.307640075684
6.5696436901092525,-3.7985802602767946,-26.335626068115236,0.5190734847784042,154000.0,12.329006885528564,25.998919723510742,25.998756156921388,26.001879554748534,308.0,1000.0,90.4308654313017,27.903011239834193,308000,154000.0,9265.146066904068
6.562172769546509,-3.7910264949798584,-26.211539222717285,0.5164726692438125,154500.0,12.503636590957642,25.885045471191408,25.884592247009277,25.886265991210937,309.0,1000.0,42.777583725150926,27.666747220273905,309000,154500.0,9301.29053902626
6.55469250869751,-3.785065318107605,-26.04836626434326,0.5148963240385056,155000.0,11.75594405555725,25.71262659454346,25.71207637786865,25.71249089050293,310.0,1000.0,164.31478576276328,27.264724609480467,310000,155000.0,9337.967968940735
6.547202934265137,-3.7790478353500365,-26.344126640319825,0.5228644849061966,155500.0,12.324328859329224,26.002418754577636,26.003885055541993,26.005807945251465,311.0,1000.0,267.3889485824542,16.321902429602538,311000,155500.0,9399.235337018967
6.539703977584839,-3.770875825881958,-26.34404224395752,0.5216893284320832,156000.0,12.189440059661866,26.00083393096924,25.999331230163573,26.001968200683592,312.0,1000.0,42.901363101272466,24.67315527147757,312000,156000.0,9439.765215873718
6.5321957397460935,-3.764942232131958,-26.317835655212402,0.5218537129163742,156500.0,11.92750147819519,26.000083183288574,26.000175231933593,26.000152702331544,313.0,1000.0,340.37823844456915,24.845583951494227,313000,156500.0,9480.013817071915
6.52467794418335,-3.7566108026504517,-26.23046413421631,0.5222721565961838,157000.0,11.681548324584961,25.8975397567749,25.898224670410155,25.89762649536133,314.0,1000.0,150.15780848017843,25.425288818136192,314000,157000.0,9519.344738006592
6.517150785446167,-3.749430648803711,-26.203068809509276,0.5327576744556427,157500.0,11.758791585922241,25.883191108703613,25.88280325317383,25.881613739013673,315.0,1000.0,207.81624676969463,25.96473334774187,315000,157500.0,9557.858518123627
6.50961414527893,-3.7433749694824217,-26.30677141571045,0.5290584243535995,158000.0,11.900966419219971,25.969285552978516,25.969140098571778,25.97479479217529,316.0,1000.0,129.56406258057248,25.538918432859223,316000,158000.0,9597.014444112778
6.502068061828613,-3.737344753265381,-26.460816123962402,0.5317159583568573,158500.0,12.251185731887817,26.118200965881346,26.118199798583984,26.117662254333496,317.0,1000.0,105.04499870799373,25.68626313822354,317000,158500.0,9635.945759057999
6.494512479782104,-3.729079405784607,-26.537997718811035,0.5279385517835617,159000.0,12.533804719924927,26.19906563568115,26.19946781921387,26.19865270996094,318.0,1000.0,226.54371960457962,25.967141688317025,318000,159000.0,9674.455966949463
6.486947317123413,-3.7220774383544923,-26.273205101013183,0.5328266961574555,159500.0,12.300930295944214,25.928847831726074,25.928756759643555,25.930583236694336,319.0,1000.0,59.156310057499766,26.654964752380902,319000,159500.0,9711.972431182861
6.479372674942017,-3.714906332015991,-26.33898484802246,0.5362235152721405,160000.0,12.489232343673706,25.993931358337402,25.99415975189209,25.996493415832518,320.0,1000.0,108.3006654578976,26.695924739191636,320000,160000.0,9749.431333065033
6.471788391113281,-3.7084007863998414,-26.317558578491212,0.5313464109897613,160500.0,12.71951753616333,25.987502136230468,25.986243499755858,25.986793289184572,321.0,1000.0,54.95838060696711,16.394507726714,321000,160500.0,9810.427371025085
6.464194538116455,-3.7017411985397337,-26.416997703552248,0.5339615579843521,161000.0,12.442685264587402,26.07309783935547,26.07428783416748,26.072656188964842,322.0,1000.0,113.10740191923598,24.593228661451292,322000,161000.0,9851.088970899582
6.456591062545776,-3.6927607069015504,-26.397075210571288,0.5346114681959152,161500.0,13.048981658935547,26.048485389709473,26.048286827087402,26.054784561157227,323.0,1000.0,123.37675797236648,25.72590115335932,323000,161500.0,9889.960302114487
6.4489779396057125,-3.6861597394943235,-26.156777763366698,0.5322971574068069,162000.0,13.245647832870484,25.823757431030273,25.82372882080078,25.82039193725586,324.0,1000.0,135.0964078172778,25.302110579968847,324000,162000.0,9929.482695817947
6.441355136871338,-3.6798971853256224,-26.330055778503418,0.5325357880592346,162500.0,12.498168388366699,25.98291198730469,25.983289611816407,25.98624031829834,325.0,1000.0,157.39114045836823,26.16114261742372,325000,162500.0,9967.707326889038
6.433722688674926,-3.673850175857544,-26.462815925598143,0.5316485178470611,163000.0,13.099287281036377,26.120748779296875,26.120905029296875,26.123901679992677,326.0,1000.0,67.64005452455191,26.323861030606388,326000,163000.0,10005.695675849915
6.426080497741699,-3.6654167613983155,-26.350540542602538,0.5319775087833405,163500.0,12.595234594345094,26.019156730651854,26.020520004272463,26.020443977355956,327.0,1000.0,79.57648272895648,25.949865449738773,327000,163500.0,10044.231522083282
6.418428516387939,-3.659872922897339,-26.47705121612549,0.5395780980587006,164000.0,12.613486085891724,26.151300346374512,26.150337890625,26.150989669799806,328.0,1000.0,170.45015073316816,26.297058393150888,328000,164000.0,10082.258588075638
6.410766801834106,-3.6526870794296267,-26.218759590148927,0.5307105700969696,164500.0,12.737120388031006,25.90412390136719,25.90487387084961,25.905806716918946,329.0,1000.0,98.34325646996628,25.42820148969239,329000,164500.0,10121.585004091263
6.403095296859741,-3.6461078186035154,-26.495509757995606,0.5403054646253586,165000.0,12.795672782897949,26.16913870239258,26.169436012268065,26.167083084106444,330.0,1000.0,181.34802584272316,23.294264747888572,330000,165000.0,10164.514026880264
6.395413902282715,-3.6386992893218992,-26.276956939697264,0.5345680453777313,165500.0,12.88041787147522,25.943056564331055,25.94393007659912,25.94837663269043,331.0,1000.0,260.1462375209657,12.87956341653396,331000,165500.0,10242.15641117096
6.387722724914551,-3.6305909128189087,-26.431060752868653,0.5409673743247986,166000.0,12.919328205108643,26.101718734741212,26.101865966796876,26.103243797302245,332.0,1000.0,129.95224681644729,16.715364404539713,332000,166000.0,10301.981611013412
6.380021667480468,-3.6236944332122802,-26.484441024780274,0.5407628065347672,166500.0,12.388563264846802,26.141382469177245,26.141376190185547,26.139817810058595,333.0,1000.0,358.1733112924742,20.199002192492372,333000,166500.0,10351.489006996155
6.372310710906983,-3.6161329832077027,-26.556216178894044,0.5481744502782822,167000.0,12.587904047012328,26.209065559387206,26.20974822998047,26.20985661315918,334.0,1000.0,73.61981146785526,20.986784737879095,334000,167000.0,10399.13804101944
6.364589817047119,-3.609440234184265,-26.424346450805665,0.5460233654975891,167500.0,12.769540784835815,26.09480647277832,26.094713844299317,26.098244895935057,335.0,1000.0,102.53364729658011,22.934921398277663,335000,167500.0,10442.739673137665
6.356858985900879,-3.601896674156189,-26.499962348937988,0.5436931974887848,168000.0,12.696476802825927,26.156037956237792,26.155868530273438,26.153592475891113,336.0,1000.0,203.82070024505268,24.19175489163185,336000,168000.0,10484.076071977615
6.349118171691894,-3.594430890083313,-26.409415145874025,0.5480604603290558,168500.0,12.061628528594971,26.081036895751954,26.080676666259766,26.083983154296874,337.0,1000.0,97.0620944136299,24.923242689343613,337000,168500.0,10524.199262857437
6.341367385864258,-3.5879754114151,-26.488033599853516,0.5460645776987075,169000.0,12.49089137649536,26.156323699951173,26.15665567779541,26.158112976074218,338.0,1000.0,123.13356849808847,25.41889826225819,338000,169000.0,10563.540071964264
6.3336065559387205,-3.5803977890014647,-26.497573959350586,0.5459964926242828,169500.0,12.881136865615845,26.170968528747558,26.171078689575197,26.175153785705568,339.0,1000.0,156.5010200013882,25.317074125018205,339000,169500.0,10603.039108037949
6.325835655212402,-3.5738240041732787,-26.527815994262696,0.5513859069347382,170000.0,12.684758079528809,26.19706436920166,26.196006927490235,26.193610862731934,340.0,1000.0,34.47078834866739,24.734466820660685,340000,170000.0,10643.468523025513
6.318054714202881,-3.566414300918579,-26.519964935302735,0.5459055472612381,170500.0,12.572590785980225,26.183977294921874,26.18548344421387,26.18736392211914,341.0,1000.0,159.59972823753623,14.437973063214695,341000,170500.0,10712.73032283783
6.310263656616211,-3.5591341409683226,-26.667907119750975,0.5486755561828613,171000.0,12.880175806045532,26.3217473526001,26.32038262939453,26.325646148681642,342.0,1000.0,85.19854023479283,21.66819247420166,342000,171000.0,10758.880920171738
6.302462450027466,-3.5517960109710693,-26.535830307006837,0.5453361341953278,171500.0,12.960588123321534,26.214178573608397,26.216628845214842,26.2097727432251,343.0,1000.0,120.25520822096061,22.58710905269659,343000,171500.0,10803.153961896896
6.294651062011718,-3.5446311683654783,-26.639424751281737,0.5536049581766128,172000.0,12.750098857879639,26.29825576019287,26.296850395202636,26.300548217773436,344.0,1000.0,115.6578100821123,23.746379286401233,344000,172000.0,10845.265645980835
6.286829549789429,-3.537169158935547,-26.830567100524902,0.5503676273822784,172500.0,13.215106615066528,26.4918458404541,26.491731826782228,26.491579872131346,345.0,1000.0,87.51621989053262,24.180806839704445,345000,172500.0,10886.62075996399
6.2789977893829345,-3.530547089576721,-26.738274063110353,0.5454316620826721,173000.0,13.060703441619873,26.39424446105957,26.39472215270996,26.395585861206055,346.0,1000.0,172.39362653764738,23.951455551630367,346000,173000.0,10928.371877193451
6.271155799865722,-3.5219098358154297,-26.7822094039917,0.5538035764694214,173500.0,13.024025966644286,26.45500659942627,26.454843132019043,26.455338966369627,347.0,1000.0,70.18627747894985,24.531312907561162,347000,173500.0,10969.136105060577
6.263303604125976,-3.516208984375,-26.651041511535645,0.5518432930707932,174000.0,12.827583444595337,26.320710342407228,26.321301391601562,26.322817665100096,348.0,1000.0,104.32228571372325,24.395337706025114,348000,174000.0,11010.127545118332
6.255440975189209,-3.508463080406189,-26.629718688964843,0.5493702137470245,174500.0,12.868397100448608,26.290226234436034,26.290201416015623,26.292408569335937,349.0,1000.0,158.7361603927804,24.563774388796535,349000,174500.0,11050.837902069092
6.24756823348999,-3.502412729263306,-26.935974182128906,0.5549320616722107,175000.0,12.808261405944824,26.580384811401366,26.580326004028322,26.58157389831543,350.0,1000.0,213.61546250522056,24.455647358845663,350000,175000.0,11091.728252887726
6.239685060501099,-3.4937021808624267,-26.9193744430542,0.5549962066411972,175500.0,13.340700899124146,26.5753892288208,26.575234741210938,26.577066650390623,351.0,1000.0,175.76394898433625,14.628204856124821,351000,175500.0,11160.089341878891
6.231791473388672,-3.4877539768218995,-26.902868576049805,0.5572125784158707,176000.0,13.093129972457886,26.559126846313475,26.559321723937988,26.56257675933838,352.0,1000.0,63.54703404449801,20.881653922993543,352000,176000.0,11207.978270053864
6.223887495040893,-3.4793954916000365,-26.93855436706543,0.555574605345726,176500.0,12.961672771453857,26.5939810256958,26.594215942382814,26.592003128051758,353.0,1000.0,131.20184166651,20.066928066745824,353000,176500.0,11257.811507940292
6.215973119735718,-3.473602128982544,-27.011643051147463,0.556827917098999,177000.0,12.952033758163452,26.678627815246582,26.678316902160645,26.681574645996093,354.0,1000.0,28.889091590002316,19.7615573880865,354000,177000.0,11308.414808034897
6.20804825592041,-3.464399149894714,-27.01968867492676,0.5586929386854171,177500.0,12.972457473754883,26.662418403625487,26.663241035461425,26.667785079956055,355.0,1000.0,63.15014398742914,18.308527869131783,355000,177500.0,11363.034164905548
6.200112966537476,-3.4576644926071167,-26.979650604248047,0.5529823385477066,178000.0,12.616256233215331,26.648174758911132,26.647874755859377,26.647279777526855,356.0,1000.0,65.09826205286687,18.84115265878112,356000,178000.0,11416.10947394371
6.192167108535767,-3.4505293979644773,-26.92580097961426,0.5530948420763016,178500.0,12.895677696228027,26.589314659118653,26.590876525878905,26.594600692749022,357.0,1000.0,66.24393580022074,19.671532203971875,357000,178500.0,11466.94435620308
6.184210748672485,-3.443810434341431,-26.828463981628417,0.5549756945371628,179000.0,12.889820789337158,26.4975029296875,26.498127471923826,26.493719886779786,358.0,1000.0,82.05676557095757,23.672273196792144,358000,179000.0,11509.187870025635
6.176243804931641,-3.435361512184143,-26.92113510131836,0.5561432764530182,179500.0,12.82067240524292,26.591943061828612,26.59069603729248,26.595203819274904,359.0,1000.0,71.26767274817529,23.673254426511402,359000,179500.0,11551.429634094238
6.168266273498535,-3.4287129735946653,-26.822254516601564,0.5551157760620117,180000.0,12.725395137786865,26.479849609375,26.48019356536865,26.47755609893799,360.0,1000.0,73.97515962826603,23.139019524827614,360000,180000.0,11594.646677970886
6.1602781276702885,-3.4204893264770506,-26.960380294799805,0.5530003430843353,180500.0,12.72905769920349,26.627626892089843,26.62751747894287,26.630184074401857,361.0,1000.0,168.90676014389877,14.59858978863954,361000,180500.0,11663.146445989609
6.152279331207275,-3.4136141424179076,-26.808834579467774,0.5531364109516144,181000.0,13.032002616882325,26.488643325805665,26.4875498046875,26.485023429870605,362.0,1000.0,105.84641005526854,22.52830422010816,362000,181000.0,11707.535051107407
6.14426985168457,-3.405051609992981,-26.648902755737303,0.555200024485588,181500.0,13.010078580856323,26.339161849975586,26.339013313293457,26.34080832672119,363.0,1000.0,93.47659108694599,23.14674700768717,363000,181500.0,11750.73766708374
6.136249685287476,-3.3985917234420775,-26.63539547729492,0.5547380558252335,182000.0,12.903600231170655,26.301779983520507,26.302101493835448,26.306675537109374,364.0,1000.0,55.427965053858614,22.708657963340737,364000,182000.0,11794.773736000061
6.128218765258789,-3.3915522899627684,-26.673545089721678,0.5507332937717437,182500.0,12.777781757354736,26.3532191696167,26.3540831451416,26.350889892578124,365.0,1000.0,192.74651228927252,22.509119893178195,365000,182500.0,11839.200174093246
6.120177068710327,-3.3830894565582277,-26.64523257446289,0.5595571112632751,183000.0,13.118528831481933,26.322475051879884,26.32164003753662,26.325917167663576,366.0,1000.0,61.550753688985864,23.43310617456926,366000,183000.0,11881.8748421669
6.11212459564209,-3.374501566886902,-26.731297439575194,0.5581670930385589,183500.0,12.892095901489258,26.39928977203369,26.400826156616212,26.396240531921386,367.0,1000.0,50.55828733986361,23.22105429387683,367000,183500.0,11924.93920993805
6.104061304092407,-3.36702970123291,-26.50638296508789,0.545016212105751,184000.0,12.921528364181519,26.194036361694337,26.193650970458986,26.197868324279785,368.0,1000.0,90.76982965230101,22.35880360753672,368000,184000.0,11969.664323091507
6.095987163543701,-3.3613116998672483,-26.55984044647217,0.5572437428236008,184500.0,12.55298935699463,26.243643287658692,26.244367240905763,26.24643392944336,369.0,1000.0,64.16829874297122,22.71275571360938,369000,184500.0,12013.692446947098
6.087902156829834,-3.354444865226746,-26.644597343444826,0.5545337688922882,185000.0,12.624189231872558,26.32397836303711,26.32343992614746,26.322567832946778,370.0,1000.0,68.04017453285628,22.87460439387556,370000,185000.0,12057.409049987793
6.079806234359741,-3.3446631717681883,-26.54486403656006,0.551381530880928,185500.0,12.528091352462768,26.22645578765869,26.225526397705078,26.231216522216798,371.0,1000.0,168.8740592891887,14.236612201248025,371000,185500.0,12127.650480031967
6.071699346542358,-3.337978714942932,-26.598279190063476,0.5541018924713135,186000.0,12.260828599929809,26.278827323913575,26.27806078338623,26.271329093933105,372.0,1000.0,122.67835653310306,21.24364772841739,372000,186000.0,12174.723374128342
6.063581533432007,-3.3309009351730348,-26.702496818542482,0.5534111348390579,186500.0,12.520884677886963,26.37604714202881,26.37667854309082,26.382520309448243,373.0,1000.0,118.65062373337732,18.334771245238006,373000,186500.0,12229.264551877975
6.0554526424407955,-3.3223324069976807,-26.66075525665283,0.5555351850986481,187000.0,12.869276586532592,26.334438262939454,26.33484873199463,26.335046585083006,374.0,1000.0,79.20046291342855,17.655503424755246,374000,187000.0,12285.904115915298
6.047312784194946,-3.314813834190369,-26.792434326171875,0.5593367854356766,187500.0,13.384285533905029,26.464003204345705,26.463319290161134,26.465972091674804,375.0,1000.0,144.22213119369565,17.38005351466816,375000,187500.0,12343.441338062286
6.039161817550659,-3.307419487953186,-26.61331679534912,0.5527278760671616,188000.0,12.709802434921265,26.304343101501466,26.305093574523926,26.30787628173828,376.0,1000.0,258.5103018206647,18.21841806598865,376000,188000.0,12398.330847024918
6.030999870300293,-3.300721510887146,-26.721993774414063,0.5580074412822723,188500.0,13.373777645111083,26.404624519348143,26.40450777435303,26.401844879150392,377.0,1000.0,113.91066047393932,19.318626258002105,377000,188500.0,12450.094362020493
6.022826711654663,-3.2936452541351318,-26.665167175292968,0.5597498354911804,189000.0,13.61948281478882,26.336641044616698,26.336980575561522,26.336292694091796,378.0,1000.0,162.67184102894936,21.000919397073158,378000,189000.0,12497.711325883865
6.01464243888855,-3.28562096118927,-26.693776657104493,0.5597916142940521,189500.0,12.639383428573609,26.385551536560058,26.386108406066896,26.391167366027833,379.0,1000.0,67.99368100257247,21.348121028924602,379000,189500.0,12544.553857088089
6.006446983337402,-3.277786919593811,-26.81828540802002,0.5629985402822495,190000.0,12.944305135726928,26.490337371826172,26.49075322723389,26.48936065673828,380.0,1000.0,80.16825321120783,21.105086388395623,380000,190000.0,12591.935801029205
5.998240343093872,-3.2705432891845705,-26.776758766174318,0.5566942102909088,190500.0,13.203213453292847,26.444658325195313,26.44425129699707,26.44808048248291,381.0,1000.0,148.76674341595088,13.182627285714936,381000,190500.0,12667.7932138443
5.990022445678711,-3.262129853248596,-26.790702392578126,0.5631707961559296,191000.0,13.35121728515625,26.465942161560058,26.4658285446167,26.46789530181885,382.0,1000.0,57.41134378598198,21.070337247900497,382000,191000.0,12715.253299951553
5.981793237686158,-3.254211284637451,-26.68193369293213,0.5585558832883835,191500.0,12.855611865997314,26.362800941467285,26.36316064453125,26.360429443359376,383.0,1000.0,61.63229893911389,23.3515296153155,383000,191500.0,12758.077048063278
5.973552770614624,-3.247413391113281,-26.623741607666016,0.5536332746744156,192000.0,13.533573509216309,26.31496908569336,26.315566223144533,26.317641777038574,384.0,1000.0,95.02851562254232,23.77684536669696,384000,192000.0,12800.134772062302
5.96530096244812,-3.2400201206207275,-26.808392959594727,0.5585311992168427,192500.0,13.500182182312011,26.478125228881837,26.47791855621338,26.479582489013673,385.0,1000.0,216.41911498181264,21.871625875503643,385000,192500.0,12845.856111049652
5.957037803649903,-3.2331924142837525,-26.802064613342285,0.5633466519117355,193000.0,13.163406021118163,26.463422637939452,26.464459648132323,26.46274368286133,386.0,1000.0,125.64754586720531,21.177551527978856,386000,193000.0,12893.075922966003
5.948763219833374,-3.2264040260314943,-26.735071311950684,0.5609035298824311,193500.0,13.607234161376953,26.414341575622558,26.412829757690428,26.4161556930542,387.0,1000.0,62.45547198756747,21.554925395197152,387000,193500.0,12939.469033002853
5.9404772167205815,-3.219362654685974,-26.71219515991211,0.55845683324337,194000.0,12.922486715316772,26.398732620239258,26.399993141174317,26.39891845703125,388.0,1000.0,168.21086431941103,22.285150036676445,388000,194000.0,12984.341964960098
5.932179752349853,-3.211810682296753,-26.869287406921387,0.5642595143318176,194500.0,13.492685981750489,26.553459938049315,26.553054992675783,26.556445892333983,389.0,1000.0,210.23390878926028,22.156284554946577,389000,194500.0,13029.475887060165
5.9238708152771,-3.2037682905197142,-26.999839157104493,0.5705768517255783,195000.0,13.41734087753296,26.684472770690917,26.68499849700928,26.68292113494873,390.0,1000.0,205.6948786233833,19.927101834633774,390000,195000.0,13079.658800125122
5.915550321578979,-3.1968704652786255,-26.88030633544922,0.5681295930147171,195500.0,13.195704502105713,26.536007804870607,26.535435317993166,26.53804035949707,391.0,1000.0,69.18898540245327,11.502179477607338,391000,195500.0,13166.59884595871
5.907218322753907,-3.1888536205291746,-26.97471614074707,0.5659363635778427,196000.0,13.115406410217286,26.654882461547853,26.65533176422119,26.660775512695313,392.0,1000.0,153.17658926224408,14.912914341461523,392000,196000.0,13233.654820203781
5.898874666213989,-3.1829436626434324,-26.915432266235353,0.5663063875436782,196500.0,13.522982431411743,26.601618461608886,26.60030386352539,26.598874908447264,393.0,1000.0,35.13316847521627,16.21617406378168,393000,196500.0,13295.321647167206
5.8905194606781,-3.17259369468689,-26.922893173217773,0.5600770601034164,197000.0,13.349414058685303,26.59687094116211,26.598406120300293,26.59754697418213,394.0,1000.0,71.89966728627037,19.328585230016444,394000,197000.0,13347.058491945267
5.882152572631836,-3.1663833332061766,-26.83465796661377,0.5643156725168228,197500.0,12.981496635437011,26.520106163024902,26.52034413909912,26.5261947555542,395.0,1000.0,57.49200247051429,20.976062366305424,395000,197500.0,13394.731883049011
5.873774013519287,-3.158061800003052,-26.664415641784668,0.5601210848093033,198000.0,13.35387896156311,26.367723358154297,26.367271759033205,26.36379438018799,396.0,1000.0,44.71504238851015,20.966975932141107,396000,198000.0,13442.42593407631
5.865383726119995,-3.148755449295044,-26.817699226379396,0.5640261843204498,198500.0,13.380679164886475,26.489935417175293,26.489739135742187,26.494244392395018,397.0,1000.0,141.59958819347622,22.08241508725094,397000,198500.0,13487.71083688736
5.856981716156006,-3.1424842109680178,-26.845003646850586,0.5608454016447068,199000.0,13.462674724578857,26.51759700012207,26.51803092956543,26.51960732269287,398.0,1000.0,84.69307023854428,22.230908997855767,398000,199000.0,13532.693253040314
5.848567892074585,-3.1356455965042116,-27.051463455200196,0.5637961940765381,199500.0,13.789476198196411,26.71608876800537,26.71486117553711,26.71239218902588,399.0,1000.0,67.10787459633269,22.220743301299674,399000,199500.0,13577.696249008179
5.840142234802246,-3.128185311317444,-26.962845909118652,0.5635573344230652,200000.0,13.589020086288452,26.637090476989748,26.63814984893799,26.640954444885253,400.0,1000.0,63.736228284498964,21.53947038579079,400000,200000.0,13624.122646093369
5.831704736709595,-3.1209808759689333,-27.072777053833008,0.5645557336807251,200500.0,13.301349233627318,26.74901862335205,26.749429512023926,26.750926780700684,401.0,1000.0,65.04804075339703,13.19490297393759,401000,200500.0,13699.909487009048
5.823255380630493,-3.113818717956543,-26.853845390319826,0.5651654155254364,201000.0,13.112263290405274,26.538207756042482,26.537610595703125,26.536563484191895,402.0,1000.0,41.27552450513757,20.381705344693437,402000,201000.0,13748.97309589386
5.814794101715088,-3.1043288850784303,-26.763994789123537,0.5601494015455246,201500.0,12.992028827667236,26.4399874420166,26.440793350219728,26.44360311126709,403.0,1000.0,67.08588414259364,20.421394586091548,403000,201500.0,13797.941348075867
5.806320890426636,-3.0966423721313476,-26.816329246520997,0.5639051702022553,202000.0,13.032841251373291,26.500337760925294,26.50111354827881,26.50337184906006,404.0,1000.0,81.75251133708944,21.137833957223815,404000,202000.0,13845.24988603592
5.797835687637329,-3.0903095045089723,-26.78961975860596,0.564730339050293,202500.0,12.899447338104249,26.4802162399292,26.478929885864257,26.479374000549317,405.0,1000.0,189.78981749946888,18.205240370600055,405000,202500.0,13900.179126024246
5.789338439941406,-3.081744659423828,-26.694378189086915,0.5577638673782349,203000.0,12.979114156723023,26.38376107788086,26.383996551513672,26.386076988220214,406.0,1000.0,151.21746754959543,15.848236018916632,406000,203000.0,13963.277631044388
5.780829198837281,-3.073058077812195,-26.96172566986084,0.5627462677955627,203500.0,13.490562540054322,26.65204238128662,26.653336738586425,26.651564338684082,407.0,1000.0,118.44384086467146,14.834016608855507,407000,203500.0,14030.690257072449
5.77230781173706,-3.0651665954589844,-26.872590721130372,0.5615818547010422,204000.0,13.513757692337036,26.563741760253905,26.56287666320801,26.56588887786865,408.0,1000.0,95.75032953162764,15.18699179903225,408000,204000.0,14096.536082983017
5.763774351119995,-3.0575038080215453,-26.87694721221924,0.5632264502048493,204500.0,13.512433582305908,26.55773667907715,26.556961441040038,26.556022727966308,409.0,1000.0,81.19189716007149,17.981326078641352,409000,204500.0,14152.14933514595
5.755228713989258,-3.048505068778992,-26.592443298339845,0.5598349155187606,205000.0,13.346914577484132,26.270661041259764,26.27122850036621,26.275633422851563,410.0,1000.0,156.14241699961764,20.24604371791634,410000,205000.0,14201.54170203209
5.746670864105225,-3.043051031112671,-26.74450121307373,0.5560640026330947,205500.0,13.019333766937256,26.426448249816893,26.42638052368164,26.425476234436037,411.0,1000.0,150.14401951195498,13.057000037577401,411000,205500.0,14278.128973007202
5.7381008491516114,-3.0342513103485107,-26.676252044677735,0.562855712890625,206000.0,13.174019218444824,26.358018745422363,26.35851315307617,26.359526473999022,412.0,1000.0,65.10835623681604,19.24710409783318,412000,206000.0,14330.084841966629
5.729518539428711,-3.025626850128174,-26.782437156677247,0.563869241476059,206500.0,13.511328495025635,26.46965682220459,26.46990786743164,26.47036869812012,413.0,1000.0,247.15694541001054,20.01074375965291,413000,206500.0,14380.05799818039
5.720923936843872,-3.0177710342407225,-26.921824546813966,0.5658200117349624,207000.0,13.489091201782227,26.60639518737793,26.606465141296386,26.610693870544434,414.0,1000.0,148.03689054120983,20.561214689696623,414000,207000.0,14428.693256855011
5.712317022323608,-3.0098364877700807,-27.207480697631837,0.5685323072671891,207500.0,13.745995651245117,26.897302215576172,26.898103874206544,26.899179862976073,415.0,1000.0,129.72509784461715,20.1437862407587,415000,207500.0,14478.336358070374
